app/src/main/assets/spektrafilm/profiles/fujifilm_pro_400h_film.cube
# ============================================================================
# spektrafilm LUT
# Bundle:  spektrafilm_v033_pro400h_8printpack_2lut_prophoto_prophoto  (2lut, 17^3)
# Film:    fujifilm_pro_400h
# Print:   fujifilm_crystal_archive_typeii, kodak_2383, kodak_2393, kodak_ektacolor_edge, kodak_endura_premier, kodak_portra_endura, kodak_supra_endura, kodak_ultra_endura
# Input:   ProPhoto RGB  (cctf on)
# Output:  ProPhoto RGB  (cctf on)
# Created: 2026-06-02T06:13:03Z
# spektrafilm: 0.3.3
# Project: https://github.com/andreavolpato/spektrafilm
#
# Copyright (c) 2026 Andrea Volpato. Generated by spektrafilm. Licensed under CC BY-SA 4.0.
#
# License: spektrafilm LUT by Andrea Volpato, licensed under CC BY-SA 4.0.
#          Full text and attribution requirements in SPEKTRAFILM_LICENSE.txt
#          (shipped in this bundle); also at
#          https://github.com/andreavolpato/spektrafilm/blob/main/SPEKTRAFILM_LICENSE.txt.
#
# Citation: If you use this LUT in your work, please cite the spektrafilm
#           project: https://github.com/andreavolpato/spektrafilm, see
#           CITATION.cff for details.
#
# Notes: Generated by the spektrafilm LUT bundle builder. Apply with trilinear
#        or tetrahedral interpolation in your host (DaVinci Resolve, Nuke,
#        OCIO-aware DCC). The input and output color spaces are declared in
#        bundle.json; do NOT apply this LUT to a signal in a different color
#        space.
#
# Role:    film  (domain=input_rgb → range=cmy_film)
# File: lut_v033_pro400h_film.cube  (see sibling bundle.json for full metadata)
# ============================================================================
TITLE "v033_pro400h_film"
DOMAIN_MIN 0 0 0
DOMAIN_MAX 1 1 1
LUT_3D_SIZE 5
0.116177752 0.110065489 0.08867213478
0.6642563992 0.1145204013 0.11890735
0.8221546123 0.1316885849 0.2159357213
0.8971798045 0.1552886838 0.3080914577
0.9413968307 0.1878713754 0.373346157
0.1226241147 0.7505553235 0.09036091992
0.6170725592 0.5871233778 0.1016953648
0.8240493237 0.4631274993 0.1466483308
0.9137283573 0.3983422718 0.2259927509
0.9579096772 0.373878556 0.3165512731
0.1612408268 0.8987397583 0.09993270618
0.4559278545 0.8431263691 0.1091100473
0.7707616228 0.7267546415 0.1401861017
0.8850656979 0.6530894001 0.2014122013
0.9435187943 0.6016060012 0.2767188065
0.2163899306 0.9392390449 0.1169870806
0.3896076747 0.9245322768 0.12277231
0.6805048277 0.8643089855 0.1486622916
0.8543923797 0.8002395158 0.1962747095
0.9274136004 0.7536435813 0.2638311065
0.2730949464 0.9575908662 0.1377251322
0.3839344237 0.9517275874 0.1426899212
0.6025666999 0.9280489261 0.1639226108
0.8003801087 0.8876011335 0.2059612741
0.9052821642 0.8492779281 0.2610439002
0.116177752 0.1842838812 0.6856209498
0.6174195513 0.1276816744 0.6015906208
0.7956068749 0.1322219738 0.6489653737
0.880818448 0.1481912519 0.6407089158
0.9299027584 0.1764605017 0.6172200127
0.1227678685 0.6392488914 0.5870809541
0.5586933183 0.5282186748 0.4849678679
0.7984919155 0.4127320446 0.4725832836
0.9020914323 0.3327951561 0.4844160389
0.9511288094 0.3099094332 0.4976356092
0.1727001757 0.840713797 0.4535256406
0.4640750081 0.7798755457 0.4358218419
0.7546154095 0.6894176015 0.3985237414
0.8759456088 0.6260088325 0.3993164869
0.9407520188 0.5747283484 0.4168442422
0.224653446 0.9182267474 0.3534379532
0.4090693035 0.8961641737 0.3710422113
0.6830682023 0.837005481 0.367504189
0.8486787601 0.7817140407 0.3697890222
0.922209176 0.7421254016 0.3882776478
0.2770993567 0.9484676545 0.2990839686
0.3963167879 0.939883297 0.3197758034
0.6121516322 0.9142687218 0.3395101727
0.8014335126 0.8759028085 0.3532233034
0.9030284444 0.8398178948 0.3739294894
0.1165736659 0.3632827584 0.8472452897
0.4336981368 0.2602892379 0.7798893483
0.7711545312 0.1746859044 0.7388105716
0.8724887536 0.1731606685 0.7694556776
0.9252565597 0.1899431044 0.7845629468
0.1183229891 0.5895397153 0.8153040066
0.4406732207 0.5396235845 0.7253712726
0.7534972197 0.4268654459 0.6786929607
0.876373846 0.3471668518 0.6974158913
0.9351638769 0.3120912345 0.7173119551
0.1544885329 0.7928930104 0.7435452393
0.3987128224 0.7523186634 0.6828303754
0.7147948862 0.6657841728 0.6235484974
0.8521555912 0.6058043324 0.6114032453
0.9287145469 0.5504675894 0.6146307019
0.2275577032 0.8826423508 0.6629143581
0.400715375 0.8614826714 0.6433332813
0.6627147042 0.8065309486 0.5973302874
0.8280090108 0.7565842709 0.5699751484
0.9082897513 0.7220498817 0.5616629442
0.2951503533 0.9274726322 0.5916116824
0.4106401326 0.9179556353 0.5921932296
0.6121033701 0.8907352798 0.572446907
0.7922555896 0.8517673441 0.5477194285
0.8935904728 0.8216602091 0.5342197908
0.1170220342 0.4683697231 0.9180387555
0.2086548 0.4606380611 0.889345007
0.6915273931 0.3007260794 0.8210869191
0.855073595 0.2340000822 0.81293428
0.9192963394 0.2281695855 0.834889995
0.1184877999 0.5890571719 0.9096957494
0.2270803002 0.5888341092 0.8635232161
0.676469073 0.4736112532 0.7989637045
0.8501822874 0.3924158549 0.7798092544
0.922104782 0.3506644362 0.7973996287
0.1371785489 0.7667603064 0.8724946688
0.2741504754 0.7524012031 0.8200275926
0.6607695765 0.6650430588 0.7626244275
0.8241980995 0.6045114548 0.7386257038
0.9099641523 0.551591399 0.7409698585
0.2007693386 0.8599072067 0.8171169168
0.3442127959 0.84552383 0.789777189
0.6194925288 0.7968721385 0.7347230317
0.8016799409 0.7454467387 0.7069430341
0.8923088362 0.7098334374 0.69904864
0.2815905024 0.9092142609 0.767896528
0.3894172493 0.9014906397 0.7564714644
0.5892367227 0.8770518506 0.7187348678
0.7722441843 0.837406944 0.6898113669
0.8790204834 0.8072620091 0.6708807772
0.1183611741 0.5401111457 0.955298498
0.1352213282 0.5474985277 0.9417522187
0.5792125551 0.4152411913 0.894545261
0.813385765 0.3418364609 0.8635282268
0.9057115282 0.2995435296 0.8647994355
0.1197154188 0.6121686822 0.9530324535
0.1461303917 0.629659427 0.9318693333
0.5932011457 0.5210006293 0.8797080904
0.8038466921 0.454846482 0.8497353038
0.9044667655 0.3979571199 0.8439505649
0.1322717546 0.752840202 0.9330876737
0.1874089588 0.7547328209 0.9058334632
0.5862890894 0.6777821671 0.8538395024
0.7853384615 0.6163425367 0.8232008763
0.8923974144 0.562255607 0.8103277934
0.1735446598 0.846076433 0.9012630307
0.2686113475 0.8392237847 0.8796795623
0.5625469744 0.7972369754 0.8287146888
0.7707864825 0.7433071164 0.7999559066
0.8752619083 0.7066362327 0.7867850072
0.2519540699 0.8979957334 0.8677207501
0.3473761374 0.8927858995 0.8535200471
0.5479482996 0.8724889686 0.8132873542
0.7436251073 0.8323257742 0.7815983532
0.8610838254 0.8001451606 0.7648449492
