app/src/main/assets/spektrafilm/profiles/fujifilm_provia_100f_film.cube
# ============================================================================
# spektrafilm LUT
# Bundle:  spektrafilm_v033_provia100f_portraendura_1lut_prophoto_prophoto  (1lut, 17^3)
# Film:    fujifilm_provia_100f
# Print:   kodak_portra_endura
# Input:   ProPhoto RGB  (cctf on)
# Output:  ProPhoto RGB  (cctf on)
# Created: 2026-06-02T06:53:55Z
# spektrafilm: 0.3.3
# Project: https://github.com/andreavolpato/spektrafilm
#
# Copyright (c) 2026 Andrea Volpato. Generated by spektrafilm. Licensed under CC BY-SA 4.0.
#
# License: spektrafilm LUT by Andrea Volpato, licensed under CC BY-SA 4.0.
#          Full text and attribution requirements in SPEKTRAFILM_LICENSE.txt
#          (shipped in this bundle); also at
#          https://github.com/andreavolpato/spektrafilm/blob/main/SPEKTRAFILM_LICENSE.txt.
#
# Citation: If you use this LUT in your work, please cite the spektrafilm
#           project: https://github.com/andreavolpato/spektrafilm, see
#           CITATION.cff for details.
#
# Notes: Generated by the spektrafilm LUT bundle builder. Apply with trilinear
#        or tetrahedral interpolation in your host (DaVinci Resolve, Nuke,
#        OCIO-aware DCC). The input and output color spaces are declared in
#        bundle.json; do NOT apply this LUT to a signal in a different color
#        space.
#
# File: lut_v033_provia100f_portraendura.cube  (see sibling bundle.json for full metadata)
# ============================================================================
TITLE "v033_provia100f_portraendura"
DOMAIN_MIN 0 0 0
DOMAIN_MAX 1 1 1
LUT_3D_SIZE 5
0.01054885541 0.009697935307 0.01187297413
0.3093136278 0.1121534224 0.05169174761
0.3342194128 0.1151796188 0.08058278542
0.3641150048 0.1326642035 0.1415942909
0.4210804951 0.1757312549 0.2232951009
0.1163190411 0.264128722 0.09024946209
0.4823897995 0.4793950156 0.1417275847
0.6258280685 0.4878542908 0.1757409943
0.624608116 0.4639418079 0.2459727991
0.6323274797 0.4643088581 0.3316926834
0.2251313272 0.3913665112 0.1215554316
0.3912652512 0.5209859327 0.1575578135
0.724100123 0.7162780282 0.2339820942
0.7645028354 0.749132412 0.3127185341
0.7726528989 0.7589305414 0.3952759091
0.3535342302 0.498225303 0.1505459357
0.4382219995 0.5618532499 0.1736244328
0.6836494059 0.7194524984 0.2477571214
0.770255858 0.7737675568 0.3272747918
0.7822113156 0.7898469697 0.4125953655
0.4600690093 0.5763749486 0.1775312773
0.51767799 0.6188532488 0.1984492781
0.6683049637 0.7192223532 0.2629774487
0.7634460027 0.7760365938 0.3416439451
0.783169284 0.7938861564 0.4241310505
0.06735144503 0.03570648009 0.1789839544
0.3324014667 0.1141069818 0.2836183084
0.3730352921 0.1279812705 0.3289109855
0.3969377593 0.1434720863 0.3576367959
0.4533886408 0.1877913336 0.4170594688
0.1518963816 0.2906207016 0.3571234557
0.4721049714 0.4670033739 0.4647699442
0.6452497403 0.4714466381 0.4810833786
0.6178894894 0.4108579499 0.4836715599
0.6151294433 0.400562105 0.5077324851
0.2366791077 0.4520714984 0.3452356819
0.4230795829 0.6065340709 0.4494260509
0.7596099553 0.7685265208 0.5015444582
0.7845578844 0.7739097153 0.5338587032
0.7876958515 0.769898116 0.5756108648
0.3554268725 0.5582327563 0.3074463879
0.4589670259 0.6364686068 0.3874268409
0.7182931237 0.7749443933 0.4706102192
0.7878080663 0.8008875446 0.517274715
0.795594511 0.8058689184 0.5703278164
0.4668793195 0.6265304469 0.2972287257
0.5314407987 0.6740343833 0.354158084
0.6938413972 0.7644345811 0.441840396
0.7796527691 0.8002794896 0.5039428494
0.7952257524 0.8086202582 0.5657997945
0.1258429684 0.1175923271 0.3460151471
0.2787517242 0.1320143118 0.4110407981
0.4274754153 0.1630816254 0.4269227064
0.4631871125 0.1904065354 0.4705317404
0.5232474114 0.249178129 0.5419920001
0.1799783257 0.2762027585 0.4707298932
0.3760843483 0.4338747049 0.6307671907
0.6898815581 0.5133817267 0.7026308786
0.6771554423 0.4722151672 0.6908106444
0.6680440736 0.4547518602 0.6864933197
0.2863975011 0.4792526749 0.5966308505
0.4267951068 0.6041001874 0.6945166858
0.7830567653 0.7820898501 0.7823389454
0.8108660035 0.7860690962 0.7845472817
0.8108844985 0.7777074105 0.7885395895
0.4167508162 0.6121553086 0.6706447812
0.5111972841 0.6794066078 0.7249332201
0.7534837979 0.7999713749 0.7765951207
0.8131613897 0.8160967553 0.7748947715
0.8163530113 0.8165084695 0.7788677225
0.5236449265 0.6906204037 0.6820772237
0.5873931832 0.7284858586 0.7213993767
0.7373941085 0.7975024833 0.7607616281
0.8070491789 0.8180482744 0.7651874458
0.8155299896 0.8200285424 0.7710616488
0.1634672711 0.1991140076 0.4322658735
0.2023051537 0.2365023241 0.483262826
0.5693793285 0.3108032942 0.6014028039
0.5753398162 0.3115376484 0.6019589465
0.5998444807 0.3444896299 0.6281658746
0.2063068561 0.3074573127 0.512002782
0.2642889962 0.3866690788 0.580033034
0.7174573115 0.5747156007 0.7572400011
0.7231184057 0.5519188032 0.7476808719
0.7143929419 0.5350753756 0.7400520207
0.3098046152 0.4938080128 0.6364605124
0.3803559602 0.5642019722 0.6907685298
0.7700798001 0.7799612419 0.8200566418
0.8151899413 0.789796484 0.8186003966
0.8160542248 0.7849057302 0.819173599
0.4352365972 0.6210048959 0.7250334858
0.503142933 0.6707193231 0.7599811007
0.7415497034 0.7958954917 0.8209059169
0.8171934468 0.8172499432 0.8173697125
0.8206433642 0.817774251 0.8177654243
0.5499817144 0.7043111771 0.7751475026
0.6028210868 0.7355369694 0.7950179009
0.7420775212 0.7993258204 0.8193589862
0.8125450804 0.819707747 0.8160248462
0.8205017201 0.8214446231 0.815645753
0.209810035 0.2860181494 0.5088572996
0.2150103885 0.2975419763 0.5170786988
0.618082254 0.4394002523 0.6881464386
0.6672247272 0.4514017271 0.697063138
0.6695315168 0.4551408119 0.6993549355
0.2510101266 0.3701366086 0.567283776
0.2636440493 0.4000978366 0.5848430109
0.6955760158 0.628280426 0.7796627327
0.7661265242 0.6393027997 0.7876280701
0.7583525749 0.6202725237 0.7803491223
0.345839651 0.5237925856 0.666030131
0.3691181005 0.5522301628 0.6844874128
0.7182488245 0.7654482609 0.8210235061
0.8156435413 0.7940289936 0.8223090256
0.8174369831 0.7912272848 0.8220120551
0.4517066554 0.6312052284 0.7371789793
0.4890419916 0.6598196368 0.7565151529
0.7120570019 0.7847416772 0.8240680331
0.816112045 0.8172144888 0.8225256256
0.8210151016 0.8181410979 0.8219268734
0.5597940851 0.7096531612 0.7872620723
0.5983398215 0.7325613402 0.8007716785
0.7270138723 0.7937996033 0.8255705832
0.8105831637 0.8192780202 0.8229635472
0.8210647431 0.8215960777 0.8216013946
