app/src/main/assets/spektrafilm/profiles/fujifilm_xtra_400_film.cube
# ============================================================================
# spektrafilm LUT
# Bundle:  spektrafilm_v033_xtra400_8printpack_2lut_prophoto_prophoto  (2lut, 17^3)
# Film:    fujifilm_xtra_400
# Print:   fujifilm_crystal_archive_typeii, kodak_2383, kodak_2393, kodak_ektacolor_edge, kodak_endura_premier, kodak_portra_endura, kodak_supra_endura, kodak_ultra_endura
# Input:   ProPhoto RGB  (cctf on)
# Output:  ProPhoto RGB  (cctf on)
# Created: 2026-06-02T06:13:04Z
# spektrafilm: 0.3.3
# Project: https://github.com/andreavolpato/spektrafilm
#
# Copyright (c) 2026 Andrea Volpato. Generated by spektrafilm. Licensed under CC BY-SA 4.0.
#
# License: spektrafilm LUT by Andrea Volpato, licensed under CC BY-SA 4.0.
#          Full text and attribution requirements in SPEKTRAFILM_LICENSE.txt
#          (shipped in this bundle); also at
#          https://github.com/andreavolpato/spektrafilm/blob/main/SPEKTRAFILM_LICENSE.txt.
#
# Citation: If you use this LUT in your work, please cite the spektrafilm
#           project: https://github.com/andreavolpato/spektrafilm, see
#           CITATION.cff for details.
#
# Notes: Generated by the spektrafilm LUT bundle builder. Apply with trilinear
#        or tetrahedral interpolation in your host (DaVinci Resolve, Nuke,
#        OCIO-aware DCC). The input and output color spaces are declared in
#        bundle.json; do NOT apply this LUT to a signal in a different color
#        space.
#
# Role:    film  (domain=input_rgb → range=cmy_film)
# File: lut_v033_xtra400_film.cube  (see sibling bundle.json for full metadata)
# ============================================================================
TITLE "v033_xtra400_film"
DOMAIN_MIN 0 0 0
DOMAIN_MAX 1 1 1
LUT_3D_SIZE 17
0.08995232527 0.0850991405 0.06972771328
0.2807450649 0.0854438766 0.07002728314
0.4574688417 0.0857119433 0.07067754795
0.5697747353 0.08628543151 0.07267490344
0.6545668012 0.0875529661 0.07688799723
0.7161590869 0.08877894915 0.08274347293
0.7651748486 0.09105728635 0.09020305598
0.803980962 0.09280782121 0.09946026291
0.8349730273 0.09500892624 0.1088002
0.8585675953 0.09763280341 0.120000917
0.8811787406 0.1001819499 0.1314288305
0.8967856713 0.1023793216 0.1422955946
0.9103487103 0.104359715 0.1534121673
0.9229395438 0.1064994711 0.1642536306
0.932272145 0.1091582232 0.175612763
0.9406986991 0.1121359649 0.18676634
0.9490472675 0.1149834062 0.1980395164
0.09093463419 0.1850578529 0.06972771328
0.2523715662 0.1580475791 0.07004314398
0.4599281654 0.1166308617 0.07038452135
0.585763306 0.1037238766 0.07148566789
0.6737451759 0.1011804984 0.07383659459
0.7360527568 0.1006301055 0.07749934233
0.7842763316 0.1012853855 0.0826558264
0.8208592298 0.1022366921 0.08891641705
0.8475073874 0.103407165 0.09697089646
0.8712211249 0.10483582 0.1056670748
0.8905711602 0.1064094671 0.1143887624
0.9037820784 0.1083482162 0.1250918817
0.9174532769 0.1107919784 0.1364152896
0.9282402294 0.1133806518 0.1470546683
0.9364631466 0.1158215172 0.1575361592
0.9448051821 0.1180994989 0.1680018667
0.9526412755 0.1204421339 0.1796206967
0.09507907647 0.4254460554 0.06999962447
0.167485077 0.4331441263 0.07015494375
0.4083471651 0.313509339 0.07038544848
0.5418410554 0.2446980895 0.07134474323
0.6386978718 0.1988701188 0.07270224307
0.7127132977 0.171434641 0.07532913805
0.7683192512 0.1548529917 0.07870278524
0.8122244943 0.1450673918 0.08269655825
0.8444062939 0.1398450838 0.08762465023
0.8711723986 0.136833309 0.09406460618
0.8924448137 0.1348774682 0.1014526242
0.9070030297 0.1337419671 0.1083253282
0.9214089196 0.1334195252 0.1165471768
0.9318238082 0.1337561502 0.127097614
0.9409091608 0.1343953233 0.1372564326
0.9497097331 0.1352032772 0.1469108736
0.9566310869 0.1361724703 0.1567698447
0.1050086727 0.5579048141 0.07007293933
0.1471981945 0.5738803372 0.07013741282
0.3367938568 0.4949747087 0.07041504191
0.5030913314 0.4240295611 0.07130217859
0.6042787768 0.371254501 0.0723442683
0.6799634069 0.3240910767 0.07449655795
0.7404448255 0.2825894099 0.07683489153
0.7887452889 0.2498576794 0.08006222583
0.8276621703 0.2239543161 0.08344553598
0.8565326748 0.2079994578 0.08774552624
0.88321914 0.1957800961 0.09298459226
0.9002927254 0.1861901373 0.09921673385
0.9162529607 0.1792472949 0.1054360999
0.9291167378 0.1746680722 0.1121410566
0.9390765186 0.1714032542 0.1205101474
0.9489466536 0.1691061513 0.1297726088
0.9567978568 0.167673263 0.1388166221
0.1185170704 0.6543834889 0.0701459099
0.1496070604 0.6653454966 0.07027843569
0.2830911195 0.6199476143 0.07050082051
0.4504905554 0.5459672776 0.07136513175
0.5715836153 0.4941525817 0.07226682532
0.6547712919 0.4520806821 0.0742284588
0.7157573572 0.4182550766 0.07615410474
0.7642022732 0.3804306028 0.07876933408
0.8073081831 0.3470989777 0.08169796402
0.8408522058 0.3188562291 0.08504008573
0.8676103716 0.2938533211 0.08902800975
0.8908928112 0.2713252916 0.09359849776
0.9070582366 0.2564105193 0.09918243551
0.9226978729 0.24405234 0.1048421299
0.9338630992 0.233001963 0.1104900355
0.9442878323 0.2240378865 0.1176726883
0.9538170768 0.2177410278 0.1262504429
0.1337351177 0.7313669684 0.07018560167
0.1588961014 0.7378072809 0.07039660555
0.2562330743 0.7149754735 0.07068500474
0.4085766076 0.6499899834 0.07146924017
0.5319888881 0.5936561078 0.07240031772
0.6257116696 0.5471447783 0.07421453104
0.6954236997 0.5101345141 0.07602224621
0.7452303171 0.4795759602 0.07826613485
0.7881071153 0.4490066444 0.08089524877
0.8244524109 0.42299408 0.08359873022
0.8521342104 0.3965264478 0.08687326781
0.8779502373 0.3697475045 0.09051852987
0.8972268836 0.3481195249 0.09516941244
0.9134017036 0.3290866515 0.1003481687
0.9275241702 0.3130724304 0.1052970962
0.9380779827 0.2993803963 0.1103542183
0.9487613784 0.2867877593 0.1168362245
0.1507393168 0.7894831885 0.07039813862
0.1716799095 0.7915768675 0.07038499371
0.2464700799 0.7816111519 0.07092323514
0.3721547948 0.7361665828 0.07157584783
0.4966426828 0.6794846521 0.07262081461
0.5949936548 0.6278425453 0.0743395763
0.6719885829 0.591307012 0.07592188563
0.7272780082 0.5559715772 0.07810623565
0.7718447334 0.527113539 0.08057370722
0.8095563011 0.5005268233 0.08302999693
0.8394826619 0.4776489401 0.08588818177
0.8640896076 0.452373918 0.08916545488
0.8879002872 0.4328494557 0.09309654915
0.9040878562 0.4133728012 0.09767797343
0.9202407475 0.3947618678 0.1024643067
0.9319574346 0.3767729313 0.1070534245
0.9425978667 0.3612775308 0.1121083222
0.1674478865 0.8295127485 0.07038586324
0.1876890832 0.8314401549 0.07056390861
0.2457649106 0.8239780513 0.07117519304
0.349075659 0.7980007388 0.07173166919
0.4629107768 0.7560948496 0.07291193133
0.5619685505 0.7062666479 0.07464271694
0.6445730036 0.6606467651 0.0760710151
0.7089160835 0.6248992168 0.07814192901
0.7563136331 0.5981273126 0.08054362541
0.7962910566 0.5691679932 0.08281770116
0.8278929498 0.5439893697 0.08534183407
0.8522877868 0.5189706205 0.08823969402
0.876668172 0.4987601303 0.09171191465
0.8955240397 0.4799958693 0.09566422486
0.9108490559 0.4591145805 0.100002283
0.9253211599 0.4438317012 0.1043322902
0.9360739297 0.4291984274 0.1086712841
0.1860397571 0.8580827932 0.07057963631
0.2017220763 0.857859438 0.07085800626
0.2502305634 0.8543018827 0.0713816652
0.3361124073 0.8395969268 0.07195487021
0.4367685468 0.8090237195 0.07322105903
0.5328209803 0.7718370709 0.07487815084
0.6141989598 0.7258616868 0.07632909402
0.685692216 0.6884654341 0.07822608016
0.7385063143 0.6538241781 0.0803438275
0.7807599128 0.6259779096 0.08254783673
0.8158537318 0.6036040014 0.08493936079
0.8426934272 0.5804951601 0.08765448999
0.8657337905 0.5578365978 0.0908473498
0.8874581717 0.5386156123 0.09454130767
0.9027582445 0.5178920407 0.09866270564
0.918362696 0.5012205196 0.1028671647
0.9304911148 0.4883851194 0.1069489524
0.2023318006 0.8812713241 0.07090637008
0.2153625998 0.8813926926 0.07117699135
0.256939335 0.8782432913 0.07154669658
0.3289053383 0.8666817092 0.07221566985
0.4183161609 0.847048715 0.07356622361
0.5072883104 0.8162805344 0.07506871918
0.5898506772 0.7828539952 0.07655984686
0.6610992176 0.744949334 0.07851525456
0.7185086788 0.7105131744 0.08041237012
0.764889024 0.6811402414 0.08240406719
0.8030644526 0.6543704818 0.08478637475
0.8330327354 0.630669832 0.08742340782
0.8562024018 0.6114177514 0.09033620343
0.8789151663 0.5927977216 0.09363842205
0.8958498539 0.5724333959 0.09738021893
0.9102481828 0.5537978327 0.1013498178
0.9242787667 0.5378944728 0.105131503
0.2174771025 0.8988509744 0.07122207971
0.2311869755 0.8986444438 0.07141283674
0.2650677509 0.8964846627 0.07171838205
0.3264834026 0.8901655359 0.07252633118
0.4048754478 0.8740283899 0.07389944687
0.4879487076 0.8514590802 0.0752794096
0.5643049388 0.8234727334 0.07681322345
0.6351519903 0.7922964007 0.07874436203
0.6970956462 0.7622015293 0.08060956973
0.7467585723 0.7282095824 0.0823162655
0.788379689 0.7029681885 0.08446328329
0.8215484284 0.6797711357 0.08710494154
0.8470021822 0.6569513288 0.08987601319
0.8695699989 0.6359623934 0.09298887158
0.8893393044 0.6185119398 0.09649698853
0.9034180928 0.6030347902 0.1002691508
0.9180035341 0.586842309 0.1039828363
0.2346429028 0.9123964001 0.07145558326
0.2465854246 0.9118733911 0.0716002297
0.2751020365 0.910304897 0.07197804521
0.3282200172 0.905327631 0.07298790975
0.3963303804 0.8958332885 0.0743550702
0.4699670412 0.8786018567 0.07563696117
0.544402908 0.8559895008 0.07720141843
0.6124643147 0.8303994749 0.07912481743
0.6763205485 0.8023160464 0.08096225731
0.7272126895 0.7752436585 0.08255609551
0.7717586364 0.7466088594 0.08444359576
0.8093382595 0.7227882503 0.08689202355
0.8375426725 0.7017076153 0.0895901924
0.8598027949 0.6812232994 0.09256565853
0.8821775124 0.6611778039 0.09582548053
0.8975284224 0.642038699 0.09934458771
0.9113331721 0.626281684 0.1028869673
0.2506264153 0.9249573361 0.07166630405
0.2598987987 0.924637608 0.0718609867
0.2866354273 0.9232487471 0.07236611847
0.3321052879 0.9194062936 0.07347736269
0.3909925314 0.9112263149 0.07472105298
0.4553955138 0.8993397166 0.0759334116
0.5261653661 0.8822926123 0.07757031783
0.59459477 0.8594649764 0.07947188767
0.656716588 0.8366767841 0.08124603258
0.7085998815 0.8098054864 0.08285298268
0.7544405409 0.7867136574 0.08474237169
0.7954230787 0.7654140646 0.08690188898
0.8270539088 0.7409979912 0.08940181944
0.850975806 0.7210280633 0.09236614449
0.8733539314 0.7025375635 0.09553082659
0.8919893443 0.6846484966 0.098896487
0.9055977068 0.6675855194 0.1023599775
0.2642951167 0.9341488656 0.07196876126
0.2732290841 0.9337946796 0.07223463369
0.2983193128 0.9328927734 0.07285361726
0.3370223094 0.930471949 0.07396594879
0.3882253668 0.9250023559 0.07503963832
0.4464985865 0.9147080303 0.07633302443
0.5117803853 0.9010537114 0.07801836266
0.5758477209 0.8840834675 0.07983912766
0.6357942188 0.8620142477 0.08150945526
0.6903565673 0.8408193984 0.08312033411
0.7371848441 0.8182617912 0.08503406665
0.7788816545 0.7974195686 0.08715736118
0.8148902566 0.778603073 0.08933887228
0.8420024863 0.7592677689 0.09210314494
0.8639562329 0.7385213707 0.09524960153
0.8853631121 0.721053026 0.09856029732
0.8999432806 0.7054999795 0.1019652264
0.2784109479 0.9418438166 0.07238100941
0.2873984319 0.9415003204 0.07269766807
0.3095467637 0.9408225417 0.07341875164
0.3425155832 0.9385131399 0.0743990294
0.3882171999 0.9342396921 0.07543331095
0.4404125062 0.9275834019 0.07672169834
0.5009293784 0.9160733346 0.07836693026
0.559664824 0.9018515193 0.08009687159
0.6167099956 0.8850300744 0.08171857752
0.6730431611 0.8641455898 0.08340439088
0.7204330008 0.8458827022 0.08528798243
0.7626044376 0.826005734 0.08735312834
0.8007342144 0.806740242 0.08954714222
0.831654739 0.7890636467 0.09189942452
0.8547859766 0.7732874674 0.09486866618
0.8770412816 0.7559725984 0.09816606399
0.894535383 0.7386538879 0.1016061834
0.2931580559 0.9495391639 0.07288287975
0.3010695487 0.9493055043 0.07323444256
0.3203447313 0.9484895058 0.07398802048
0.3482638488 0.9460848307 0.07478446989
0.3897548645 0.9420482979 0.0758254211
0.4364992716 0.9367287782 0.07710206196
0.4923877672 0.9286526511 0.07871574135
0.5467721346 0.9166518858 0.08049184566
0.6025249372 0.9017680457 0.08199268719
0.6572688431 0.8865248293 0.08365381698
0.7044991248 0.8666737642 0.0854831236
0.7470211591 0.8500472775 0.08755469735
0.7857796451 0.8330666666 0.08971183301
0.8188740281 0.8149530154 0.09200008004
0.8455517574 0.7986473591 0.09452173173
0.8678207301 0.7844127163 0.09764162373
0.888121028 0.7710180967 0.1011355788
0.3067034818 0.9564123515 0.07345590561
0.3135266614 0.9561705157 0.0738023322
0.3305659753 0.9551710152 0.07448323565
0.3544128934 0.9533061142 0.07514365799
0.3924910882 0.9498599488 0.07622281193
0.4341507215 0.9450821654 0.07750777738
0.4854674835 0.9375317319 0.07921555502
0.5355926221 0.929122405 0.08084167285
0.5893963409 0.9165297439 0.08226399491
0.6410980879 0.902487642 0.08401323521
0.6889897206 0.8876681136 0.08579625509
0.7317920837 0.8699614973 0.0877620774
0.7707152734 0.8543859049 0.0899472215
0.8058349894 0.8389956022 0.09218902683
0.8348765418 0.8229353561 0.09463841107
0.8580633192 0.8077576689 0.09726604953
0.8807942945 0.7947848427 0.1006429585
0.08995232527 0.08630664993 0.1332487572
0.275446333 0.08566491203 0.1117313761
0.456037547 0.08574439095 0.1511546509
0.5619780847 0.08631803045 0.1625550734
0.6408763003 0.08749587528 0.1609528377
0.7037438595 0.08824113902 0.1599527833
0.7528684791 0.09008622713 0.1614581377
0.7916223881 0.09188395019 0.1619721288
0.8241120316 0.09374250278 0.1665903508
0.8488910565 0.09595241462 0.1736819542
0.8720708922 0.09849834126 0.1795121318
0.8916033095 0.1006925025 0.1862669182
0.9058905649 0.1026771408 0.1957295132
0.9193380691 0.104809596 0.2039981185
0.9292093757 0.1072622638 0.2121896497
0.9374418073 0.1099781882 0.2196408677
0.9458504604 0.112831533 0.226628361
0.09099940289 0.1675415478 0.1355573083
0.2443964762 0.1548730706 0.1007103075
0.4602184229 0.1112353096 0.09320394433
0.5877043086 0.09821435778 0.0959082952
0.6721351241 0.09503871139 0.1002895257
0.7312207764 0.09482898459 0.1055820854
0.7773689185 0.09568597365 0.1111698799
0.8135694543 0.09749238808 0.1194131433
0.8408583433 0.09965893015 0.1289915965
0.862914859 0.101625069 0.137592537
0.8846052979 0.1034680108 0.1470132808
0.8992880603 0.104932487 0.154755268
0.9129426164 0.1069222681 0.1645231112
0.9247172593 0.109769967 0.1763974588
0.9332827097 0.1127895674 0.1877004074
0.9413390067 0.1155189944 0.1981721447
0.9496747186 0.1181666411 0.2080875397
0.0987808945 0.417192788 0.09094064434
0.1858384455 0.4067835581 0.08956240439
0.4135606678 0.2998907924 0.08176339285
0.5435930649 0.231275606 0.08081784789
0.6417223834 0.1851718937 0.08227619277
0.7142731132 0.1589501719 0.08514637785
0.7683196487 0.1435823713 0.08932076791
0.8116198193 0.1367694305 0.09498186734
0.8435660711 0.1326406925 0.1017791521
0.8695530545 0.1300840268 0.1084109203
0.8908108628 0.128339427 0.1156185639
0.9054438497 0.1279623499 0.1253590287
0.9198743668 0.1281365943 0.135143451
0.930191928 0.1288381763 0.1445052301
0.9390073942 0.1299989613 0.1540360561
0.9477878316 0.1313385713 0.1639295433
0.9551276403 0.1327882952 0.1744299289
0.1095776911 0.5551668924 0.07565293513
0.1614575337 0.5548058358 0.07907980511
0.3493208224 0.4803591385 0.0783755866
0.5066503819 0.4127635609 0.07799971152
0.6037463392 0.3604228881 0.07920592887
0.6799734827 0.3116384396 0.08106640625
0.7398887978 0.2673792993 0.08353046546
0.7882785426 0.2362972045 0.08686437686
0.8271565097 0.2126240362 0.09118575732
0.8557052593 0.1977076627 0.09670843729
0.8818354189 0.1856229453 0.1024378836
0.899468419 0.1778614136 0.1081377198
0.9155013328 0.1720039738 0.1150292828
0.9284721808 0.1678523821 0.1237297779
0.9382974884 0.1649169052 0.1327914132
0.9480666766 0.1629043117 0.1415644481
0.9561020328 0.1618007887 0.1505583609
0.1229668263 0.6528558067 0.07219225993
0.1589854765 0.6541211993 0.07435153409
0.2978655779 0.6059658818 0.0758205547
0.4574989917 0.5353143242 0.07660310615
0.5736925263 0.4853397016 0.07778262318
0.6534108414 0.4443746228 0.07955046647
0.7138837217 0.4088111547 0.08161692762
0.763165368 0.3695597229 0.08398184585
0.806478124 0.336658335 0.0871935281
0.8399755414 0.3084797019 0.09105822489
0.8663020261 0.2819502269 0.09563244726
0.8900354816 0.262428427 0.1009341217
0.9063624606 0.2481539169 0.1061968633
0.922076118 0.2351732293 0.1117184896
0.9332933151 0.2245721049 0.1186992096
0.9436742183 0.2170698645 0.1269066349
0.9533056854 0.211474449 0.1352795399
0.1374549515 0.7294333053 0.07162546488
0.1656332191 0.730651182 0.07260066204
0.2664992904 0.7020221671 0.07459518838
0.4152711884 0.6374986437 0.07580905602
0.5354712969 0.5836410797 0.07713427152
0.6259505377 0.5385736327 0.07884513505
0.6939034426 0.5024835867 0.08083283457
0.7432257074 0.4717898287 0.08283517309
0.78648023 0.4425433925 0.08536889903
0.8230156119 0.4151839081 0.08841073682
0.8508458922 0.3873650692 0.09194309055
0.8769384152 0.3615583887 0.09628164549
0.8966696028 0.3403841371 0.10114919
0.9126838788 0.3214633212 0.1058193683
0.9269140181 0.3059642266 0.1107228404
0.937516822 0.2916933951 0.1168048237
0.9481895254 0.2795919993 0.1241947074
0.1536879763 0.7874751343 0.07152560188
0.1770388499 0.7878261054 0.07204809835
0.2542271881 0.7728720569 0.07378920877
0.3794006792 0.7243189013 0.07529049535
0.4994455884 0.6685825505 0.07671378337
0.5957642553 0.6192238038 0.07839336418
0.6715083268 0.5828776643 0.0802615663
0.7259352585 0.5490399342 0.08221679047
0.7698522683 0.5197069256 0.08449829577
0.8074977226 0.4955187831 0.08715335766
0.8380608696 0.4705675351 0.09022416117
0.862999518 0.4473200165 0.09399484768
0.887149847 0.4272791333 0.09835279156
0.9033399058 0.4074139388 0.1027348031
0.9195196863 0.3883296301 0.1070375268
0.9314806532 0.3703398487 0.1117822581
0.9420847717 0.3556295943 0.1177074151
0.1700681499 0.8277512592 0.07154882264
0.1913279722 0.8280619499 0.07198453582
0.2516250313 0.8175164703 0.07343259307
0.3540377338 0.7897639306 0.07498764162
0.4669238586 0.7449689909 0.07650577848
0.562902918 0.69647887 0.07830693543
0.6446213847 0.6515990601 0.08010851449
0.708050926 0.6184750657 0.08197729116
0.7548165192 0.5913091681 0.08410537589
0.7941040355 0.562277397 0.08653117695
0.8261652668 0.5388889412 0.08930832929
0.8511189567 0.5138718054 0.09251926564
0.8754906232 0.4950038111 0.09628315425
0.8947974302 0.4746396972 0.1002708819
0.9101168434 0.4545093813 0.1042611086
0.9247488439 0.4394152696 0.1083101716
0.9355792275 0.4247132549 0.113086977
0.1880416608 0.8565450934 0.07162991142
0.2040053081 0.8555357403 0.07201024662
0.2539241356 0.8503361665 0.0732632306
0.3404518753 0.8331185005 0.07491139923
0.4399110881 0.8018994198 0.07636059045
0.5341953728 0.7635528417 0.07819228995
0.6144914764 0.7183537347 0.08006881601
0.6851815436 0.681127218 0.08178319252
0.7372690324 0.6464302306 0.08356923498
0.7789978341 0.6203411846 0.08589216522
0.814349477 0.5990345866 0.08855141065
0.8414354712 0.5754828393 0.09152055912
0.8643106987 0.5535284201 0.09499889894
0.8864860303 0.5346027792 0.09880886896
0.9019518783 0.513657761 0.1027316273
0.9176121523 0.4981338733 0.1065650666
0.9300383735 0.4841537132 0.1106414734
0.2035944206 0.8797569153 0.07176209972
0.2174269482 0.8793289094 0.07220019827
0.259514754 0.8744110152 0.07330860898
0.3324369021 0.8621416512 0.07485328532
0.4210407859 0.8414578251 0.07626338087
0.5086113013 0.8094443231 0.0780617447
0.5904664845 0.7766181579 0.08004487344
0.6609521619 0.7378509535 0.08179499891
0.7174937418 0.7036347391 0.08340992602
0.7634960026 0.6746250466 0.08551533135
0.8019681568 0.6489488228 0.08815687893
0.8318334537 0.6263719468 0.09095640499
0.8549654135 0.6076873758 0.09412139003
0.8775573821 0.588691151 0.09759893405
0.8950414271 0.5681916886 0.1012721994
0.9094457476 0.5501671894 0.1048304683
0.9237215013 0.5346670968 0.1084903051
0.2186048522 0.8977229711 0.07198805362
0.2327692437 0.8969791765 0.07242986098
0.2672058597 0.8937485829 0.07349257062
0.3296436675 0.8860688303 0.07495236925
0.4072180425 0.8686482405 0.07629237234
0.489287042 0.8464442947 0.07801564247
0.5648803181 0.8176613513 0.08002685039
0.6350620014 0.786913982 0.08175793998
0.6960492564 0.7545707375 0.08339926057
0.7456727441 0.7224896315 0.08522827966
0.7873935368 0.6980618795 0.08759899184
0.8204808367 0.6750140396 0.09030411054
0.8459387729 0.6523853695 0.09329098324
0.8682889246 0.6322497285 0.0966309843
0.8883474399 0.6153343177 0.1001352442
0.9025325989 0.6000374274 0.1036234258
0.9172698895 0.5836620637 0.1071651624
0.2355216822 0.9110006589 0.07229047241
0.2475480956 0.9101241899 0.07274000033
0.2768590339 0.9076622083 0.07377471971
0.33048228 0.902713806 0.07513235764
0.3981049598 0.8922392739 0.07646541132
0.4712710442 0.8734522914 0.07821558682
0.5450498461 0.8517030192 0.08019657466
0.6124040364 0.8250262678 0.08188396054
0.6754920089 0.7968749913 0.08357294023
0.7263876535 0.7701539178 0.0853403223
0.7710348951 0.7415325039 0.08740880568
0.8083440926 0.7185555265 0.08992925963
0.8365683783 0.6975116586 0.09279690665
0.8587053735 0.6773201083 0.09596825805
0.8810276484 0.6573583853 0.09923172542
0.896781206 0.6389825407 0.1025800612
0.9105659964 0.6237688541 0.1059072931
0.2511181507 0.9236555285 0.07267835306
0.2604810906 0.9229970053 0.07313442825
0.2880860665 0.9210149246 0.07414417543
0.3335270108 0.9169134695 0.07532075381
0.3921734891 0.9079359636 0.07660841851
0.4564824859 0.8960146548 0.07840207773
0.5268641581 0.8781169912 0.08031835947
0.594563246 0.8554518654 0.08201786864
0.655996423 0.8319061058 0.08373198037
0.7080047398 0.8054700375 0.0855190389
0.7537961127 0.7830680239 0.08757000323
0.7945543451 0.7608720301 0.08978387696
0.8261458494 0.736768874 0.09245594714
0.850134193 0.7174929096 0.09559248277
0.8723466344 0.699055411 0.09876819661
0.8912231207 0.6814916079 0.1020221482
0.9049371438 0.6647669642 0.1052537399
0.2645374493 0.9330701652 0.07313670175
0.2736543207 0.9326186188 0.07358100447
0.2994354069 0.9315460897 0.07453377195
0.3377562154 0.9285559248 0.07553509359
0.3895530227 0.9220297244 0.07686125194
0.4473602907 0.9114943989 0.07874300769
0.5123901909 0.8982332209 0.08055852185
0.5758627686 0.8801184668 0.08218854544
0.6352352365 0.8582895685 0.08386333062
0.6898901197 0.83703565 0.08569282259
0.7365918826 0.8145838882 0.08773202456
0.7780927972 0.7938827517 0.08990939864
0.8140772889 0.7749402035 0.09223074942
0.8412134384 0.7550851552 0.09517152637
0.8630570267 0.7350037726 0.09833970794
0.884719795 0.7182632859 0.101597877
0.8994418692 0.7029387813 0.1047776747
0.278593136 0.940793937 0.07363531925
0.2878085201 0.9404147676 0.07406777856
0.3101994524 0.939511175 0.07490591332
0.3428826194 0.9368356299 0.07578699935
0.3891244644 0.9323045814 0.07719825991
0.4410419375 0.9252522415 0.07900265056
0.5014181335 0.9132716789 0.08067866374
0.559657637 0.8990378157 0.08225833099
0.616348562 0.8813021483 0.08394915078
0.6727106417 0.8610875823 0.08588699293
0.7199254736 0.8426934389 0.08786274989
0.7619161354 0.8226116279 0.08998921331
0.7999427344 0.8035383383 0.09232778354
0.8309226799 0.7861766928 0.09478839419
0.8540413005 0.7702623441 0.0978316684
0.876347907 0.7527410735 0.1011258728
0.8941149161 0.7360855092 0.1043339558
0.293324521 0.9485398479 0.07415392591
0.3013304437 0.948202714 0.07453533029
0.3205672049 0.9470494724 0.07524320251
0.3484740703 0.9442539938 0.07606238788
0.3903785466 0.9402308611 0.07756162886
0.4369241071 0.9349493846 0.07922107659
0.4929435589 0.9264613263 0.08088000505
0.5466883698 0.9137026081 0.08252185666
0.6022415924 0.8992119168 0.08413541307
0.6569637029 0.8835497144 0.08608281887
0.7040049298 0.863951375 0.08795274441
0.7463919335 0.847443956 0.09007610842
0.7849707389 0.8300405338 0.09240056232
0.8181454673 0.8120723044 0.09476001167
0.8449374874 0.7959944893 0.09733010875
0.8671539996 0.7822020562 0.1005367037
0.8876870393 0.768817959 0.1037914166
0.3066842287 0.9554959357 0.07463804303
0.3135125144 0.9551158641 0.07495793843
