app/src/main/assets/spektrafilm/profiles/fujifilm_velvia_100_film.cube
# ============================================================================
# spektrafilm LUT
# Bundle:  spektrafilm_v033_velvia100_portraendura_1lut_prophoto_prophoto  (1lut, 17^3)
# Film:    fujifilm_velvia_100
# Print:   kodak_portra_endura
# Input:   ProPhoto RGB  (cctf on)
# Output:  ProPhoto RGB  (cctf on)
# Created: 2026-06-02T06:53:56Z
# spektrafilm: 0.3.3
# Project: https://github.com/andreavolpato/spektrafilm
#
# Copyright (c) 2026 Andrea Volpato. Generated by spektrafilm. Licensed under CC BY-SA 4.0.
#
# License: spektrafilm LUT by Andrea Volpato, licensed under CC BY-SA 4.0.
#          Full text and attribution requirements in SPEKTRAFILM_LICENSE.txt
#          (shipped in this bundle); also at
#          https://github.com/andreavolpato/spektrafilm/blob/main/SPEKTRAFILM_LICENSE.txt.
#
# Citation: If you use this LUT in your work, please cite the spektrafilm
#           project: https://github.com/andreavolpato/spektrafilm, see
#           CITATION.cff for details.
#
# Notes: Generated by the spektrafilm LUT bundle builder. Apply with trilinear
#        or tetrahedral interpolation in your host (DaVinci Resolve, Nuke,
#        OCIO-aware DCC). The input and output color spaces are declared in
#        bundle.json; do NOT apply this LUT to a signal in a different color
#        space.
#
# File: lut_v033_velvia100_portraendura.cube  (see sibling bundle.json for full metadata)
# ============================================================================
TITLE "v033_velvia100_portraendura"
DOMAIN_MIN 0 0 0
DOMAIN_MAX 1 1 1
LUT_3D_SIZE 5
0.00518443599 0.004254300537 0.008106690265
0.3217891138 0.1005454668 0.04433437578
0.331975174 0.09888388377 0.05462920498
0.3501445769 0.1029327387 0.1125412713
0.3894272004 0.1261316039 0.2038442639
0.1526112988 0.3511484732 0.1019442202
0.5279862976 0.5185492394 0.135877757
0.626218762 0.4738765142 0.1400462229
0.6038890749 0.4282991827 0.1834837703
0.6062572361 0.4240925451 0.2852083261
0.2646472888 0.4810193285 0.1365937801
0.4658551478 0.6064095529 0.1626721199
0.7404068144 0.7294820169 0.2028457573
0.7548958463 0.7475161401 0.2548566418
0.7557852885 0.753894322 0.3374355626
0.4165875032 0.609810789 0.1931157066
0.5132558069 0.6574777273 0.1999007522
0.7141173229 0.7468832088 0.2378972868
0.7608516944 0.7716577372 0.2948197444
0.7646530946 0.7815468862 0.3742296845
0.5252991069 0.6894633738 0.2740969043
0.5882178515 0.7143982984 0.2719829459
0.7053277128 0.7580365148 0.293612695
0.7587610803 0.7788387177 0.3469785052
0.7668831317 0.7868130066 0.4200313393
0.1003383663 0.02967704626 0.2481693087
0.3430155934 0.09619560195 0.3816773163
0.3691468436 0.1037933002 0.4234611713
0.3803879732 0.109951462 0.4327597997
0.4163638218 0.131937783 0.4632319167
0.1843524632 0.3371173343 0.4800819441
0.4787151032 0.4727966883 0.4728123066
0.6212610752 0.4316882486 0.4807122736
0.5906846043 0.3613908675 0.4955209785
0.58863393 0.3507441241 0.5252612529
0.2761959689 0.5385025461 0.4783567478
0.4763081717 0.680408183 0.4844686367
0.7525792113 0.7698319052 0.4705045214
0.7646954546 0.768291731 0.4991136161
0.7658168816 0.7616490069 0.5462429934
0.4282957593 0.6639373018 0.4888283911
0.5254970538 0.7141201242 0.4875347531
0.730289475 0.7822672014 0.4821788235
0.7707060415 0.79105526 0.5066223238
0.7746679195 0.7929493693 0.552867867
0.5397048125 0.7216212797 0.5098589337
0.6016507711 0.7462707546 0.508144017
0.7207730935 0.7820929056 0.5088569534
0.7695630134 0.7930276527 0.5326117743
0.7766146638 0.7955503693 0.5764214526
0.1465398663 0.05351682644 0.3732522118
0.273624645 0.08736684596 0.4717875812
0.4036037489 0.1194961745 0.5074285722
0.4273610991 0.1334362123 0.5373073205
0.4870705638 0.17906322 0.6064412342
0.2238397763 0.2585689454 0.6167466992
0.4006416629 0.4507644499 0.7242230145
0.6690497466 0.4755462207 0.7439766631
0.6479556427 0.4220612 0.7365345984
0.6386444367 0.4029119369 0.7348471023
0.3252189469 0.539708416 0.7235836168
0.4844396248 0.6736112555 0.7712671442
0.7746256742 0.776582429 0.7701730855
0.7888421127 0.7746744337 0.7717984976
0.7873171956 0.7645079223 0.7770615204
0.4838241281 0.6853806933 0.7724975632
0.5681951197 0.7315613484 0.7808718563
0.7580790776 0.7929283495 0.7663714715
0.7924637172 0.798383163 0.7606048644
0.7934949867 0.7981038642 0.7637124825
0.5896175053 0.7424429666 0.781792985
0.6446626494 0.7638371748 0.7801463693
0.7520022003 0.7931354685 0.7665071176
0.7905579332 0.799735907 0.7589926689
0.7934190624 0.8001161695 0.7609524597
0.1969835862 0.1292851525 0.5451317599
0.2265412433 0.217538334 0.6135718239
0.5481860256 0.2477895972 0.6762807439
0.5477813051 0.2442623559 0.6734413056
0.5722005383 0.278512877 0.6960018169
0.2310284681 0.2535063186 0.6287102365
0.2856425745 0.3965839127 0.6985201495
0.7005943116 0.5472867466 0.7860688669
0.6912519363 0.5075842326 0.776293899
0.6807398304 0.4861736922 0.7705266387
0.3410870584 0.5322901215 0.7461371309
0.4329309109 0.6312486 0.784746224
0.766613489 0.7754678715 0.805892949
0.7927406581 0.7772148134 0.8017054148
0.7919470407 0.7707120873 0.803525936
0.4920636262 0.6839644434 0.8012321421
0.5564868817 0.7224817842 0.8118853162
0.7501042079 0.7908882341 0.8054535705
0.7960220595 0.7986381927 0.7962641739
0.7970129374 0.7984573333 0.79680455
0.6018160762 0.7458353213 0.8156303373
0.6494749585 0.7644442997 0.8157357605
0.7538368907 0.7931843784 0.803962131
0.7943965662 0.8001031225 0.7953802454
0.7971119416 0.8004647332 0.7951969894
0.2213381037 0.2029285962 0.60456526
0.2356772516 0.2611566375 0.6351126765
0.6067063217 0.388906746 0.7399888086
0.6346382509 0.3929681854 0.7422170523
0.6348676226 0.3938856036 0.7425877738
0.2501402113 0.2893364345 0.6530167474
0.2776922412 0.3853734567 0.6928306181
0.6939766249 0.6129936017 0.8014701565
0.7376155227 0.6094413878 0.8006366833
0.7251276849 0.5799249826 0.7949993369
0.3692571805 0.5412732925 0.7567958056
0.4095548027 0.6047452262 0.7774883403
0.726510722 0.7685206318 0.814052948
0.7934638493 0.7806967273 0.8032440825
0.7932114833 0.7762956848 0.80394171
0.498810276 0.6848492979 0.8044915873
0.5384376245 0.7111446492 0.8120928627
0.7264144468 0.7853627199 0.8129391225
0.7957443889 0.7986296491 0.799551106
0.7972374453 0.7986104334 0.7992717576
0.6034622365 0.746098075 0.8188568006
0.6402727129 0.7609789776 0.8195034658
0.7419093586 0.7906349463 0.8102631025
0.7935040029 0.799941852 0.7996357923
0.7974793642 0.8004900935 0.7987198061
