app/src/main/assets/spektrafilm/profiles/fujifilm_velvia_100_film.cube
# ============================================================================
# spektrafilm LUT
# Bundle:  spektrafilm_v033_velvia100_portraendura_1lut_prophoto_prophoto  (1lut, 17^3)
# Film:    fujifilm_velvia_100
# Print:   kodak_portra_endura
# Input:   ProPhoto RGB  (cctf on)
# Output:  ProPhoto RGB  (cctf on)
# Created: 2026-06-02T06:53:56Z
# spektrafilm: 0.3.3
# Project: https://github.com/andreavolpato/spektrafilm
#
# Copyright (c) 2026 Andrea Volpato. Generated by spektrafilm. Licensed under CC BY-SA 4.0.
#
# License: spektrafilm LUT by Andrea Volpato, licensed under CC BY-SA 4.0.
#          Full text and attribution requirements in SPEKTRAFILM_LICENSE.txt
#          (shipped in this bundle); also at
#          https://github.com/andreavolpato/spektrafilm/blob/main/SPEKTRAFILM_LICENSE.txt.
#
# Citation: If you use this LUT in your work, please cite the spektrafilm
#           project: https://github.com/andreavolpato/spektrafilm, see
#           CITATION.cff for details.
#
# Notes: Generated by the spektrafilm LUT bundle builder. Apply with trilinear
#        or tetrahedral interpolation in your host (DaVinci Resolve, Nuke,
#        OCIO-aware DCC). The input and output color spaces are declared in
#        bundle.json; do NOT apply this LUT to a signal in a different color
#        space.
#
# File: lut_v033_velvia100_portraendura.cube  (see sibling bundle.json for full metadata)
# ============================================================================
TITLE "v033_velvia100_portraendura"
DOMAIN_MIN 0 0 0
DOMAIN_MAX 1 1 1
LUT_3D_SIZE 17
0.00518443599 0.004254300537 0.008106690265
0.1166610026 0.03810122463 0.01422160562
0.2709346579 0.08525386587 0.03753195365
0.3133992005 0.09814514865 0.04300164012
0.3217891138 0.1005454668 0.04433437578
0.3238528679 0.1008038701 0.04521987476
0.3254328584 0.1005585608 0.04672590067
0.3278988888 0.099965137 0.04949565209
0.331975174 0.09888388377 0.05462920498
0.3368562829 0.09722493016 0.06264808888
0.3405683614 0.09760254781 0.0763809153
0.34462422 0.09994681396 0.0938173104
0.3501445769 0.1029327387 0.1125412713
0.3567272305 0.1065546415 0.1326135554
0.3650540513 0.1113244709 0.1548226616
0.3756937566 0.1176021988 0.1786708438
0.3894272004 0.1261316039 0.2038442639
0.009490694938 0.01987423496 0.01544424307
0.01860671855 0.02374036676 0.01623917014
0.2014188433 0.06615697503 0.02876459997
0.3019648302 0.09595681336 0.04187310484
0.3227689382 0.1018874711 0.04477185857
0.3278991568 0.1030756813 0.04610930159
0.3304856141 0.103250116 0.04777283078
0.3333223528 0.1029848724 0.05054088707
0.3374384564 0.1022687439 0.05542161716
0.342860971 0.1013058457 0.06287442414
0.3482109781 0.10136817 0.07515096246
0.3528495274 0.1042500567 0.09263215535
0.3594980911 0.1080667207 0.1119717791
0.3679153489 0.1129546037 0.1329221953
0.378245901 0.1193151267 0.156509386
0.391322612 0.1278703835 0.1819949641
0.4079312473 0.1395562669 0.2090801526
0.07208980614 0.1735290697 0.06119574061
0.08244080827 0.196677837 0.06617747644
0.1860043658 0.188404732 0.05910796503
0.356078587 0.1981960433 0.06598340968
0.4133536209 0.1848828992 0.06749486824
0.410183279 0.1646624222 0.06418458374
0.3998702805 0.1511730311 0.06211379457
0.3935911594 0.1439420642 0.06256635586
0.3919764472 0.1399442684 0.06622315405
0.3947069313 0.1380956776 0.07385616553
0.4016025811 0.1384961629 0.08689085851
0.4108842657 0.1418248148 0.1053952152
0.4197627637 0.1497643996 0.1289915672
0.431292414 0.1601133202 0.1542633183
0.445464164 0.173338388 0.1819506137
0.4594883853 0.1878424351 0.2102059476
0.4731976366 0.2031126308 0.2379955907
0.1240711777 0.2936310121 0.08802179009
0.1332227053 0.3100032828 0.09179443616
0.1809343009 0.3266995056 0.09360300425
0.3683421061 0.3634726553 0.09894368559
0.5043426915 0.3737403998 0.1057292923
0.542634173 0.3593441621 0.106445181
0.5441981413 0.3389625161 0.1047314935
0.5373744309 0.3208732536 0.1038363376
0.5296010153 0.3061279371 0.1053286627
0.5240495339 0.2954593961 0.1106020305
0.5216317085 0.288620323 0.1211677954
0.5222016559 0.2854117989 0.1378236363
0.5243922543 0.2847602504 0.1588057655
0.5269157566 0.2863097808 0.1824905073
0.5312805198 0.2907840265 0.2094053041
0.5374062747 0.2976514399 0.237571433
0.5436025806 0.3060463055 0.2656601568
0.1526112988 0.3511484732 0.1019442202
0.1597230741 0.3606929801 0.1039920504
0.2012868758 0.393615248 0.1103318407
0.3650882775 0.4765274903 0.1261350763
0.5279862976 0.5185492394 0.135877757
0.6158327873 0.5244224869 0.1403783413
0.6350580904 0.5101110447 0.1400973841
0.6338905025 0.4921418039 0.1393448064
0.626218762 0.4738765142 0.1400462229
0.6179531893 0.4578013827 0.1437922927
0.6109968587 0.444782101 0.1519725029
0.6065044326 0.4352823892 0.1655275896
0.6038890749 0.4282991827 0.1834837703
0.6028759095 0.4240229898 0.2047545035
0.6024698007 0.4220497821 0.2299145711
0.6035724622 0.422188242 0.2572650987
0.6062572361 0.4240925451 0.2852083261
0.170014702 0.3799170288 0.1092815841
0.1785145441 0.3889813997 0.1110411193
0.2242498467 0.4291223036 0.1190889929
0.3584048471 0.5162859358 0.1367972692
0.5019990312 0.5780696939 0.1502588163
0.6315599721 0.6162904313 0.1606908264
0.6847523788 0.6245325662 0.1652633716
0.6982047477 0.6207137535 0.1676020462
0.6989983514 0.6135784009 0.1707964901
0.6947037772 0.604354964 0.1756691038
0.6893019689 0.5948105512 0.1839149011
0.6839417796 0.5856396696 0.1962592428
0.6793625205 0.5769941425 0.2121397215
0.6757797702 0.5691181797 0.2307100645
0.6733148228 0.5632379754 0.2529066069
0.6709824619 0.5584510809 0.2775477775
0.6704153852 0.5557678722 0.3037618458
0.1900942619 0.4064075526 0.1163272388
0.2028729284 0.4183680954 0.11855637
0.2555268999 0.4625783497 0.1273579183
0.3596520793 0.532696138 0.1418987238
0.4782975246 0.5938234103 0.1554248451
0.6075871617 0.6471230911 0.1686107548
0.6928938474 0.675516897 0.1771583977
0.7221881474 0.6831575248 0.1821153131
0.7308575596 0.6844803472 0.1873972813
0.7321492285 0.6835940038 0.1942608471
0.7308114612 0.6819416764 0.2042491292
0.7284978742 0.6793517721 0.217386668
0.7262317523 0.6762675795 0.2330927432
0.7242747758 0.6730051582 0.2511263178
0.7230006945 0.6699854642 0.2724314476
0.7216103411 0.6670715983 0.2957882513
0.7201424555 0.6642068105 0.3201486991
0.2211741861 0.4399053099 0.1252795451
0.2381978802 0.4541904828 0.127929619
0.2910316587 0.4945782108 0.1357997232
0.3706569472 0.5468017643 0.1467222137
0.4672761974 0.6002673761 0.1587814221
0.5812110224 0.6539380891 0.1720499748
0.6752268737 0.6909059644 0.1823662625
0.7234980362 0.7077753121 0.1894097456
0.7403051568 0.7148445341 0.1961581582
0.745967914 0.7189081884 0.2046362812
0.7472376356 0.7219702399 0.2158749014
0.7473974194 0.7243552771 0.2297445013
0.7468552268 0.7257203144 0.245611289
0.7464623178 0.7266399432 0.2636000949
0.7461643719 0.7268372632 0.2842532699
0.7461545145 0.7268287194 0.3066644091
0.745362327 0.7257702956 0.3299147488
0.2646472888 0.4810193285 0.1365937801
0.2825603211 0.4943104961 0.1389996904
0.3276309863 0.5253910816 0.1448415075
0.3883195631 0.5632380794 0.152727958
0.4658551478 0.6064095529 0.1626721199
0.5617468131 0.6540079178 0.1748272747
0.6546630597 0.6945599685 0.1863335866
0.7145435835 0.7181526524 0.1949543882
0.7404068144 0.7294820169 0.2028457573
0.7502402509 0.7363422706 0.2127375535
0.7537233188 0.7411970134 0.2249005035
0.7547393213 0.7448069174 0.2391304176
0.7548958463 0.7475161401 0.2548566418
0.75494617 0.7497469762 0.2729957906
0.7550943519 0.7516100571 0.2934902332
0.7555435972 0.7529380143 0.3149256654
0.7557852885 0.753894322 0.3374355626
0.3111496246 0.5214985811 0.149195304
0.3260806134 0.5312862411 0.1507941276
0.3599802115 0.5523173772 0.1542754709
0.4089922462 0.5813214703 0.1601841529
0.4722251379 0.6164319263 0.1686484612
0.5525301354 0.6572381938 0.1795957013
0.6374993149 0.6957175331 0.1909340993
0.7004382383 0.7215005078 0.2004830159
0.7346092986 0.735856421 0.2095571075
0.7495655654 0.7443444971 0.2203099449
0.755422006 0.7501376255 0.2332297139
0.7573484106 0.7543796049 0.2477639826
0.7582465049 0.7578903206 0.2638583273
0.7586433913 0.761065281 0.2823607416
0.7591170777 0.7637598148 0.3023565228
0.7598047749 0.7661486239 0.3235740746
0.760617552 0.7680693203 0.3453248737
0.350764173 0.5550892331 0.1623261932
0.3621410022 0.5618299955 0.163252076
0.3898762015 0.5774515849 0.1652485231
0.4307893405 0.6003671179 0.1697076633
0.4833033176 0.6287761759 0.1766106777
0.5512808965 0.663393499 0.1862896673
0.6264634099 0.6982565785 0.1972345334
0.6884913142 0.7244927718 0.2075961396
0.7277438935 0.7407016297 0.2177441807
0.7466484321 0.7499111688 0.2289217602
0.7551289724 0.7559300688 0.2419391861
0.7584187106 0.7602939353 0.2566913422
0.7597720451 0.7638792168 0.2734766234
0.760361687 0.7670172547 0.2922802553
0.7609326981 0.7697453102 0.3120901715
0.7615763089 0.7721243758 0.3326795373
0.7625574617 0.7742964418 0.3541909288
0.3852042904 0.5838533225 0.1765381756
0.3947861023 0.5890605762 0.1770736621
0.4178622468 0.6009695764 0.1779733517
0.4527436166 0.6194707001 0.1813548637
0.4971867077 0.6426814673 0.1869665539
0.5560192039 0.6722134385 0.1955935137
0.6213752234 0.7026450176 0.2059259045
0.679640261 0.7275549164 0.2165535149
0.7206810742 0.7442532822 0.2272507606
0.7422538522 0.7539201445 0.2387678207
0.7535933605 0.76020356 0.2514689469
0.7586827432 0.7647400533 0.2663655467
0.7605596281 0.7684037594 0.2838626236
0.7615941506 0.771515498 0.3026779861
0.7621910132 0.7741647452 0.322462862
0.7628775464 0.7764861797 0.3428253527
0.7637933555 0.7785884479 0.3637658396
0.4165875032 0.609810789 0.1931157066
0.4245804011 0.6138222595 0.1933375254
0.4446902767 0.6234492008 0.1934702804
0.4745310253 0.6382921534 0.1956608836
0.5132558069 0.6574777273 0.1999007522
0.5646086849 0.682436454 0.2073636509
0.6209100272 0.7082424184 0.2167512216
0.6738432839 0.7307137061 0.2270945498
0.7141173229 0.7468832088 0.2378972868
0.7378936342 0.7568279856 0.2493981435
0.7512082556 0.763336492 0.262255145
0.75795069 0.7680026748 0.2773396653
0.7608516944 0.7716577372 0.2948197444
0.7623081246 0.7746670048 0.3135647527
0.7630315186 0.7772174928 0.333188635
0.7638008801 0.7795079764 0.3534915196
0.7646530946 0.7815468862 0.3742296845
0.4460916949 0.6331979383 0.2117149216
0.4530742988 0.6365241052 0.2117937896
0.470437057 0.6444002917 0.2114479889
0.4959685427 0.6562775565 0.2124097474
0.5312532736 0.6727101756 0.2152802524
0.5761169005 0.6937062593 0.2218756613
0.6243132361 0.7150374672 0.2300875175
0.6711531604 0.7343764349 0.2395579744
0.7090050562 0.7491019933 0.2497071068
0.7339938593 0.7589596951 0.2609523326
0.7485656797 0.7656114232 0.274287761
0.7565537416 0.7703626127 0.2896656449
0.7607598545 0.7739702277 0.306517887
0.7625599765 0.7768635608 0.3249677713
0.7636445772 0.7793510705 0.3443939323
0.7644344428 0.7815417887 0.3645269586
0.7653077264 0.7835106544 0.3849002175
0.4736501821 0.6539420873 0.2315417943
0.479671009 0.6567070126 0.2315528103
0.494590115 0.6632291561 0.2309694475
0.5178889981 0.6734045975 0.2308568783
0.5503692712 0.687937913 0.233327549
0.5890997268 0.7049105982 0.2379766736
0.6302745611 0.7222657384 0.2446505439
0.6712706284 0.7384927391 0.2527584833
0.705796621 0.7515990589 0.2626430787
0.7308803869 0.7611167364 0.2741892268
0.7459841031 0.7675369825 0.2877091684
0.7550248881 0.7721629848 0.3027970106
0.7601452315 0.7756696929 0.3193133675
0.7625527764 0.7783885094 0.3370189355
0.7640295503 0.7807757048 0.3561399087
0.7648878502 0.7828435909 0.3759676928
0.7658300506 0.7847340791 0.3961926469
0.4994482268 0.672315799 0.252087671
0.5048904406 0.6747133581 0.2520259613
0.5187523542 0.680537114 0.2512312636
0.5406082016 0.6894160888 0.2499002058
0.5694632848 0.7017605393 0.2519676758
0.60261746 0.7153683844 0.2549388881
0.638404456 0.7296955533 0.260335263
0.6738180974 0.7433684797 0.2681984328
0.7047330114 0.7547629441 0.2776146634
0.7288207094 0.7635056866 0.2887506264
0.7438647069 0.7694993286 0.3019163604
0.7537155023 0.7739839382 0.3168070093
0.7594279283 0.7772894865 0.3328007915
0.7625517181 0.77989065 0.3500673156
0.7642870029 0.782061291 0.3683575066
0.7653662003 0.7839788692 0.3876488429
0.7663307216 0.7857500424 0.407891664
0.5252991069 0.6894633738 0.2740969043
0.5304912662 0.6916358967 0.2739438832
0.5435291001 0.696847337 0.2729043283
0.5631389375 0.7042837667 0.2706835114
0.5882178515 0.7143982984 0.2719829459
0.6164996961 0.7251768968 0.273204889
0.6476344529 0.7372236886 0.2785819424
0.6780305754 0.7484025816 0.2852767382
0.7053277128 0.7580365148 0.293612695
0.7277115353 0.7659048901 0.3044591848
0.7423892879 0.7714356131 0.3170999912
0.7526188381 0.775656152 0.3311723681
0.7587610803 0.7788387177 0.3469785052
0.7625351426 0.7813608252 0.3637684559
0.7644865805 0.7833756716 0.3814270182
0.765907617 0.7851708844 0.4000246818
0.7668831317 0.7868130066 0.4200313393
0.006003772073 0.005076552921 0.01570045953
0.0755081979 0.02366091232 0.03095223214
0.2572039072 0.07416972355 0.04914189821
0.3151455697 0.09138871203 0.0552207761
0.3266363372 0.0951351921 0.05599286126
0.3298611896 0.09497185293 0.05865945982
0.3322470107 0.09375689476 0.0633501869
0.3338360902 0.09418034365 0.0714981426
0.3359002637 0.09533338834 0.08270938199
0.3384347308 0.09672699717 0.09522125936
0.3410096292 0.0982419769 0.1087658334
0.344447328 0.1000890119 0.1234769688
0.3496170566 0.1027096051 0.1414100677
0.356405992 0.1062654436 0.1609869409
0.364432015 0.1107053753 0.1806597221
0.3746174207 0.1165662226 0.2012989915
0.3871403015 0.1241316858 0.2231634416
0.007850471309 0.009812356823 0.02434447248
0.02005618651 0.01914665098 0.02781295217
0.2030594816 0.06397438504 0.03392146928
0.3040482477 0.09365648083 0.04539749118
0.3234536702 0.09883817384 0.04861021214
0.3283881283 0.09920808964 0.05117771758
0.3313173717 0.09845570453 0.05475288669
0.3348652146 0.09734902039 0.06021854976
0.3389958723 0.09660760693 0.06955015269
0.3422253072 0.09842707338 0.08347589444
0.3458121619 0.1005621757 0.09960626444
0.3496659149 0.1027994351 0.1140745366
0.3558385198 0.1061238439 0.1325884173
0.3646231314 0.1109842644 0.1553497053
0.3752220207 0.1172191608 0.178851411
0.387741092 0.125072105 0.2024706489
0.4037484823 0.1358797196 0.2273257684
0.06277694389 0.1538972077 0.06414457803
0.07440003344 0.1794947853 0.06897568939
0.1975282596 0.1745985213 0.05928295222
0.3479336757 0.1776680867 0.06435136107
0.3909280161 0.1589564694 0.06381470154
0.385500892 0.1410955548 0.0612095585
0.3787685616 0.1315600358 0.06165439689
0.3765209929 0.1264531561 0.06556199264
0.3779948193 0.1234258674 0.0730972498
0.3828512644 0.1220727126 0.08530850715
0.3882895439 0.125429006 0.1040609677
0.3959655248 0.1310210306 0.1246464269
0.405430336 0.1384020069 0.1470114459
0.4178314506 0.148182693 0.1714954111
0.4327962032 0.1607653275 0.1973671297
0.4491013775 0.1762011943 0.2246958418
0.4654478905 0.1931556579 0.2528841177
0.1167456283 0.2818256887 0.09156659778
0.1262657892 0.3005789497 0.09451484305
0.1846468073 0.3177143063 0.09445863234
0.3735981167 0.3497655923 0.09876495832
0.4980014318 0.3575597217 0.1054005849
0.5326056018 0.3420674046 0.1064285297
0.5341507243 0.3223310437 0.1060097969
0.5277074376 0.3044215732 0.1074074034
0.5206800472 0.2898456785 0.1120321604
0.5163021583 0.2797059391 0.1218810157
0.5149033548 0.2736197599 0.1370432656
0.5158765816 0.2711770368 0.156156446
0.5178973677 0.2708190125 0.1779517588
0.5209289534 0.2735512415 0.2029087754
0.5257891726 0.2789958277 0.2294277852
0.5321492992 0.2869736994 0.2563518059
0.538391407 0.2958505508 0.2833463363
0.1478892052 0.3492831942 0.1059345662
0.1554721108 0.3593086848 0.107815691
0.1999148556 0.3916681712 0.113332292
0.3671987449 0.4714318399 0.1279413911
0.5278171818 0.5080434988 0.1366933455
0.6103254421 0.5128984906 0.1415095322
0.6281898534 0.4989196719 0.1422888313
0.626960557 0.480980263 0.1434532263
0.6198140209 0.4630671489 0.1466541026
0.6124769828 0.4476885467 0.1539330715
0.6063856604 0.4351810875 0.1660221641
0.6022626761 0.4256221712 0.1824412881
0.5999204454 0.4188395645 0.2020216164
0.5990065496 0.4146291127 0.2251079037
0.598755433 0.412962231 0.2505703378
0.6000057475 0.4132722756 0.2772124255
0.6029395059 0.4155362656 0.3041970606
0.1667000817 0.3821900328 0.1144740555
0.1750043903 0.390774073 0.1158787834
0.220884908 0.4301369138 0.1232850764
0.3587126291 0.5177579074 0.1406959483
0.5035485053 0.5770281062 0.1536168903
0.6315627088 0.6136894872 0.164046612
0.6824931951 0.6219043213 0.169536285
0.6954269189 0.6184969894 0.1736405427
0.696097103 0.6109276563 0.1786486877
0.6919512692 0.6014655387 0.1863323439
0.6867099946 0.5913149953 0.1973974518
0.681214699 0.5808632565 0.2115888321
0.6765302575 0.5712301333 0.2284264386
0.6732361831 0.5633635258 0.2489091551
0.6707427782 0.5570310331 0.2721729619
0.6685577414 0.5522712744 0.2968826275
0.6681931415 0.5496751383 0.322519434
0.1861180146 0.4094367473 0.1222177296
0.1978444949 0.420328198 0.1240009964
0.2497151551 0.4637167 0.1322451528
0.3578248296 0.5359419386 0.1469336024
0.4790047446 0.5975427334 0.1605954939
0.6096241492 0.6508044319 0.1740695233
0.693729095 0.6784748568 0.1833105124
0.7218096189 0.685874377 0.1895812919
0.7302075821 0.6871046091 0.1965473485
0.7314291737 0.6858776793 0.2059001198
0.730129916 0.6834811991 0.2179982345
0.7278532372 0.6799830702 0.2323871959
0.7255813969 0.6760225125 0.2488807309
0.7237302479 0.6723366059 0.2684631888
0.7224723161 0.6687621536 0.2903323496
0.7210275982 0.6652845637 0.3136928719
0.7195337675 0.66195529 0.3379010936
0.215688236 0.4430039779 0.1320513912
0.2318706074 0.4564476101 0.1342560532
0.2849489286 0.4971140285 0.1418254091
0.3678183804 0.5513771338 0.152921218
0.4670488614 0.6061164427 0.1654559576
0.5822682394 0.6598402004 0.1791869901
0.6766761144 0.6963058678 0.1900473854
0.7240728219 0.71256184 0.197915447
0.740540216 0.7195526309 0.206454496
0.7461242833 0.7234811743 0.2170504189
0.7473529458 0.7257895851 0.2297915031
0.7475352833 0.727347383 0.2444743407
0.7470104909 0.7279671211 0.261030594
0.746627616 0.7282821564 0.28030242
0.7463759338 0.7279458782 0.3012631531
0.7462903983 0.7272019328 0.3234621673
0.745513814 0.7257701655 0.3465227814
0.2580984391 0.4846293169 0.1448346683
0.2758056407 0.497695953 0.1469218841
0.3223611575 0.5297113713 0.1524967579
0.384785082 0.5686564923 0.1605148701
0.464622298 0.6130456863 0.1709243475
0.5621528256 0.6611633544 0.1836368807
0.6560671931 0.7013807108 0.1954496768
0.7157592419 0.7243282348 0.2048730373
0.7411044805 0.7351401414 0.2143680578
0.750662629 0.7413663246 0.2257559906
0.7539684085 0.7452861613 0.2389344961
0.7550076438 0.7481463612 0.2535184167
0.7551725808 0.7502789312 0.270233042
0.7553060608 0.7521198692 0.2893040719
0.7554713572 0.75340663 0.3097758484
0.7559755787 0.7543595728 0.3310266189
0.7562243205 0.7549312257 0.353284066
0.3054544888 0.5265203376 0.1591250649
0.3206060289 0.5365043563 0.1606424544
0.3551083326 0.5579015708 0.1638310082
0.4054268335 0.5876368113 0.1697402529
0.4704624932 0.6234286161 0.178409701
0.5522979894 0.6645403081 0.189766013
0.6385026073 0.7028830715 0.201665466
0.7017634177 0.728107215 0.2120684627
0.7354465816 0.7416354415 0.2222157213
0.75009127 0.7492208036 0.2338580492
0.7558325085 0.7541809503 0.2473001613
0.7577015368 0.7577404913 0.2622340779
0.7586350547 0.7608942996 0.2794662618
0.7590700063 0.763578736 0.2982973105
0.759590803 0.7658676199 0.3182030624
0.7603273349 0.7679049383 0.339152594
0.7611571563 0.7694790601 0.3606403798
0.3465264299 0.5612248599 0.1740285784
0.3578772503 0.5679949874 0.1748906388
0.3859055334 0.5839280511 0.1767583219
0.4275802445 0.6071740293 0.181088524
0.481581177 0.6361254295 0.188155533
0.5507420447 0.6708506178 0.1982098105
0.6272008506 0.7055895352 0.2097842018
0.6895795366 0.7310363883 0.2207295853
0.7285467216 0.7461489208 0.2313019617
0.7472438674 0.7543869678 0.2428024319
0.7555841642 0.7596304072 0.2560397659
0.7587954714 0.7634951728 0.2715730457
0.7601904003 0.7667001573 0.2891457013
0.7608039198 0.769404183 0.3079965035
0.7614152864 0.7717509607 0.3275523813
0.7621053136 0.7738349767 0.3479046716
0.7631273753 0.7757440295 0.3690055816
0.3820230804 0.5906620106 0.1905671809
0.3914940983 0.5958366511 0.1910244795
0.4148731319 0.6081386638 0.1919613528
0.4503286529 0.6267205674 0.1949323837
0.4956471638 0.6501660929 0.2006515382
0.5554986611 0.6796209482 0.2094117831
0.6219083875 0.7096585032 0.2200156733
0.6805091338 0.733606746 0.2307130491
0.7215406876 0.7492712902 0.2414012606
0.7429150577 0.7579812588 0.2527519842
0.75410589 0.7636735493 0.2659179614
0.7591288587 0.7678139293 0.2817824434
0.7610059444 0.7710160865 0.2994032879
0.7620490261 0.7737296963 0.3180873082
0.7626823066 0.7760341884 0.3375861576
0.7634120162 0.7781024114 0.3577430547
0.7643691066 0.7799696515 0.3782359661
0.4143518711 0.6163528757 0.2086314872
0.422269537 0.6203571338 0.2087847153
0.4424744982 0.6302853878 0.2090958463
0.4727432057 0.6451612619 0.2108124447
0.5119572218 0.66435697 0.2149152649
0.5640855902 0.6891487116 0.2223347886
0.6211894029 0.7144898625 0.2316831495
0.6745541699 0.7361465609 0.2418140392
0.7149617123 0.7513718607 0.252253265
0.7385793918 0.7605834924 0.2637908667
0.7517918126 0.7666149029 0.2773205111
0.7584864499 0.7708565987 0.2928508913
0.7613210857 0.7740521054 0.3102051232
0.7627875605 0.7767043277 0.3287049008
0.7635406241 0.7789704988 0.3480704074
0.7643444485 0.7810133096 0.3679667883
0.7652302945 0.7828336944 0.3882119341
0.4443645835 0.6387731552 0.2276546016
0.4514217795 0.6421593583 0.2277059892
0.4688987875 0.6503368497 0.2276915411
0.4945328384 0.6621684028 0.228248174
0.5300775485 0.6787733947 0.2314906688
0.5755842877 0.6994448024 0.2375275494
0.6244378223 0.7203359904 0.2453330696
0.6717478587 0.7390258391 0.2543273595
0.709795024 0.7531323924 0.2643996412
0.7347115361 0.7624827929 0.2760873455
0.7492119374 0.7686664704 0.2897748493
0.7571245689 0.7729527815 0.3050556266
0.7612754969 0.7761746476 0.321681712
0.763085396 0.778759107 0.3398927519
0.7641755767 0.780983467 0.3590462966
0.7649983526 0.7829496276 0.378717493
0.7659047054 0.7847418245 0.3987470768
0.4725568035 0.658639015 0.2473745904
0.4785350667 0.6613773411 0.247302787
0.4934402645 0.6680290196 0.2469143457
0.5167425373 0.6781154916 0.2462939929
0.5494352741 0.6927731957 0.2491300357
0.5886170854 0.7096491977 0.2536347537
0.6304008285 0.7267210188 0.259872658
0.6718262514 0.7426092489 0.2679944017
0.7065971209 0.7553142075 0.2781642073
0.7316158027 0.7643212975 0.2897926316
0.7466690928 0.7702730203 0.3031781386
0.7556489377 0.7744956033 0.3179898202
0.7607177625 0.7776676842 0.334209657
0.7631029635 0.7801224201 0.3516685773
0.764586159 0.7822748956 0.3703956868
0.7654667241 0.784148818 0.3898242483
0.7664523122 0.7859009214 0.4099480335
0.498843424 0.6764579357 0.2683917827
0.5042518144 0.6788284852 0.2682318691
0.5180300656 0.6846982934 0.2675622918
0.5398586532 0.6936394171 0.2662132012
0.5689843293 0.7059841746 0.2681454247
0.6024379141 0.7194851051 0.2708302947
0.6386559036 0.7337422609 0.2765023821
0.6743986074 0.7470935004 0.2842637757
0.7055082912 0.7580673748 0.2934736418
0.72958081 0.7663447311 0.3043028376
0.7445736318 0.7719377955 0.3172167656
0.7543710927 0.7760740509 0.3318002427
0.7600328296 0.7790969297 0.3474889122
0.7631273363 0.7814611026 0.3644208787
0.7648693013 0.7834301814 0.3822825639
0.765963782 0.785191028 0.4013520133
0.766975757 0.7868388887 0.4215058334
0.5250578549 0.6930636064 0.2906410896
0.5302151202 0.6952154884 0.2904297359
0.5432049167 0.7004711003 0.2895358011
0.5628904191 0.7081070799 0.2877814985
0.5880353306 0.7180537272 0.2884772153
0.6166012961 0.7288791514 0.2898458773
0.6479868546 0.7407261073 0.2950395867
0.6786278853 0.7515828426 0.3011631838
0.7060746269 0.7608989763 0.3092379778
0.7284651671 0.7684025441 0.3198066505
0.7431235414 0.7735999973 0.3320888054
0.7533004053 0.7775383464 0.345893096
0.7594024203 0.7804841874 0.3614486292
0.7631428535 0.7827898815 0.3777951626
0.7650966905 0.7846339065 0.3951172287
