app/src/main/assets/spektrafilm/profiles/fujifilm_c200_film.cube
# ============================================================================
# spektrafilm LUT
# Bundle:  spektrafilm_v033_c200_8printpack_2lut_prophoto_prophoto  (2lut, 17^3)
# Film:    fujifilm_c200
# Print:   fujifilm_crystal_archive_typeii, kodak_2383, kodak_2393, kodak_ektacolor_edge, kodak_endura_premier, kodak_portra_endura, kodak_supra_endura, kodak_ultra_endura
# Input:   ProPhoto RGB  (cctf on)
# Output:  ProPhoto RGB  (cctf on)
# Created: 2026-06-02T06:13:02Z
# spektrafilm: 0.3.3
# Project: https://github.com/andreavolpato/spektrafilm
#
# Copyright (c) 2026 Andrea Volpato. Generated by spektrafilm. Licensed under CC BY-SA 4.0.
#
# License: spektrafilm LUT by Andrea Volpato, licensed under CC BY-SA 4.0.
#          Full text and attribution requirements in SPEKTRAFILM_LICENSE.txt
#          (shipped in this bundle); also at
#          https://github.com/andreavolpato/spektrafilm/blob/main/SPEKTRAFILM_LICENSE.txt.
#
# Citation: If you use this LUT in your work, please cite the spektrafilm
#           project: https://github.com/andreavolpato/spektrafilm, see
#           CITATION.cff for details.
#
# Notes: Generated by the spektrafilm LUT bundle builder. Apply with trilinear
#        or tetrahedral interpolation in your host (DaVinci Resolve, Nuke,
#        OCIO-aware DCC). The input and output color spaces are declared in
#        bundle.json; do NOT apply this LUT to a signal in a different color
#        space.
#
# Role:    film  (domain=input_rgb → range=cmy_film)
# File: lut_v033_c200_film.cube  (see sibling bundle.json for full metadata)
# ============================================================================
TITLE "v033_c200_film"
DOMAIN_MIN 0 0 0
DOMAIN_MAX 1 1 1
LUT_3D_SIZE 5
0.1031299954 0.09408665381 0.08034709947
0.7713019834 0.09752773118 0.1116004896
0.8989013593 0.1073424816 0.2090717828
0.9381615151 0.120878515 0.3046788766
0.9558827012 0.139316995 0.3807266448
0.1562847916 0.6680063227 0.08129914279
0.6435634101 0.5276345386 0.08528653241
0.8686221844 0.3946086891 0.09890467712
0.9319967844 0.3215684945 0.126560581
0.9546832382 0.2938660037 0.1737355869
0.2469781516 0.8584309524 0.08439177388
0.4989942092 0.8203060097 0.08908476544
0.8083856646 0.6881986917 0.09952954179
0.9064500197 0.6088764345 0.1177101743
0.9439274971 0.5501064929 0.1450945497
0.3164096097 0.9231235917 0.09053877626
0.4525460074 0.9143485891 0.09466837816
0.7300435398 0.8497257921 0.1031971639
0.8774837069 0.7752759893 0.1182497513
0.9305147652 0.7248093168 0.1392744189
0.3706370318 0.9568170083 0.09820027894
0.4537241222 0.9529615551 0.101451548
0.6612116051 0.9222026627 0.1084666417
0.8351165721 0.8720365461 0.1218347309
0.9122748695 0.8326481189 0.1397243945
0.1041388595 0.2124043031 0.6440139818
0.6855314477 0.1089746108 0.5045796123
0.8697501857 0.10925672 0.5809084735
0.9273831815 0.1180940754 0.6126254827
0.9500069937 0.1323986483 0.6264803658
0.1482130921 0.5681998647 0.5541201324
0.5896339611 0.4554274948 0.3698725983
0.8440341231 0.3193031402 0.3453817205
0.92397602 0.2421717596 0.3932494824
0.950838808 0.2204529893 0.443753663
0.2482417716 0.7836232047 0.4073784417
0.4917289523 0.7345240299 0.3341630423
0.7933289972 0.6310374841 0.2500023131
0.9003800735 0.5647246208 0.2364225643
0.9417685925 0.5159319241 0.2561690665
0.3121269536 0.8868339499 0.2699543563
0.4540614265 0.8695367418 0.2670647226
0.7198067096 0.8027298741 0.2265009803
0.8723700268 0.740910578 0.2110238854
0.9282268157 0.6990014476 0.2228063931
0.36353674 0.9366135206 0.2019742561
0.4516886143 0.9281790406 0.2123523247
0.657218815 0.8962759229 0.2043812842
0.831113765 0.8505606667 0.2005623685
0.9105123143 0.8121963614 0.2113589768
0.1095228568 0.3879893985 0.8284114951
0.4875072353 0.196995144 0.7176368259
0.8334602147 0.13906498 0.6559777885
0.9134995792 0.1357811905 0.704087162
0.9448878183 0.1445300968 0.7399407451
0.1282699981 0.5612784604 0.8037196275
0.4588979359 0.4640209229 0.6595429529
0.8011709659 0.3299072583 0.5777608542
0.9042127936 0.2514726947 0.6066428771
0.9424148891 0.223567628 0.6518002513
0.2151148059 0.7333192734 0.7123941593
0.4267569923 0.6951811028 0.6114946645
0.7523493216 0.5929250201 0.5193538533
0.8822871681 0.5310377128 0.5011409231
0.9333830312 0.4771803159 0.5151379161
0.3021822707 0.8385836728 0.6288596567
0.4340236907 0.8203792904 0.5861047155
0.6923506061 0.7580731054 0.4988294416
0.8566284879 0.6994665937 0.4523385083
0.9206212468 0.6657823456 0.43571008
0.3602577337 0.8987598441 0.5561087324
0.4474608799 0.8898158917 0.5362880294
0.6441762405 0.8582089803 0.4812889817
0.8197876973 0.8134307145 0.4321899574
0.9048636852 0.7816869293 0.409645207
0.1184259479 0.4919072071 0.9085509163
0.262622938 0.3843234304 0.859385117
0.7710139552 0.2103189772 0.7483751316
0.896530478 0.1724831558 0.7427547177
0.9372718073 0.1685939054 0.7806356526
0.130782773 0.5929951764 0.9025570312
0.2820946276 0.5224891917 0.82552611
0.7375003802 0.3742619793 0.7201696846
0.8851634073 0.2931399347 0.6955988023
0.9337137755 0.253754655 0.7252883514
0.1860476224 0.7260530695 0.8536330427
0.3278236904 0.6926683451 0.7795630406
0.6927896055 0.5887518604 0.6819464226
0.8602272138 0.5244921847 0.6430730787
0.9234834119 0.4744418834 0.6509728654
0.2712960828 0.815713467 0.7961145186
0.3856589029 0.8004388732 0.7423260553
0.6438366419 0.7436752575 0.6497327775
0.8333242464 0.6810085894 0.6064112242
0.9084154056 0.6457632657 0.5959563576
0.3443372629 0.8760451594 0.7394631552
0.4243220472 0.8682461313 0.7104044044
0.615199646 0.8384537345 0.6373658154
0.8006154577 0.7917123866 0.5881296122
0.8951132673 0.7593606528 0.5597646675
0.1296191754 0.5626445865 0.9535111883
0.1726239182 0.5085964787 0.9287053393
0.6408602134 0.3071990289 0.8456083743
0.8701552041 0.2402630833 0.7995193904
0.9285694424 0.2128948659 0.8074368068
0.1381810612 0.6284602548 0.9524467118
0.1946887797 0.5872725498 0.9150894765
0.6299434864 0.432590089 0.8288389339
0.8572448747 0.3515663951 0.7806428958
0.9238698684 0.2980077869 0.7780681376
0.1757718519 0.7307989362 0.9263901228
0.2518739537 0.7025040554 0.88265973
0.606031666 0.6034211784 0.7986219384
0.829867286 0.5313230284 0.7468238735
0.910611126 0.4824562141 0.7300374188
0.2436873233 0.8079643862 0.8851018549
0.3258821964 0.7940056894 0.8473251195
0.5813620684 0.741018928 0.7657613598
0.8033130655 0.6743391501 0.7160184141
0.8965890571 0.6362013606 0.6976845114
0.3183790909 0.8645778116 0.8444615759
0.3886963398 0.8575612303 0.8187835354
0.5696289819 0.8303251295 0.7466150864
0.7711213097 0.7819386008 0.6915258397
0.8811956547 0.745971804 0.6677236517
