app/src/main/assets/spektrafilm/profiles/fujifilm_xtra_400_film.cube
# ============================================================================
# spektrafilm LUT
# Bundle:  spektrafilm_v033_xtra400_8printpack_2lut_prophoto_prophoto  (2lut, 17^3)
# Film:    fujifilm_xtra_400
# Print:   fujifilm_crystal_archive_typeii, kodak_2383, kodak_2393, kodak_ektacolor_edge, kodak_endura_premier, kodak_portra_endura, kodak_supra_endura, kodak_ultra_endura
# Input:   ProPhoto RGB  (cctf on)
# Output:  ProPhoto RGB  (cctf on)
# Created: 2026-06-02T06:13:04Z
# spektrafilm: 0.3.3
# Project: https://github.com/andreavolpato/spektrafilm
#
# Copyright (c) 2026 Andrea Volpato. Generated by spektrafilm. Licensed under CC BY-SA 4.0.
#
# License: spektrafilm LUT by Andrea Volpato, licensed under CC BY-SA 4.0.
#          Full text and attribution requirements in SPEKTRAFILM_LICENSE.txt
#          (shipped in this bundle); also at
#          https://github.com/andreavolpato/spektrafilm/blob/main/SPEKTRAFILM_LICENSE.txt.
#
# Citation: If you use this LUT in your work, please cite the spektrafilm
#           project: https://github.com/andreavolpato/spektrafilm, see
#           CITATION.cff for details.
#
# Notes: Generated by the spektrafilm LUT bundle builder. Apply with trilinear
#        or tetrahedral interpolation in your host (DaVinci Resolve, Nuke,
#        OCIO-aware DCC). The input and output color spaces are declared in
#        bundle.json; do NOT apply this LUT to a signal in a different color
#        space.
#
# Role:    film  (domain=input_rgb → range=cmy_film)
# File: lut_v033_xtra400_film.cube  (see sibling bundle.json for full metadata)
# ============================================================================
TITLE "v033_xtra400_film"
DOMAIN_MIN 0 0 0
DOMAIN_MAX 1 1 1
LUT_3D_SIZE 5
0.08995232527 0.0850991405 0.06972771328
0.6545668012 0.0875529661 0.07688799723
0.8349730273 0.09500892624 0.1088002
0.9103487103 0.104359715 0.1534121673
0.9490472675 0.1149834062 0.1980395164
0.1185170704 0.6543834889 0.0701459099
0.5715836153 0.4941525817 0.07226682532
0.8073081831 0.3470989777 0.08169796402
0.9070582366 0.2564105193 0.09918243551
0.9538170768 0.2177410278 0.1262504429
0.1860397571 0.8580827932 0.07057963631
0.4367685468 0.8090237195 0.07322105903
0.7385063143 0.6538241781 0.0803438275
0.8657337905 0.5578365978 0.0908473498
0.9304911148 0.4883851194 0.1069489524
0.2506264153 0.9249573361 0.07166630405
0.3909925314 0.9112263149 0.07472105298
0.656716588 0.8366767841 0.08124603258
0.8270539088 0.7409979912 0.08940181944
0.9055977068 0.6675855194 0.1023599775
0.3067034818 0.9564123515 0.07345590561
0.3924910882 0.9498599488 0.07622281193
0.5893963409 0.9165297439 0.08226399491
0.7707152734 0.8543859049 0.0899472215
0.8807942945 0.7947848427 0.1006429585
0.09066437573 0.1333648435 0.6529274669
0.5916555707 0.09349116941 0.4820965186
0.7875006189 0.0939980908 0.5313185419
0.881313081 0.09934777853 0.5198416139
0.9295622926 0.1062892067 0.4906062289
0.1148482278 0.5312204294 0.5254752029
0.5152697714 0.4149669586 0.3282915352
0.7694524531 0.2625559811 0.2894729364
0.8905713366 0.1838867775 0.3008296509
0.943369037 0.1634601707 0.3162624176
0.1893515194 0.7762576733 0.335112412
0.4285972853 0.7066279743 0.2676399862
0.7131889218 0.5895518714 0.1934945461
0.8490417018 0.5095331423 0.1773631718
0.9241810914 0.4465256205 0.1875514561
0.2485651773 0.8878104747 0.1701274001
0.3917035681 0.8604305225 0.184225895
0.6431225409 0.7836085975 0.1635189025
0.813967304 0.6974504701 0.1524371646
0.897574249 0.6360244372 0.1579239982
0.3010276501 0.9366581953 0.1157234581
0.3907128571 0.9257749744 0.1332728035
0.5835603953 0.8871154461 0.1404355865
0.7619987842 0.8251778112 0.1406646049
0.8733966633 0.7716323228 0.1458442671
0.0930126709 0.2572337065 0.8523111769
0.4008126129 0.1488692129 0.726116876
0.7460810029 0.1091899762 0.6426171208
0.8584058666 0.105974219 0.6695068049
0.9170571373 0.1095792158 0.6832101604
0.1026166452 0.4861503884 0.8096697504
0.3905100282 0.4119768736 0.6336111501
0.7111537049 0.2626392183 0.5422972725
0.8497864285 0.1842078575 0.5534454348
0.9197275269 0.1576856222 0.5768713406
0.1603244813 0.6911676517 0.6942725518
0.3583823605 0.6502118171 0.5684643349
0.6630373604 0.5430285915 0.4724695064
0.8161141646 0.4698600572 0.4417021631
0.9030398106 0.4029463942 0.4382390981
0.2318842435 0.8131145188 0.5761839681
0.3651529799 0.7938504284 0.5314878793
0.6095042656 0.7190799483 0.4442174571
0.7842023212 0.6438006193 0.3900147963
0.8798440962 0.5966211858 0.3649780884
0.2888802891 0.884037904 0.4779707856
0.3791439511 0.8725959768 0.4652900313
0.565688181 0.8359956777 0.4169838029
0.74205844 0.7793115183 0.3638675996
0.8556353118 0.725516179 0.3320356526
0.09740250519 0.3666631353 0.9202793068
0.2002160222 0.3111302341 0.867572855
0.6592270156 0.1571192884 0.7535397766
0.8319028708 0.1279956043 0.7303107205
0.9034310537 0.1230724754 0.7491400195
0.1040408 0.4914530664 0.9087394157
0.2150321657 0.45769834 0.8277974539
0.6301658101 0.3100053663 0.7103572924
0.8166515646 0.2130112319 0.6626098033
0.8994387863 0.1758897928 0.6808937154
0.1388639438 0.6615862181 0.8554825211
0.2564871744 0.6379273829 0.7679292873
0.6040812411 0.5348740292 0.6503641886
0.7806974679 0.4583545733 0.5989554563
0.8815410347 0.395996316 0.5905255121
0.2045098974 0.7786203404 0.7789072649
0.3131129749 0.7650336495 0.721475357
0.5629581897 0.6985122729 0.6124935474
0.750456937 0.6212172514 0.5544261835
0.8548324362 0.5710981217 0.5323626536
0.2702912665 0.8494597458 0.7068909417
0.3536975346 0.8418090478 0.6694223268
0.53710271 0.8064843215 0.5919392258
0.7161238642 0.7476333526 0.5326392168
0.8359915543 0.6964983433 0.4941062261
0.1035543257 0.4396912428 0.9544576561
0.1307201006 0.4197247176 0.9322936488
0.5357829332 0.236263742 0.8504622497
0.7822332125 0.1709493719 0.7900781829
0.8857656729 0.1450559659 0.7830737887
0.1083409166 0.5088969736 0.9507959302
0.14541217 0.503033342 0.91731139
0.5382332218 0.3643007558 0.8231459622
0.7648141732 0.2676171756 0.7636977443
0.8782489398 0.2065085675 0.7474975111
0.131899752 0.6462375599 0.9227489072
0.1878311819 0.6346150304 0.8800341351
0.525369939 0.5440994252 0.7831977028
0.7356990066 0.4659579942 0.7246759155
0.8554162174 0.4026815952 0.6913591043
0.1802444637 0.7565385237 0.8776085519
0.2531209418 0.7446166693 0.8386816166
0.5057028436 0.6903422544 0.7478532354
0.7131948409 0.6125210357 0.6817692298
0.8324781071 0.5591389499 0.6480345091
0.2453840887 0.8278417519 0.8293999259
0.3149145207 0.8211352218 0.8005233006
0.4954520787 0.7938045394 0.7243686102
0.6819095306 0.7323194971 0.6516251581
0.8120947301 0.6790084449 0.613672453
