app/src/main/assets/spektrafilm/profiles/fujifilm_provia_100f_film.cube
# ============================================================================
# spektrafilm LUT
# Bundle:  spektrafilm_v033_provia100f_portraendura_1lut_prophoto_prophoto  (1lut, 17^3)
# Film:    fujifilm_provia_100f
# Print:   kodak_portra_endura
# Input:   ProPhoto RGB  (cctf on)
# Output:  ProPhoto RGB  (cctf on)
# Created: 2026-06-02T06:53:55Z
# spektrafilm: 0.3.3
# Project: https://github.com/andreavolpato/spektrafilm
#
# Copyright (c) 2026 Andrea Volpato. Generated by spektrafilm. Licensed under CC BY-SA 4.0.
#
# License: spektrafilm LUT by Andrea Volpato, licensed under CC BY-SA 4.0.
#          Full text and attribution requirements in SPEKTRAFILM_LICENSE.txt
#          (shipped in this bundle); also at
#          https://github.com/andreavolpato/spektrafilm/blob/main/SPEKTRAFILM_LICENSE.txt.
#
# Citation: If you use this LUT in your work, please cite the spektrafilm
#           project: https://github.com/andreavolpato/spektrafilm, see
#           CITATION.cff for details.
#
# Notes: Generated by the spektrafilm LUT bundle builder. Apply with trilinear
#        or tetrahedral interpolation in your host (DaVinci Resolve, Nuke,
#        OCIO-aware DCC). The input and output color spaces are declared in
#        bundle.json; do NOT apply this LUT to a signal in a different color
#        space.
#
# File: lut_v033_provia100f_portraendura.cube  (see sibling bundle.json for full metadata)
# ============================================================================
TITLE "v033_provia100f_portraendura"
DOMAIN_MIN 0 0 0
DOMAIN_MAX 1 1 1
LUT_3D_SIZE 17
0.01054885541 0.009697935307 0.01187297413
0.1236230101 0.051795271 0.0260118968
0.2575488617 0.09590674569 0.04277619779
0.2972161891 0.1087781059 0.04842665592
0.3093136278 0.1121534224 0.05169174761
0.3154383033 0.1131833545 0.0556718977
0.3209596644 0.1136409005 0.06154139469
0.3272159766 0.1142121305 0.06979172294
0.3342194128 0.1151796188 0.08058278542
0.3406018809 0.1180278482 0.09408123512
0.3470437102 0.1220094595 0.1096213393
0.3547010683 0.1266951201 0.125575066
0.3641150048 0.1326642035 0.1415942909
0.3749905456 0.1401302759 0.1590082254
0.3884013437 0.1498953846 0.1791188324
0.4037772796 0.1616330991 0.2004505215
0.4210804951 0.1757312549 0.2232951009
0.02599753665 0.04251296237 0.02756173173
0.04873752645 0.05052390768 0.03152694187
0.1992843592 0.08420690089 0.03878496857
0.2863159127 0.1093240305 0.04833391703
0.3110494861 0.115884579 0.05266470241
0.3211072735 0.1181024859 0.05679572091
0.3280733938 0.1193025034 0.06251517196
0.3349013164 0.1205083885 0.07037067908
0.3424706295 0.1220373818 0.08109877416
0.3503246333 0.1246689135 0.09342023993
0.3577675707 0.1294444732 0.1093046347
0.3667510331 0.1355067155 0.1265309334
0.3781123213 0.1432782116 0.1442493848
0.3910475434 0.1527966264 0.1630760163
0.4051945636 0.1639929671 0.1841837189
0.4214494799 0.177546201 0.2068546764
0.4396179828 0.1936299219 0.2308228777
0.06655076789 0.1461731867 0.0598380185
0.07595249185 0.1611067959 0.06325144388
0.194300448 0.1987939453 0.06962622945
0.3492208123 0.2295051779 0.07923495076
0.4056943981 0.2224696464 0.08186756912
0.4114378588 0.2047998512 0.08148954814
0.4084238784 0.1915404051 0.08344660744
0.4073141361 0.1844477754 0.08930966726
0.4097954138 0.1816709017 0.09998535311
0.4152611005 0.182461325 0.1140311724
0.423750636 0.1867834122 0.1315635048
0.4338313719 0.1938293016 0.1514917077
0.4439325032 0.2031934372 0.1723024499
0.4561016322 0.2147746381 0.1933320291
0.469687388 0.2283285288 0.2163957835
0.4831599322 0.2428264826 0.2399347162
0.4961357736 0.2570443866 0.2626200389
0.09609924085 0.2208747878 0.07979201695
0.1043027814 0.2335597166 0.08233012124
0.1742635067 0.2828239747 0.09289039833
0.345630535 0.3469910823 0.1067152088
0.4777788499 0.3767525192 0.1173334986
0.5239481314 0.3742011567 0.1220323615
0.5359368779 0.3625959545 0.125791536
0.5373054881 0.3507344413 0.1317134945
0.5357087523 0.3404108393 0.141169533
0.534744581 0.3330788129 0.1548615113
0.5356153352 0.329249915 0.1717651487
0.538535765 0.3286738787 0.1922060368
0.5420419555 0.3299036544 0.2132725327
0.5453678643 0.3324703329 0.2332131995
0.5510026462 0.3376305187 0.254875059
0.5579724192 0.3446673397 0.2774316211
0.5646549049 0.3525335556 0.2994437647
0.1163190411 0.264128722 0.09024946209
0.1242747683 0.2748726765 0.09232209353
0.1762676747 0.3228671206 0.1039458792
0.3179933918 0.412442954 0.1247899147
0.4823897995 0.4793950156 0.1417275847
0.5786608245 0.5027190583 0.1520320445
0.6117018705 0.5021384799 0.1585012734
0.6234576623 0.4962821052 0.1659482267
0.6258280685 0.4878542908 0.1757409943
0.6256342308 0.4798541297 0.1895926665
0.624418129 0.4726544948 0.2056794738
0.6241977946 0.4676218543 0.2252826298
0.624608116 0.4639418079 0.2459727991
0.6251914811 0.4615092181 0.2659735275
0.6259429665 0.460605919 0.2867754676
0.6286795075 0.4618440905 0.3094496397
0.6323274797 0.4643088581 0.3316926834
0.1350923831 0.2942253189 0.0971486047
0.145128841 0.3055282912 0.1000411974
0.1892508091 0.3480495182 0.1106348231
0.2975798698 0.4309897384 0.1308941091
0.4424877937 0.5141800383 0.151771523
0.5808682722 0.5730719697 0.1693105977
0.6494618952 0.596695982 0.1817122509
0.6775143411 0.6047146246 0.192449813
0.6891976788 0.6063330476 0.2045006595
0.6937416431 0.6050350922 0.2195772587
0.6950930764 0.6016043862 0.2361202054
0.6954175344 0.5978394217 0.2558470959
0.695185841 0.5935323201 0.2766097311
0.6948750525 0.589092802 0.2963724546
0.6944066651 0.5853233625 0.3161724982
0.6941156463 0.5826928464 0.3380137022
0.6953760965 0.5814954289 0.360078126
0.1592671157 0.3241500211 0.1047065975
0.1703648628 0.3357045706 0.1076439623
0.2102472475 0.3734635994 0.117216509
0.2936044184 0.4407405537 0.1341900398
0.4117052465 0.5186834011 0.1545084041
0.5494046313 0.593408832 0.1755572187
0.6516054011 0.6419667129 0.193268719
0.6974370835 0.6623445863 0.2070489658
0.7181609066 0.671809056 0.2211257996
0.7277744116 0.6767152353 0.2371419888
0.7325003083 0.6789562788 0.2546294345
0.7352059648 0.6801602194 0.274887031
0.7368777217 0.6800497242 0.2958863071
0.7378965228 0.6789880182 0.3159825751
0.7390089111 0.6778058614 0.3362629359
0.7395251471 0.6765669153 0.3582442503
0.739995327 0.6754723022 0.380138895
0.1905005565 0.3575458728 0.1130339
0.2015678227 0.3682621308 0.1158229287
0.2360515622 0.3994145643 0.1239041645
0.3004503479 0.451378004 0.1375001298
0.3951665213 0.5182079452 0.155722148
0.5163700492 0.5923626304 0.1771153836
0.6282989532 0.6525489743 0.1972931002
0.6951882094 0.6853128576 0.2132179762
0.7262066133 0.7021340933 0.2295200886
0.7412540874 0.711817941 0.2465577222
0.7485868836 0.71810114 0.264777808
0.7532159945 0.7229619412 0.2852261363
0.7561253636 0.7263654907 0.3061752872
0.758260523 0.7285226441 0.3262118647
0.7602013224 0.7300408939 0.3463788501
0.762059151 0.7314041141 0.3682051374
0.7628065849 0.7315918614 0.3899721023
0.2251313272 0.3913665112 0.1215554316
0.2354718439 0.4007435902 0.1240812251
0.2649896761 0.4261253275 0.1308529617
0.3150682984 0.4660611484 0.1418501546
0.3912652512 0.5209859327 0.1575578135
0.4919681789 0.5860705157 0.1773946455
0.6021229843 0.6503095648 0.1989962357
0.6823828651 0.6932328547 0.2168836594
0.724100123 0.7162780282 0.2339820942
0.7449576147 0.7298372094 0.252287966
0.7554314639 0.7384868815 0.2715363111
0.7611283641 0.7446519538 0.2921623624
0.7645028354 0.749132412 0.3127185341
0.7669391457 0.7523614363 0.3323724948
0.7689821408 0.754922678 0.3524826945
0.7712079817 0.7573282934 0.3740256113
0.7726528989 0.7589305414 0.3952759091
0.2604174676 0.4231139154 0.1296909132
0.2697731615 0.4311207678 0.1319247957
0.2937549467 0.4509174806 0.1374419579
0.3338767301 0.4825049165 0.1467279158
0.396775103 0.5283570956 0.1606274555
0.4795738007 0.5838735833 0.1786476229
0.5797523165 0.6450227219 0.1999530463
0.6630872514 0.6918758706 0.2193758719
0.7150688764 0.7203648296 0.2371951918
0.7426863142 0.7369367107 0.255288895
0.756914133 0.747837867 0.2758818308
0.7640571411 0.7551794717 0.2971880093
0.768293554 0.7604928579 0.317880898
0.7709441042 0.7644328805 0.3372172673
0.7732482324 0.7679482323 0.357426445
0.7755364779 0.7711300081 0.3788205879
0.7775713914 0.7737783018 0.3996690216
0.2940635169 0.4514334877 0.1371395304
0.3013693264 0.4574943271 0.1389831769
0.3207602968 0.4730848423 0.1436420883
0.3553245233 0.4998710529 0.1519721025
0.4079649388 0.538334215 0.1643546055
0.477121451 0.5858345037 0.1809014245
0.5656151093 0.6418030852 0.2015041032
0.6468130827 0.6895159261 0.2219012683
0.7050696602 0.7221535906 0.2411058748
0.7374905888 0.740616622 0.2584414078
0.7556027844 0.7529369234 0.2787124711
0.7649562209 0.7613923122 0.3009864149
0.7701192847 0.7672003243 0.3220880215
0.7730757264 0.7713960658 0.3416767639
0.7755251539 0.7751442958 0.3622342614
0.7776989014 0.7784662629 0.3833410959
0.7798909159 0.7813562576 0.4039482079
0.3240058056 0.475437522 0.1438232997
0.3304988441 0.4807248094 0.1455857902
0.3481053661 0.4944823875 0.1499275381
0.3779703789 0.5173290953 0.1575405085
0.4223206937 0.5498639082 0.1688934304
0.4814814813 0.5911201067 0.1843177544
0.5585308425 0.6409842076 0.2037366506
0.6344295296 0.6871844271 0.2246571854
0.6941414332 0.7214990822 0.2447024941
0.7303369513 0.7420400668 0.2624947768
0.7523988845 0.7557283352 0.2817948952
0.7644730647 0.7650566468 0.3034318532
0.7706618936 0.7714753634 0.3252232149
0.7743808242 0.7761550199 0.3455046708
0.7769966864 0.7801527367 0.3667308849
0.7792049947 0.7835775017 0.3878750932
0.7813426602 0.7865621935 0.4083240614
0.3535342302 0.498225303 0.1505459357
0.3593450359 0.502865812 0.1522151009
0.3750261478 0.5148393531 0.1562150167
0.4013438121 0.5347628012 0.1633690643
0.4382219995 0.5618532499 0.1736244328
0.4903863715 0.5983808444 0.1881179776
0.5569680969 0.6422337428 0.2064468008
0.6257594154 0.6853527076 0.2274547585
0.6836494059 0.7194524984 0.2477571214
0.7232123661 0.7421253832 0.2666429362
0.7480413543 0.7570713241 0.2862312113
0.7625191594 0.7669216972 0.3061764751
0.770255858 0.7737675568 0.3272747918
0.7748692105 0.7789415671 0.348451571
0.7777700347 0.7831922099 0.3704677994
0.7801515969 0.7867959165 0.3920089017
0.7822113156 0.7898469697 0.4125953655
0.3822131324 0.5197005775 0.1571710115
0.3876140148 0.5239449079 0.1588043089
0.40175341 0.534645431 0.1627056381
0.4241761122 0.5516089627 0.1693962195
0.4558315533 0.5747972382 0.1788188898
0.5029876218 0.6079551814 0.193000927
0.5603400661 0.6462594486 0.2104768017
0.6216935711 0.6854223284 0.2311012503
0.6755511389 0.7176382782 0.2510503136
0.7167763934 0.7413728339 0.2705662746
0.7432085171 0.757192715 0.2906418578
0.7596111414 0.7677754561 0.3105678201
0.7692413038 0.774884223 0.3295613348
0.7745593076 0.7802824383 0.3504311733
0.7780939496 0.7849020781 0.3733427109
0.7806373041 0.7886620144 0.3955144739
0.7827393803 0.7917894399 0.416428157
0.4100098319 0.540097348 0.1638736214
0.4146573369 0.543779064 0.1654645308
0.4267983456 0.5530799989 0.1693235204
0.4460690499 0.5675908774 0.1754978971
0.475499055 0.5891951491 0.185062787
0.5174940781 0.618545511 0.1982864748
0.5669887085 0.6520180883 0.2149604924
0.6212522643 0.6870892154 0.2348539425
0.6704061224 0.7169725715 0.2546206427
0.711580354 0.7408721541 0.2748482647
0.738360101 0.7567962769 0.2950260034
0.7563957633 0.7678972164 0.3147551014
0.7675265822 0.7754398982 0.3335315873
0.7737735195 0.7808004366 0.3525890766
0.7779988882 0.7856136868 0.3753096816
0.7807508662 0.7895309665 0.3981566894
0.7830336852 0.7927950788 0.4197590093
0.4354678941 0.5586466865 0.1705999229
0.4396455917 0.5619819348 0.1721956861
0.4504725573 0.570334524 0.1760497429
0.4686892056 0.5837560715 0.1819615843
0.4965089361 0.6041062681 0.1916549877
0.5330587147 0.6296043045 0.2039514201
0.5759419251 0.6590167867 0.2201140169
0.6239281614 0.6905026887 0.2396779972
0.668274623 0.717704605 0.2587600937
0.7074508964 0.7406699849 0.2790176392
0.734196126 0.7565459384 0.2992593586
0.7533560988 0.7680289123 0.3191294848
0.7655168692 0.775775581 0.3374367759
0.7729250624 0.781492411 0.3567046211
0.7776261951 0.7860938822 0.3774219823
0.7807275683 0.7900515695 0.3999940812
0.783168491 0.7934271343 0.4223603865
0.4600690093 0.5763749486 0.1775312773
0.4641562034 0.5795965908 0.1791679206
0.4748825761 0.5877613512 0.1831595061
0.4925182599 0.600466693 0.1889545341
0.51767799 0.6188532488 0.1984492781
0.5491402377 0.6408155587 0.2099050985
0.586843338 0.6672803168 0.2264380313
0.628599366 0.6946097716 0.2444227956
0.6683049637 0.7192223532 0.2629774487
0.7050573447 0.7411003587 0.2835943126
0.7309667672 0.7565364712 0.3037949461
0.750448833 0.7679957767 0.3231862394
0.7634460027 0.7760365938 0.3416439451
0.7719588327 0.782092859 0.3610013279
0.7771112764 0.7867628365 0.3815743824
0.7806504912 0.7905151359 0.4018635551
0.783169284 0.7938861564 0.4241310505
0.01466845276 0.01261172641 0.03742794013
0.08467504412 0.04061817813 0.05127882221
0.2464579181 0.08761544362 0.07939753417
0.3069823884 0.1047582774 0.08638235629
0.3235424503 0.1094976371 0.0874205986
0.3290670647 0.1113771026 0.09166097048
0.3322604999 0.1127972731 0.09807053475
0.3356194444 0.1145704121 0.105487192
0.3396908861 0.1167918145 0.1148252377
0.3445029529 0.119573805 0.1250389169
0.349830681 0.1229518384 0.1357544095
0.3560586071 0.1267735913 0.1474738896
0.3645577031 0.1320571691 0.1621583025
0.3754803367 0.1394759679 0.1790459518
0.3884856753 0.1488951108 0.1971170195
0.403394508 0.1601994015 0.2164705479
0.4192649439 0.1729519718 0.236724481
0.02360830607 0.03489751225 0.0446874123
0.04802277337 0.04515907814 0.04952813087
0.1950161325 0.07802123749 0.05328298373
0.290556164 0.1044071827 0.06192450755
0.3171129498 0.111592662 0.06717861195
0.326965927 0.11362025 0.07322582256
0.3326583556 0.1145418717 0.08020108079
0.3376979126 0.1164464956 0.0895730898
0.3433825301 0.1197079492 0.1020450434
0.3497239577 0.1234334189 0.1154363348
0.3565179542 0.1277946538 0.1297190317
0.3635177741 0.1324191119 0.1419803123
0.3738498346 0.13927092 0.1579195859
0.3876360466 0.1491170924 0.1784264016
0.4027321993 0.1608045551 0.1996537214
0.4189549732 0.1740769763 0.2212070304
0.43694713 0.1897329447 0.2439044403
0.0649753758 0.1423107201 0.06819951503
0.07439235391 0.15487344 0.07646226292
0.199515582 0.1877296673 0.07975230327
0.338568454 0.2077824633 0.08543812202
0.3897702497 0.1977508276 0.08695344196
0.3954977786 0.1813549854 0.08774448705
0.3946460409 0.1708536375 0.09249818256
0.3954274404 0.1659388148 0.1014781801
0.398744419 0.165037897 0.113106895
0.4049128935 0.1672616771 0.1282426258
0.4128451332 0.1731234067 0.1463004159
0.4224673716 0.1813018184 0.1645428708
0.4331846873 0.1910790215 0.1833408865
0.4462309918 0.202913616 0.2041302303
0.4604999487 0.2167621355 0.2259940775
0.475254097 0.2322457428 0.2488220165
0.4904126328 0.2485097449 0.2723029097
0.09636320356 0.2210342729 0.08383760002
0.1044507043 0.2331281737 0.08971292359
0.1781697641 0.2798643312 0.1012313377
0.3497791889 0.3378083503 0.1144285958
0.4738392528 0.3641805765 0.1253850932
0.5192096404 0.3615803495 0.1316438601
0.5319429274 0.3508586917 0.1376263377
0.5333247722 0.3386853162 0.1466329163
0.5313943044 0.3281537611 0.1580409126
0.5303708405 0.3213654314 0.1731462182
0.5312855716 0.3182071016 0.1911360894
0.5336936258 0.3177426782 0.2099055393
0.5363896117 0.3186348626 0.2280029849
0.5401546965 0.3220140775 0.2477753265
0.5462320003 0.3278541359 0.2688598883
0.5532400993 0.3352003048 0.2898574029
0.5600978495 0.3435526636 0.3108965872
0.1174953145 0.266141145 0.09325802082
0.1254987644 0.2775715285 0.09714400221
0.1785666748 0.3260596258 0.1111216703
0.3221762348 0.4132207264 0.1332710757
0.4851842176 0.4745668475 0.1504224404
0.5786699057 0.4971984825 0.1624662775
0.6113660428 0.4972580972 0.1710213634
0.6231429314 0.4912076612 0.1813661107
0.6253786401 0.4824737199 0.193505744
0.6247236154 0.4740144083 0.2080497369
0.6234011478 0.4667987373 0.2257463704
0.6224755965 0.4610287925 0.2447426723
0.6221840859 0.456692808 0.263243447
0.6224870525 0.4541177946 0.2821857569
0.6232647664 0.4533013778 0.3030747572
0.6258242977 0.4543368229 0.3241622772
0.6294263127 0.4569129925 0.3451887596
0.1363488688 0.2970293269 0.09970065272
0.1460867324 0.3085735136 0.1034976069
0.1903485521 0.3521202712 0.1164631406
0.3006793744 0.4364240637 0.139234062
0.4471583578 0.5179709757 0.1616360413
0.5855310607 0.5756379098 0.1807685225
0.6531675797 0.5994056053 0.1951665226
0.6804009575 0.6070294076 0.2085760745
0.6917493122 0.6079118763 0.2227825093
0.6952352234 0.6047514031 0.238180325
0.6962923575 0.6007454148 0.2563469138
0.6957035215 0.5954213892 0.2754042485
0.6945839989 0.5897715061 0.2939086327
0.6939325154 0.5848253232 0.3126144114
0.693475187 0.5810156002 0.3332054668
0.6928915951 0.5778923641 0.3540132912
0.6940680281 0.5765798619 0.3747591569
0.1603085555 0.3269128752 0.1071937309
0.1710164157 0.3385588076 0.1107537155
0.2104055617 0.3770350594 0.1220880556
0.295161621 0.4462806355 0.1416194052
0.4151183553 0.5252629587 0.1643498377
0.5551937418 0.6009962919 0.1876323754
0.6576105529 0.6491014001 0.2069736429
0.7020966702 0.6684742406 0.2232755926
0.7216885912 0.6766266753 0.2389604526
0.7305546048 0.6803127924 0.2555349391
0.7350070544 0.681941454 0.274493697
0.7370301039 0.6817977567 0.2941916217
0.7380788293 0.6805057972 0.3132899193
0.7387824214 0.6788090166 0.3323196059
0.7398358729 0.6773678422 0.3531424182
0.74015289 0.6757333163 0.374340594
0.7403558355 0.6740285867 0.3951817737
0.1909486176 0.3597793838 0.1154475494
0.201463419 0.3703604365 0.1186445962
0.2352595276 0.4019698509 0.128104926
0.3008322288 0.4561721426 0.1440349182
0.3975265882 0.5253347199 0.1650377011
0.5212532634 0.6011334452 0.1890177906
0.6340614456 0.6608217797 0.2106387981
0.7002882241 0.693024895 0.2290426316
0.7303185017 0.7086808201 0.2467157477
0.7445663189 0.7173561655 0.2645088022
0.7514204577 0.7228707974 0.2839082035
0.7554958466 0.7266275826 0.3037971438
0.7579096657 0.7289752617 0.3230070176
0.7597192358 0.7303594015 0.3421020467
0.7616361203 0.731646902 0.3628370293
0.7631814444 0.7322175835 0.3838777353
0.7637689709 0.7320113997 0.404579043
0.2248765812 0.3930384417 0.1238831889
0.2346876769 0.4022802734 0.1267326265
0.2638016878 0.4283026521 0.1347294855
0.3147474166 0.4701531114 0.1478395356
0.39226216 0.5271381327 0.1661536752
0.4959584766 0.5947138117 0.1887994325
0.607774713 0.6595126869 0.2122122101
0.687790944 0.7020135294 0.2324869759
0.7284098805 0.7235112709 0.2504640113
0.7484008052 0.7359521014 0.2697257624
0.7581409587 0.7435281959 0.2898052626
0.7632945647 0.748635129 0.3097698271
0.7662229774 0.7521551776 0.3287365201
0.7684162202 0.7547362419 0.3477652365
0.7704247732 0.7570595314 0.3683725603
0.7724968027 0.7590126399 0.3891086227
0.7737620552 0.7601633916 0.4094072182
0.2596034557 0.4244204766 0.1319968922
0.2686474045 0.4325451954 0.1346528781
0.2927392905 0.4532687265 0.1413196287
0.3332324155 0.4861974425 0.1522960059
0.3969909943 0.5338401778 0.168657329
0.4825336023 0.5917914519 0.1894100785
0.5844597867 0.6538828849 0.212881214
0.6682577041 0.7007771013 0.2348799592
0.7191411259 0.7275351291 0.2528597437
0.7460694406 0.7431120161 0.2721225279
0.759638222 0.7530097223 0.2934099899
0.766149056 0.7592227833 0.3139213794
0.7699275094 0.7636155847 0.333018754
0.7724355959 0.7671577337 0.3522183853
0.7746695727 0.7703805708 0.3727517279
0.7768262964 0.7731516477 0.3933264512
0.7787356829 0.7754584724 0.4133327938
0.2932715944 0.4530322611 0.1397530133
0.3004241146 0.4593102938 0.14201646
0.3197798584 0.4755549914 0.1476257143
0.354594548 0.5034910612 0.1575231201
0.4080498897 0.5436102215 0.172163635
0.4793467987 0.5930790956 0.1910795994
0.5693714853 0.6500676739 0.2139532887
0.6513509281 0.6980972486 0.237027075
0.7088219367 0.7290420588 0.2561572027
0.7407872739 0.7466625081 0.2746782261
0.7582355995 0.7579835687 0.2955536401
0.766924702 0.7652843682 0.3169581701
0.7716835917 0.7702270635 0.3365635325
0.7745014119 0.7740939581 0.3563430747
0.7768793992 0.7775670609 0.3770538147
0.7789186457 0.7804845128 0.3972804983
0.7810172788 0.7830710702 0.4171639223
0.3232213529 0.4772665094 0.146715463
0.3296073476 0.4826770213 0.1487510368
0.3471197616 0.4969940842 0.1539844342
0.3770055667 0.5207400282 0.1630396849
0.4223866778 0.5548700175 0.1763901878
0.4831167103 0.5976263923 0.1938968145
0.56168357 0.6487887305 0.2159709931
0.6384037086 0.6951875859 0.2390985473
0.6978813601 0.7281968418 0.2591568692
0.7335570465 0.7479807903 0.2783805347
0.7549055103 0.7605744954 0.2978561881
0.766397126 0.7688800781 0.3187938308
0.772180265 0.774449069 0.3391878867
0.7757657816 0.7788345614 0.3598663872
0.7782837814 0.7824973909 0.3810264177
0.7803614903 0.7855507462 0.4012949039
0.7824250368 0.7882629163 0.4211307206
0.3528339724 0.5001573122 0.1535676387
0.3585543033 0.5049297366 0.1555150196
0.3740132612 0.5174223432 0.1604848992
0.4003379018 0.5379882034 0.1687758118
0.4384597566 0.5666326786 0.1808285967
0.4916042445 0.6042993844 0.1972631669
0.559603019 0.6495372192 0.2183649781
0.6292424342 0.6927809239 0.2411716633
0.6871790975 0.7259333252 0.2618952401
0.7262927008 0.7478244478 0.2820005941
0.7504394639 0.7617118659 0.3016463427
0.7644266837 0.7706238731 0.3207990781
0.7717291093 0.776667563 0.3407771521
0.776220704 0.7815639461 0.3624694252
0.7790088125 0.7854779271 0.3842814846
0.7812589704 0.7887130082 0.404934223
0.7832536187 0.7915122101 0.4249938867
0.3814278712 0.5217123256 0.1604544464
0.386723598 0.526081855 0.1623835346
0.400676013 0.5372324874 0.1671740855
0.4236125691 0.5549316314 0.1747770648
0.4562649287 0.5795876887 0.1861474378
0.5039591642 0.6134297997 0.2019308679
0.5625901515 0.6530783646 0.222238518
0.6246221058 0.6920549104 0.2439117706
0.6788121235 0.7237957651 0.2648031736
0.7196551615 0.7467870902 0.2853949651
0.745545878 0.7615971787 0.3053320859
0.7614105438 0.7712248086 0.324250369
0.770686529 0.7776974634 0.3424737385
0.7759086968 0.7828670668 0.3641151318
0.7792923312 0.7871169973 0.3866953943
0.7817180148 0.7905288976 0.4080690614
0.7837476653 0.7934146263 0.428471698
0.4092890314 0.5423250394 0.1675189996
0.413888746 0.5461207029 0.1693603595
0.426238502 0.5559309714 0.1739367872
0.4459505355 0.5711159002 0.1810356904
0.4758373519 0.5936091806 0.1921655913
0.5183112225 0.6237226583 0.207161294
0.5689655022 0.6583110723 0.226343035
0.6237255743 0.6930031181 0.246798599
0.6733179755 0.7227220154 0.2679799669
0.7142802898 0.7459308504 0.2890515895
0.7405593232 0.7609403183 0.3091115538
0.7581150482 0.7711413162 0.3277820857
0.7689422436 0.77812864 0.3460003449
0.7750872433 0.7833013513 0.365812057
0.779170315 0.7877656446 0.3882616767
0.7818030301 0.7913440098 0.4103662298
0.7840131848 0.7943685255 0.4314581966
0.434999926 0.5610768868 0.1744931276
0.4392302722 0.5645773286 0.1763534746
0.4502883278 0.5733614397 0.1808321168
0.4686927445 0.5873413611 0.1877414964
0.4967601715 0.6081894637 0.1985853334
0.5339542553 0.634592333 0.2127588285
0.5777340259 0.6648610969 0.2311731463
0.6261146058 0.6959102757 0.2511198366
0.6709072395 0.7230803883 0.2717589996
0.7098624583 0.7453641372 0.2926516292
0.7362475189 0.7604171293 0.312701801
0.7549828116 0.7710512378 0.3314726687
0.7669058884 0.7783811668 0.3497105675
0.7741998849 0.7838797261 0.3695374188
0.7787618341 0.7881451543 0.3898298378
0.781748312 0.7918046162 0.41188615
0.7841230015 0.794944321 0.4337458981
0.4599037867 0.5790398162 0.1817372862
0.4640145523 0.5823724731 0.183596634
0.4748435628 0.5908211142 0.1881261515
0.4925449432 0.6040173063 0.1949578681
0.517941324 0.6227474272 0.2053759184
0.5501952521 0.6458245069 0.2190304097
0.5884044393 0.6724657565 0.2368009816
0.630546333 0.699545332 0.2553439428
0.6706532485 0.724176758 0.2754386901
0.7072348624 0.7454255035 0.2965753117
0.7328169934 0.7600807351 0.3164015563
0.7519920529 0.7708157361 0.3348228237
0.7648090355 0.7785418453 0.3535799088
0.7731961614 0.7843669493 0.37340633
0.7782137069 0.7887060409 0.3934680531
0.7816351865 0.7921944019 0.4132996054
