app/src/main/assets/spektrafilm/profiles/fujifilm_pro_400h_film.cube
# ============================================================================
# spektrafilm LUT
# Bundle:  spektrafilm_v033_pro400h_8printpack_2lut_prophoto_prophoto  (2lut, 17^3)
# Film:    fujifilm_pro_400h
# Print:   fujifilm_crystal_archive_typeii, kodak_2383, kodak_2393, kodak_ektacolor_edge, kodak_endura_premier, kodak_portra_endura, kodak_supra_endura, kodak_ultra_endura
# Input:   ProPhoto RGB  (cctf on)
# Output:  ProPhoto RGB  (cctf on)
# Created: 2026-06-02T06:13:03Z
# spektrafilm: 0.3.3
# Project: https://github.com/andreavolpato/spektrafilm
#
# Copyright (c) 2026 Andrea Volpato. Generated by spektrafilm. Licensed under CC BY-SA 4.0.
#
# License: spektrafilm LUT by Andrea Volpato, licensed under CC BY-SA 4.0.
#          Full text and attribution requirements in SPEKTRAFILM_LICENSE.txt
#          (shipped in this bundle); also at
#          https://github.com/andreavolpato/spektrafilm/blob/main/SPEKTRAFILM_LICENSE.txt.
#
# Citation: If you use this LUT in your work, please cite the spektrafilm
#           project: https://github.com/andreavolpato/spektrafilm, see
#           CITATION.cff for details.
#
# Notes: Generated by the spektrafilm LUT bundle builder. Apply with trilinear
#        or tetrahedral interpolation in your host (DaVinci Resolve, Nuke,
#        OCIO-aware DCC). The input and output color spaces are declared in
#        bundle.json; do NOT apply this LUT to a signal in a different color
#        space.
#
# Role:    film  (domain=input_rgb → range=cmy_film)
# File: lut_v033_pro400h_film.cube  (see sibling bundle.json for full metadata)
# ============================================================================
TITLE "v033_pro400h_film"
DOMAIN_MIN 0 0 0
DOMAIN_MAX 1 1 1
LUT_3D_SIZE 17
0.116177752 0.110065489 0.08867213478
0.2917649824 0.1103899353 0.08907230964
0.4833915833 0.1106781097 0.09227681818
0.5905012559 0.1119877362 0.1019711982
0.6642563992 0.1145204013 0.11890735
0.7210775762 0.1181047615 0.1405160551
0.7624549869 0.1224436458 0.164325707
0.7950071953 0.1266749733 0.1906706332
0.8221546123 0.1316885849 0.2159357213
0.846628168 0.1377750102 0.2421891845
0.8665756954 0.1436360563 0.2677891147
0.8833782972 0.1490175348 0.2886732794
0.8971798045 0.1552886838 0.3080914577
0.9105731216 0.1631582254 0.3262352485
0.9236613881 0.1718471482 0.3439227526
0.9337527652 0.1800618445 0.3602363474
0.9413968307 0.1878713754 0.373346157
0.116460187 0.3256295566 0.08870285275
0.2795982812 0.2539894176 0.08911310602
0.5081730474 0.1729733953 0.09125719499
0.6239772306 0.1487752277 0.09777170356
0.7007076437 0.1432696255 0.1105000078
0.7516249472 0.1418688704 0.1275239964
0.7888791179 0.1431894884 0.1482334203
0.8176520597 0.1453420396 0.1704030206
0.8419990987 0.1483029138 0.1957033009
0.8623732549 0.1521612108 0.2192778079
0.8797423124 0.1572106609 0.2448004707
0.8935143258 0.1630636908 0.2695021174
0.906186641 0.1699750611 0.2908607396
0.9193476898 0.1774006431 0.3111870504
0.9303117172 0.1844302928 0.3293199369
0.9384421358 0.1914164151 0.3465924623
0.9457254731 0.1990065742 0.3629893526
0.1170676362 0.5426292548 0.08915201263
0.1601544917 0.536118429 0.08941954665
0.4571081293 0.4352940723 0.09104140404
0.5854823128 0.3718155756 0.09580185923
0.6729962141 0.3172020694 0.1034986815
0.7386406398 0.2750238571 0.1152895431
0.7841966746 0.2479709531 0.1303997601
0.8188479097 0.2297479851 0.1481077221
0.8475305779 0.2203517494 0.1692511466
0.8704814027 0.2157894054 0.1953038013
0.8883916417 0.2140287331 0.2195174014
0.9026442769 0.214022369 0.2446926122
0.9169181911 0.2158761554 0.2708402837
0.9293387339 0.2192558281 0.29319463
0.9382444367 0.2237088125 0.3134753952
0.9457926333 0.2287250978 0.3320357117
0.9535767656 0.2350591543 0.3495295021
0.1184935035 0.6672000691 0.0894236664
0.1400462689 0.6707534116 0.08990320444
0.3701252555 0.5926879431 0.09155794384
0.5506360376 0.5267986052 0.09560276772
0.6469369473 0.4801482337 0.1019993434
0.7138501313 0.4419457398 0.1114892367
0.7655706826 0.4085354473 0.122819171
0.8052566046 0.3774188213 0.1371118628
0.8382100464 0.35442741 0.1531619438
0.8650481293 0.3351091652 0.1731035306
0.8857998944 0.3216748008 0.1969187243
0.9020332002 0.3122083477 0.2195992265
0.9178415793 0.3052144614 0.24517523
0.9312281821 0.3010463799 0.271792082
0.9405977931 0.2991352613 0.2940427962
0.9492092636 0.2989068375 0.3143449921
0.9576694952 0.3000800201 0.3332911923
0.1226241147 0.7505553235 0.09036091992
0.1404084694 0.7525182958 0.09087787211
0.2901170649 0.7105975781 0.09275548157
0.4935534628 0.6359062662 0.09636449242
0.6170725592 0.5871233778 0.1016953648
0.6926772102 0.5488421976 0.1104803778
0.7470812265 0.5177914351 0.1204415519
0.7882527617 0.4870567068 0.1326637827
0.8240493237 0.4631274993 0.1466483308
0.8546109072 0.4428844461 0.1634846887
0.8784821247 0.4258320726 0.1832041998
0.8968666544 0.4110915502 0.2050132613
0.9137283573 0.3983422718 0.2259927509
0.9288928419 0.3889729975 0.2509791415
0.9394367648 0.3821004347 0.2753808764
0.9486564407 0.3773569032 0.2965339023
0.9579096772 0.373878556 0.3165512731
0.1294701848 0.8100937375 0.0917081099
0.1459690843 0.8101605301 0.09240879871
0.2494129186 0.783952493 0.09454147151
0.4397128371 0.7292924529 0.09768895252
0.5739118664 0.6745292118 0.1025875275
0.6671347174 0.6321587966 0.1101317651
0.7304007 0.6018298093 0.1194851401
0.7737023564 0.569560732 0.1305492975
0.8100047218 0.5467928167 0.1433269818
0.8419192602 0.5256300603 0.1580448243
0.8681830757 0.5060741558 0.1750699888
0.889177788 0.4880789723 0.1949112703
0.9065765165 0.4739454241 0.2151018329
0.9238087879 0.4627709911 0.2362263357
0.9362583281 0.4531684773 0.2601320396
0.9458983813 0.4451530346 0.2816368072
0.9557556514 0.4388172023 0.3012432234
0.1384002779 0.8497826067 0.09411040417
0.1547638543 0.848917241 0.09484013032
0.2306402994 0.8333132823 0.09661429569
0.3910688413 0.7936450416 0.09945351657
0.5310450933 0.7458130932 0.1042930219
0.6347555022 0.7054209455 0.1109613252
0.7102677975 0.6701678555 0.1187660278
0.7598652271 0.6395489316 0.1296922772
0.798422393 0.6162069173 0.1419666571
0.8302513017 0.5953434122 0.1555242125
0.8578801707 0.5733976519 0.1709888201
0.8806892681 0.5565761137 0.1892638853
0.8990664028 0.5415547919 0.2087863172
0.9166818172 0.5281047054 0.2276355696
0.9317526793 0.5162661942 0.2496808208
0.9422158612 0.5056277523 0.271629806
0.9523451914 0.4964560062 0.2908208591
0.1491664348 0.8805445147 0.09692020925
0.1646550902 0.8785979834 0.09750962213
0.2261227577 0.867493422 0.09894832082
0.3588589628 0.8392026211 0.1017616323
0.4866812019 0.8018677094 0.1065574984
0.5962379872 0.7620687862 0.1130149653
0.6804954647 0.7298799099 0.1196735548
0.743324487 0.7015855652 0.1292853393
0.7856206598 0.6754655323 0.1412153028
0.8198071997 0.6543104419 0.1538756709
0.8484534183 0.6324143854 0.1682511026
0.8718506023 0.6159761894 0.1848354275
0.891605581 0.6011824317 0.2037930635
0.9087366424 0.5840581872 0.2214627204
0.9258200225 0.5703971177 0.2414389689
0.9378213279 0.5598777985 0.2631962308
0.9479487979 0.5501844006 0.2826009128
0.1612408268 0.8987397583 0.09993270618
0.1764622951 0.8973416197 0.1006239941
0.2284817441 0.8906078397 0.1020902545
0.3370323228 0.8731172321 0.104735064
0.4559278545 0.8431263691 0.1091100473
0.5589316136 0.8104696381 0.1149647731
0.6495145208 0.7766637265 0.1215211701
0.7207664692 0.7486724049 0.1299045155
0.7707616228 0.7267546415 0.1401861017
0.8083892432 0.705927274 0.1527700207
0.8392635269 0.6853590716 0.1669198326
0.86433151 0.6683307482 0.1829234647
0.8850656979 0.6530894001 0.2014122013
0.9020034212 0.6363629526 0.2184149973
0.9190281763 0.6228911953 0.236874311
0.9333471571 0.6125256287 0.2576665899
0.9435187943 0.6016060012 0.2767188065
0.1743595484 0.9133383144 0.1037654441
0.1900406385 0.9119711437 0.1044841536
0.2341197356 0.9064410104 0.1057215102
0.3241805227 0.8941678489 0.1080141609
0.4315951641 0.8752465922 0.1121128131
0.5300916849 0.8471003036 0.1172869388
0.6165627949 0.8189853407 0.1237301756
0.6930078574 0.7914329821 0.1320458055
0.7521604883 0.7663783275 0.1408958036
0.7953367031 0.7470606115 0.1520537069
0.828625185 0.730555162 0.1660022057
0.8563902041 0.7146386292 0.1814616471
0.8786273991 0.698477453 0.1992969292
0.8960497237 0.6832414958 0.2156131028
0.9123332145 0.6701496648 0.2322977708
0.927936181 0.6579936437 0.2522982992
0.9391879357 0.6454155303 0.2714488967
0.1891869215 0.9246499209 0.1081383587
0.2029299327 0.9231781262 0.1087116863
0.2424234256 0.9192562177 0.109621842
0.3179039634 0.9100264461 0.1116492971
0.411890275 0.8961688735 0.1151375104
0.5016567434 0.8780370333 0.1200908758
0.587666171 0.8520039338 0.1266293201
0.6635460112 0.8274774171 0.1343552985
0.7294435268 0.8044472404 0.1428497805
0.7785926225 0.7834597678 0.1522236948
0.8166968979 0.7652503005 0.1647854849
0.8471723103 0.7502021952 0.1804638362
0.8715388938 0.7370558398 0.1980337694
0.8907310626 0.7246958112 0.214293386
0.9066924529 0.7121998211 0.2304488781
0.9228243999 0.6995549152 0.2494331641
0.9352528769 0.6872701271 0.2683084621
0.2032885526 0.9328309949 0.1125028021
0.2148864598 0.9317828722 0.1130791103
0.2523101449 0.9291244435 0.1137735231
0.3171547768 0.9226407218 0.1157654106
0.3981803013 0.9120291315 0.1188533009
0.4808600794 0.8977595499 0.1237758521
0.5615043784 0.8805560778 0.1301536703
0.6390148894 0.857930112 0.1375741241
0.7062978175 0.8366033863 0.1456710998
0.7593996621 0.8164906948 0.1543320971
0.8024428251 0.7989938003 0.1650980991
0.8366145227 0.783696116 0.1795194478
0.8633105649 0.7690669374 0.1968414683
0.8845902555 0.7561460638 0.2129914663
0.9012968579 0.7447242894 0.2286794109
0.917517381 0.7343684491 0.2468204338
0.9313728768 0.7245880384 0.265354709
0.2163899306 0.9392390449 0.1169870806
0.2281081243 0.9385083654 0.1175942778
0.2625812888 0.9363041255 0.1181636658
0.3191311871 0.9319148403 0.1200483088
0.3896076747 0.9245322768 0.12277231
0.4660306515 0.9135064591 0.1275467173
0.5415628931 0.8989902961 0.1335721948
0.6133854312 0.8834641594 0.1407773443
0.6805048277 0.8643089855 0.1486622916
0.7388640837 0.8443987903 0.1573527245
0.7852252702 0.8281400172 0.1676778629
0.823973919 0.8136470659 0.1802501836
0.8543923797 0.8002395158 0.1962747095
0.8776725189 0.7875431317 0.2125674378
0.8957875257 0.7749696796 0.2280656081
0.9121828484 0.7636331949 0.2456955538
0.9274136004 0.7536435813 0.2638311065
0.2305950362 0.9451186437 0.1219054285
0.2428456167 0.9443057986 0.1224079234
0.2724640524 0.9422477934 0.1229663623
0.3227911451 0.9386969222 0.1246459864
0.384413665 0.9335828709 0.1270783884
0.4547863886 0.9256823042 0.1320274878
0.5248835062 0.9141531966 0.1376637454
0.5924957047 0.9008618081 0.1445309066
0.6580395139 0.8864595398 0.1519594036
0.7185340065 0.8704467591 0.1606171718
0.7675686888 0.8531280595 0.1706547076
0.808909713 0.839099411 0.1831421837
0.8434943871 0.8265191297 0.1968455032
0.8698005641 0.8147847317 0.2121030148
0.8899236301 0.8034942523 0.2277102032
0.9064793959 0.792750936 0.2452390471
0.9228972414 0.7824337558 0.2631856112
0.2460266723 0.950138024 0.127018178
0.2569849344 0.9493825349 0.1274821767
0.282472918 0.9476065156 0.1281707594
0.3277244018 0.9446637757 0.1295371752
0.3826012674 0.9401765558 0.1322650262
0.4463915955 0.9344744399 0.1364662916
0.5088039679 0.9263602116 0.1416576872
0.5733408376 0.9157498347 0.1482231498
0.6385491012 0.902688794 0.1556647479
0.6982548989 0.8898347257 0.1645192265
0.7495066949 0.8764250841 0.1743454236
0.7927322335 0.86222026 0.1864609595
0.8296194846 0.8490149586 0.1996312172
0.8603547081 0.8378292355 0.2123372151
0.8832760288 0.8276671204 0.2271471914
0.9006580048 0.8177024174 0.2446862172
0.9175176486 0.8082632699 0.2627682818
0.2603358718 0.9542540333 0.1322991968
0.2693963724 0.9536981328 0.1328040101
0.2933108946 0.952304627 0.1336189336
0.3337466538 0.9502220352 0.1346691741
0.3825200041 0.9462653719 0.1374345151
0.4404980726 0.9414003231 0.1410300664
0.4961047251 0.9352662839 0.1458596777
0.5578138754 0.9274391028 0.1526646784
0.6189691635 0.9166586664 0.1597860327
0.6768678621 0.9049025912 0.1681873995
0.7311699127 0.8931315074 0.1779637832
0.7761955479 0.8822796745 0.190117178
0.8151993017 0.8708316245 0.2025178314
0.848351762 0.8586181015 0.2144437418
0.8750725651 0.8480284953 0.2270790549
0.8945693244 0.8388355276 0.2437391881
0.9115364596 0.8304319384 0.2620447081
0.2730949464 0.9575908662 0.1377251322
0.2814342783 0.9571834676 0.1382076796
0.3048986585 0.9561766035 0.1390511325
0.3405621223 0.954826241 0.1399144778
0.3839344237 0.9517275874 0.1426899212
0.4364887508 0.947834268 0.1456365744
0.4874461328 0.9422447953 0.1511360205
0.5459705877 0.9358559592 0.1573109807
0.6025666999 0.9280489261 0.1639226108
0.6591078338 0.9180854998 0.172461398
0.7140045915 0.9074657242 0.1824914221
0.7601967446 0.8970838835 0.1939396868
0.8003801087 0.8876011335 0.2059612741
0.8351966035 0.8779893344 0.2170392446
0.8645634944 0.8679186543 0.2292109123
0.8876938356 0.8579708905 0.2434467499
0.9052821642 0.8492779281 0.2610439002
0.116177752 0.1113591127 0.2678587146
0.291026734 0.1106772005 0.2597483787
0.4759502734 0.110858772 0.3288202634
0.5736437505 0.1118320181 0.3388466029
0.6461051302 0.114024417 0.3271606944
0.7046468043 0.1163441214 0.3192417471
0.74935265 0.1201128754 0.3162593358
0.7829901816 0.1243964003 0.3149654277
0.8118559184 0.1291043208 0.3187180166
0.8367660487 0.1346216051 0.3264398907
0.8587410294 0.1408345691 0.3347208025
0.8779124826 0.1461868785 0.345240723
0.8938212394 0.1517472056 0.3581408545
0.9072880991 0.1593454819 0.3691047062
0.9202711081 0.1685913857 0.3787522205
0.9309513899 0.1770646196 0.3872811232
0.9388958477 0.1847495787 0.3953954531
0.1167136207 0.2776756927 0.228623215
0.2565945405 0.2406724628 0.1983070355
0.4952862361 0.1569991589 0.1857085028
0.6135594901 0.1340999403 0.1955898232
0.6881608698 0.1290536452 0.2057043005
0.7400982462 0.1291930517 0.2170992539
0.7783870874 0.1314866628 0.2303886471
0.8077086161 0.1356871886 0.2478346702
0.8328761478 0.1408277495 0.2676491503
0.854554429 0.1456066854 0.2838972775
0.8730520832 0.1507254173 0.3005713397
0.8885111442 0.1557051666 0.313539979
0.9019751134 0.1627084578 0.3295346935
0.9154209296 0.1717165851 0.3478662971
0.9272535405 0.1800936961 0.3632166576
0.9359172598 0.187664531 0.3748943618
0.9431373996 0.195320145 0.384917571
0.1173804604 0.5274312774 0.139582896
0.1783820014 0.5069977412 0.15261058
0.4525787891 0.4175230736 0.1352865843
0.5777627249 0.3512515054 0.1353508178
0.6683651952 0.2909385428 0.1433485663
0.7346638282 0.2492556592 0.1557009207
0.7803252195 0.223314656 0.1725108313
0.8156528656 0.211528916 0.1940286171
0.8449370709 0.2054226456 0.2157441453
0.8682161787 0.2025755382 0.2385703342
0.886543921 0.2017156141 0.2627501498
0.901050175 0.2034320674 0.2838876195
0.9152438595 0.206507937 0.3031664777
0.9276070094 0.2106048602 0.3208251932
0.9366249164 0.215607136 0.3376229481
0.9441829422 0.2215526692 0.3545735332
0.9519118871 0.2277786774 0.3691966189
0.1200551925 0.6611580972 0.1099788029
0.1526935169 0.6519416358 0.1217160656
0.3815981182 0.5707644008 0.1221386162
0.5476771312 0.5118496986 0.1231351003
0.6399968273 0.4682242507 0.1302864666
0.7095803301 0.4291256008 0.1394560814
0.7622208928 0.3924019183 0.1512636572
0.8029561055 0.3638621385 0.166304661
0.8364942603 0.3389748621 0.1857804888
0.8635949444 0.321456358 0.2078512436
0.8844976558 0.3088925654 0.2282167821
0.9010404663 0.300290691 0.2528617826
0.9171505536 0.2937543788 0.2770869513
0.9306030813 0.290050449 0.2976792015
0.9400826151 0.28872274 0.3168477923
0.9485885415 0.2891806955 0.3349406689
0.9570857725 0.2911164953 0.3526360256
0.1243943788 0.7469059191 0.1027410613
0.1480963188 0.7424716288 0.1095492529
0.3086887124 0.6901763327 0.1151238114
0.4971204936 0.6213747253 0.1182688331
0.6139110674 0.5741114851 0.1241622724
0.6869438451 0.5395266849 0.133279109
0.7426470336 0.5085182026 0.1437799871
0.7857720778 0.4786829657 0.1561507951
0.8224507854 0.4552513306 0.1716010542
0.8533675135 0.4349682148 0.1907094441
0.8773408121 0.4176940663 0.2101369155
0.8961122483 0.4029028819 0.2299515046
0.9131115859 0.3909790712 0.2541866222
0.9284167237 0.3819419767 0.2766387013
0.9390440261 0.3760180647 0.2966079874
0.9482716452 0.3713730142 0.3157162866
0.9575123188 0.3678892568 0.334040603
0.131760431 0.8059412881 0.1024590249
0.1516627504 0.8023518155 0.1063039658
0.2635395122 0.7695106862 0.1120154587
0.4455009618 0.7158707798 0.1161618106
0.5744966918 0.6638215358 0.1217447585
0.6646484208 0.6227140844 0.1295136241
0.7267223816 0.5928294511 0.1397684382
0.7706696348 0.5641102383 0.1508986215
0.8079867356 0.5412854835 0.1645184372
0.8403724524 0.5199602048 0.1804510399
0.8670114024 0.5000019895 0.1988753251
0.888562356 0.4828601601 0.2170824692
0.9061935536 0.4693635137 0.2372483655
0.923397104 0.458042756 0.2600852618
0.9359593514 0.4485675901 0.2807544092
0.9455860685 0.4406958633 0.2994067292
0.955454611 0.4345635105 0.3174316939
0.1401362231 0.8460422479 0.1038893433
0.1585238988 0.8431426253 0.1064627544
0.2411761504 0.823828974 0.1112453169
0.3979501056 0.7811596054 0.1154819767
0.5332700658 0.736233606 0.1210660095
0.6338957393 0.6952919082 0.1277547799
0.7080574392 0.6629027551 0.1368175281
0.7576424051 0.6333504894 0.1478720736
0.7960854272 0.6123224912 0.1606748288
0.8282390398 0.5899882292 0.1753591251
0.8565315003 0.5692235226 0.1925074315
0.8799839786 0.5529589463 0.2102899648
0.8986328362 0.5380072471 0.2279653185
0.9162533403 0.5245446902 0.2485173653
0.9314626893 0.5126782599 0.2695494214
0.9420090287 0.5019381837 0.2881145269
0.9521133129 0.4928013411 0.3058077808
0.1508004509 0.8771123653 0.1064292627
0.1673705693 0.8740435894 0.1083100687
0.2326712024 0.8595691807 0.1120074679
0.3650121822 0.8306255768 0.1157639143
0.4904243036 0.7931358759 0.1215198438
0.5966777667 0.7540273739 0.1282934386
0.6796085392 0.7233704795 0.1361080487
0.7418893825 0.695536881 0.1458445764
0.7840125353 0.6712929813 0.1582168839
0.8179260495 0.6500664025 0.1716350095
0.8468589631 0.6289916101 0.1876103686
0.8709397708 0.6136060941 0.204811343
0.8910653109 0.5979944109 0.2213884169
0.9082389827 0.5809791016 0.2398131693
0.9255167409 0.5678344866 0.2604253436
0.9376016327 0.5572436083 0.2792468581
0.9477463655 0.5475585857 0.2965886944
0.1623496085 0.8960948751 0.1095534276
0.1786257701 0.8941552083 0.1111116808
0.2324409118 0.8859771403 0.1137338155
0.3422950455 0.8657294194 0.1173399843
0.4594078074 0.8363923391 0.1224490132
0.5603298543 0.8032737494 0.1291265499
0.649769356 0.7704566166 0.1367470455
0.7202020186 0.7441669138 0.1450778515
0.7697181684 0.7227151108 0.1556042054
0.8069955945 0.7017623303 0.1689917676
0.8379253021 0.6822284271 0.1846380075
0.8633479861 0.6661336945 0.2017607469
0.8843131241 0.6506701179 0.217884853
0.9014070659 0.6339954019 0.2350324581
0.918560524 0.6209767482 0.2548258733
0.9330932083 0.6103023859 0.2734404295
0.9433246101 0.5991745544 0.2901692131
0.1750768018 0.9109221801 0.1129368972
0.1912814777 0.9089880505 0.1141468979
0.2370351384 0.9026277245 0.1160221488
0.3282669465 0.8899376125 0.1191298603
0.4347674185 0.8695143181 0.1240509687
0.5317098512 0.8411407563 0.1304723845
0.617558538 0.8137346372 0.1380518873
0.6932663174 0.7870166237 0.1460740315
0.7515894997 0.7623482915 0.1551173208
0.7942980172 0.74374919 0.1671108783
0.8277923175 0.7281033918 0.1823989141
0.8556119421 0.7123619751 0.1992855049
0.8778187219 0.6962790404 0.2149759753
0.895388486 0.6812316447 0.2306942571
0.9117278385 0.6684005792 0.2492552166
0.9275507488 0.6560301771 0.267926073
0.9389486178 0.6432230025 0.2845205526
0.1894925925 0.9225958032 0.1164382347
0.2036364168 0.9207372587 0.1173808906
0.2449684261 0.9162038932 0.1191862305
0.3217015653 0.9064201112 0.1221915245
0.4148761325 0.8920784985 0.1265679862
0.5037389562 0.8731900509 0.1326872068
0.5890089557 0.8476628181 0.1397827922
0.6641465332 0.8236181077 0.1474647697
0.7291638258 0.8007835022 0.1562476134
0.7780283309 0.7799430551 0.1662461763
0.8161790599 0.7627152144 0.1800975677
0.8466373708 0.748306038 0.1971524919
0.8708745244 0.7353590585 0.2129894268
0.8901261858 0.7230661076 0.228452549
0.9060859618 0.710510438 0.2462303018
0.9222531126 0.6978151645 0.2645837286
0.9349607183 0.6857010277 0.2809724198
0.2036004747 0.9313235146 0.1204322865
0.2155944796 0.9302051859 0.1214278948
0.2544048819 0.9269611643 0.1230534925
0.3196117206 0.9197914122 0.1258327586
0.4004409942 0.9086219995 0.1298865989
0.4826442128 0.8945665207 0.1358316012
0.5630663608 0.8771104655 0.1424971834
0.6399650345 0.8543296737 0.1499875632
0.7064901356 0.8334645153 0.1585400128
0.7592265269 0.8135815669 0.1677564636
0.8023083553 0.7967276229 0.1795445997
0.8362324337 0.7816172637 0.1952882071
0.8628645499 0.7672308864 0.2111770158
0.88411258 0.7546369491 0.2263765593
0.9007725095 0.7433822306 0.243352768
0.9169537587 0.7331457166 0.2612753681
0.9309717525 0.723383633 0.2776320018
0.2167294452 0.9381203873 0.1251843629
0.2286527943 0.9372639693 0.1261103127
0.2638716178 0.9346239269 0.1274708563
0.3205623176 0.9298704629 0.1297200066
0.3912014905 0.9220661842 0.1332930212
0.4677808301 0.9109441246 0.1387732792
0.5430750087 0.8965485227 0.1450268709
0.6145736716 0.881016052 0.1525734263
0.6810224923 0.8612320919 0.1609865658
0.7390799212 0.8419706309 0.1701337249
0.7853306173 0.8261946351 0.1816088086
0.8238541812 0.8118310507 0.1952149262
0.8540528103 0.7985586097 0.2100720833
0.8773167437 0.7859737411 0.2253157622
0.8954071803 0.7735396377 0.2419813732
0.9117103007 0.7623610126 0.259546872
0.9270606184 0.7526262419 0.2757901332
0.2305905279 0.9439201689 0.1301683562
0.2429804907 0.9429952849 0.1308440628
0.2731640507 0.9407126963 0.1320769229
0.3237271447 0.9372031316 0.1338551465
0.3861475718 0.9317260515 0.1373006607
0.4565195058 0.9237026045 0.1425853914
0.5264622165 0.9120123484 0.1485101486
0.5936048058 0.8987054906 0.1559280846
0.6586230649 0.8843002328 0.1638844076
0.718991995 0.868060007 0.1732597822
0.7678824076 0.8512707272 0.1845702069
0.8089838668 0.8375134658 0.1973736277
0.8433455343 0.8249719955 0.2099049425
0.8695182008 0.813356521 0.2243070404
0.8896342716 0.8021832289 0.2409558377
0.9061585104 0.791558599 0.2585869863
0.9225596587 0.7813909632 0.2748152175
0.2458006106 0.949006882 0.1349214051
0.2569912006 0.9482031867 0.1355176607
0.2829342711 0.9463090963 0.1366704805
0.3286016837 0.9433887201 0.1382350906
0.3839899023 0.9387905635 0.1416633368
0.4479034975 0.9331311657 0.1463242808
0.5103794664 0.924663346 0.15187358
0.5744568112 0.9138105972 0.1591227755
0.6393075271 0.9007829288 0.1671311721
0.6990118344 0.8883244852 0.1768932141
0.7499976147 0.8748851427 0.1877986985
0.7929340625 0.8605972355 0.1999024343
0.829614165 0.8476104037 0.2118584188
0.8602342685 0.8365733173 0.2239241112
0.8830398741 0.8264472487 0.2397899451
0.9004348933 0.816605688 0.2575650858
0.9172879256 0.8073421548 0.2740549219
0.2602121222 0.9534025713 0.1396840938
0.2694717344 0.9528184952 0.1403214049
0.2937225127 0.9513661132 0.1414547301
0.3346533264 0.9491028551 0.1430728289
0.3837255527 0.9450635287 0.1462005025
0.4417422137 0.9402835471 0.1504084075
0.497450666 0.9339912388 0.156100486
0.5588249634 0.9258670238 0.1633851505
0.6199031099 0.9151148273 0.1708454262
0.6777982776 0.9036026603 0.180413826
0.731753447 0.8919455751 0.1910638648
0.7765173175 0.8810974259 0.2027755354
0.8152637579 0.8694334553 0.2140772294
0.8483259187 0.8573325864 0.2256311805
0.8749504233 0.8469123122 0.2390684004
0.8943978619 0.8378628128 0.2562011475
0.9113858305 0.8295945031 0.2730696052
0.2730528252 0.9569916805 0.144883382
0.2815508246 0.956558664 0.1454449999
0.3053268954 0.9555191566 0.1466049681
0.3416679967 0.9539141965 0.1483725613
0.3848324992 0.9508354715 0.1511806906
0.437776545 0.9467504184 0.1550084431
0.4885545115 0.9410975358 0.1609555737
0.5468333079 0.9347628279 0.1675332909
0.6035361198 0.9268395692 0.1749073886
0.660024189 0.9169705356 0.1846501875
0.7146308398 0.906314595 0.1951085024
0.7606333086 0.8960236859 0.2058589648
