app/src/main/assets/spektrafilm/profiles/fujifilm_c200_film.cube
# ============================================================================
# spektrafilm LUT
# Bundle:  spektrafilm_v033_c200_8printpack_2lut_prophoto_prophoto  (2lut, 17^3)
# Film:    fujifilm_c200
# Print:   fujifilm_crystal_archive_typeii, kodak_2383, kodak_2393, kodak_ektacolor_edge, kodak_endura_premier, kodak_portra_endura, kodak_supra_endura, kodak_ultra_endura
# Input:   ProPhoto RGB  (cctf on)
# Output:  ProPhoto RGB  (cctf on)
# Created: 2026-06-02T06:13:02Z
# spektrafilm: 0.3.3
# Project: https://github.com/andreavolpato/spektrafilm
#
# Copyright (c) 2026 Andrea Volpato. Generated by spektrafilm. Licensed under CC BY-SA 4.0.
#
# License: spektrafilm LUT by Andrea Volpato, licensed under CC BY-SA 4.0.
#          Full text and attribution requirements in SPEKTRAFILM_LICENSE.txt
#          (shipped in this bundle); also at
#          https://github.com/andreavolpato/spektrafilm/blob/main/SPEKTRAFILM_LICENSE.txt.
#
# Citation: If you use this LUT in your work, please cite the spektrafilm
#           project: https://github.com/andreavolpato/spektrafilm, see
#           CITATION.cff for details.
#
# Notes: Generated by the spektrafilm LUT bundle builder. Apply with trilinear
#        or tetrahedral interpolation in your host (DaVinci Resolve, Nuke,
#        OCIO-aware DCC). The input and output color spaces are declared in
#        bundle.json; do NOT apply this LUT to a signal in a different color
#        space.
#
# Role:    film  (domain=input_rgb → range=cmy_film)
# File: lut_v033_c200_film.cube  (see sibling bundle.json for full metadata)
# ============================================================================
TITLE "v033_c200_film"
DOMAIN_MIN 0 0 0
DOMAIN_MAX 1 1 1
LUT_3D_SIZE 17
0.1031299954 0.09408665381 0.08034709947
0.3819303212 0.09443443859 0.08113456549
0.5691320018 0.0948191707 0.08466754869
0.6910819558 0.09574969178 0.09547829948
0.7713019834 0.09752773118 0.1116004896
0.8213956526 0.09917244584 0.1328862021
0.8557421508 0.1020387516 0.1581951779
0.8809985559 0.1045382418 0.1832502872
0.8989013593 0.1073424816 0.2090717828
0.9120908095 0.1107353888 0.2373219795
0.9239334942 0.1143355051 0.2605697237
0.9319621538 0.1177513492 0.2826822413
0.9381615151 0.120878515 0.3046788766
0.9443981681 0.1247758258 0.3272854043
0.9488369759 0.1294868389 0.3468836157
0.9522685701 0.1343963486 0.3633453288
0.9558827012 0.139316995 0.3807266448
0.1048347633 0.2134688446 0.08062499777
0.3125208965 0.1853525431 0.08074498703
0.5312406832 0.1406728877 0.0813154093
0.6745916476 0.122893849 0.08297787943
0.7662540126 0.1188181374 0.0865893009
0.8225956189 0.1178779452 0.09360375989
0.8595395008 0.1182564411 0.1049170959
0.8848638746 0.119246151 0.1226032973
0.9021600058 0.1207410297 0.1430634752
0.9150271443 0.1225479414 0.1685717496
0.9266947793 0.1251328976 0.1936704225
0.933664532 0.1282564798 0.2206248788
0.9400059058 0.1319840201 0.2491409383
0.9457180186 0.1358903952 0.2728644873
0.9496594223 0.1397960904 0.2968528774
0.9531878504 0.1438364285 0.3209579064
0.9567494016 0.1479878901 0.343212332
0.1148934782 0.4415317969 0.08074238768
0.2204206888 0.4450670144 0.08089523255
0.4664116049 0.3489683512 0.08140008947
0.6174855416 0.2887727075 0.08283986015
0.723947249 0.2421318731 0.08478320706
0.795105698 0.2116380042 0.08849123733
0.8410627054 0.1936557246 0.09313040957
0.8739267072 0.1817478695 0.09916164803
0.8962050626 0.1744906583 0.1070017225
0.9115706451 0.170620535 0.1184992964
0.9248715963 0.1684494065 0.131608859
0.9330411058 0.1674733525 0.1487195411
0.9399658003 0.1677736666 0.1701682392
0.9460746141 0.1685928976 0.1918251318
0.9500320502 0.1699566097 0.2160965852
0.9536325856 0.1718537073 0.2435457621
0.9572613311 0.1743196362 0.2675270591
0.1336588639 0.5716413652 0.08089656135
0.1961271813 0.5820448273 0.08124134782
0.3977124795 0.5177450116 0.08169858772
0.568599765 0.4565097169 0.08305718852
0.684642435 0.4084024552 0.08478900859
0.763006061 0.366414315 0.08777814618
0.8172513897 0.3306930218 0.09109186285
0.8552364293 0.2994782901 0.09575424203
0.8832224306 0.2781212111 0.1007532075
0.90252272 0.2606787044 0.1073283464
0.9172274257 0.249297271 0.1157687645
0.9290137116 0.2411407463 0.1255836035
0.9364694124 0.235006772 0.1354815252
0.9436807128 0.2308382397 0.149871026
0.9488163106 0.228048737 0.1663556301
0.9527224566 0.2264903989 0.1830334069
0.9566080346 0.2256028744 0.2020643793
0.1562847916 0.6680063227 0.08129914279
0.2002950239 0.6735955658 0.08139684411
0.348276969 0.6406657745 0.08224710719
0.5114260787 0.5761409356 0.08340629625
0.6435634101 0.5276345386 0.08528653241
0.7344703147 0.486998223 0.08801696145
0.7947950508 0.4552899181 0.09082053792
0.8362743824 0.4226234295 0.0946797227
0.8686221844 0.3946086891 0.09890467712
0.8920745517 0.3719238135 0.1041040329
0.9081618862 0.3523673832 0.1104031117
0.9223173204 0.3359288024 0.1181253712
0.9319967844 0.3215684945 0.126560581
0.9394114019 0.3111880559 0.1351281123
0.9461694836 0.3036754962 0.1466416668
0.9505627181 0.2980948692 0.1602329742
0.9546832382 0.2938660037 0.1737355869
0.1790563753 0.7368653871 0.08170568837
0.2127774766 0.740402097 0.08205404338
0.3220019295 0.7239757027 0.08288116604
0.4696382998 0.6772208681 0.08398260091
0.5991639225 0.6242288787 0.08612133911
0.7015659959 0.5811777838 0.08860076386
0.7727500417 0.5457541936 0.09128844293
0.8190129357 0.516128762 0.09471373802
0.8535726378 0.4893745686 0.09840327417
0.880474123 0.4675627656 0.1028004058
0.8995690684 0.4463410188 0.1080664038
0.9138799458 0.4264385116 0.11433366
0.926838847 0.4088798867 0.1220323294
0.9347572215 0.3951421622 0.1297260559
0.9422600614 0.3837204924 0.1378846699
0.9479525792 0.3741082619 0.1484833837
0.9521366797 0.3662031471 0.1606187462
0.2026458233 0.788968335 0.08262255378
0.2296833663 0.790285423 0.08287784303
0.3127202111 0.7823591522 0.08345108558
0.4347375135 0.7521953501 0.08480575364
0.5618857928 0.7047055716 0.08708236013
0.6680144004 0.6628446123 0.08928957816
0.747802895 0.6239971108 0.09185871518
0.8013162165 0.5930949885 0.09521141548
0.8398381587 0.5654547974 0.0985712701
0.8690526521 0.5433212594 0.1025320088
0.8906749967 0.5238475885 0.1072619297
0.9062445943 0.5017162986 0.1128597059
0.9201750088 0.4856217434 0.1198104902
0.9306590887 0.4713600333 0.1270287857
0.9378510879 0.4582528511 0.1340701872
0.9448722831 0.4465042979 0.1427066295
0.9497160763 0.4363130393 0.1535416797
0.2243961526 0.8290831321 0.08335239712
0.2486590375 0.830810677 0.08364703562
0.3125744054 0.8259854298 0.08441346413
0.4127983732 0.8053367738 0.08601513393
0.5255752397 0.7725362343 0.08814925959
0.6329013971 0.7309812375 0.09026848752
0.7180616632 0.6907145537 0.09287568039
0.7823629625 0.6621177248 0.09598175529
0.8250566445 0.6355828127 0.09917822574
0.8573656503 0.6098585082 0.1028144535
0.8815269853 0.5889671935 0.1070735469
0.8991053748 0.5677045184 0.1121422551
0.912852931 0.5493807186 0.1183794972
0.925580036 0.5356249432 0.1250352962
0.9336656772 0.521126961 0.1314653809
0.9409002169 0.5058639836 0.1387251007
0.9470234658 0.4945084283 0.1480466355
0.2469781516 0.8584309524 0.08439177388
0.2645983186 0.858193707 0.08480270703
0.3167980726 0.8558185422 0.08574162576
0.4004609397 0.845272668 0.08730876677
0.4989942092 0.8203060097 0.08908476544
0.6002634628 0.7857187276 0.09122064205
0.6893718616 0.749827067 0.09393066789
0.7596044864 0.7162418175 0.09667572465
0.8083856646 0.6881986917 0.09952954179
0.8439073142 0.6671818374 0.103023165
0.871645905 0.6475078781 0.1070781978
0.8918033429 0.6270909283 0.1118759851
0.9064500197 0.6088764345 0.1177101743
0.9194979967 0.5931431048 0.1240284666
0.9298455326 0.57801764 0.1301447966
0.9369171443 0.5629751678 0.1367373475
0.9439274971 0.5501064929 0.1450945497
0.2651119836 0.879171433 0.08586332402
0.2803778154 0.8794849393 0.08639151847
0.3236639918 0.8776641023 0.08724725993
0.3939439617 0.8706640202 0.08853550374
0.4803111299 0.8554463796 0.09020799194
0.5735440853 0.8293048585 0.09235105687
0.6617532898 0.7967847034 0.0949925909
0.7352688545 0.7670575148 0.09759434546
0.7902521587 0.738575873 0.1002150272
0.8302397901 0.7136647906 0.1035040939
0.8604451857 0.6934044943 0.107535821
0.883685735 0.6766832317 0.1121838304
0.9005009337 0.6616332236 0.1176315838
0.9133875395 0.6465421489 0.123434177
0.9253937488 0.6308234433 0.1291027073
0.9332261591 0.6153911247 0.1349163472
0.9401589951 0.6022610647 0.1421501955
0.2824657277 0.8975944264 0.08754849556
0.2975199325 0.897384401 0.08796578584
0.3320147365 0.8959541577 0.0885507113
0.391767853 0.8911203018 0.08969609068
0.4666534269 0.8790771689 0.09139375089
0.5520434414 0.8603638812 0.09356736639
0.6353526745 0.8369967918 0.09604973393
0.7085573923 0.8069709313 0.0984189375
0.7700940054 0.7810471719 0.1010491741
0.8143280164 0.7566821769 0.1039806281
0.8481629661 0.7365805894 0.1077635284
0.8744076168 0.7187093711 0.1123868781
0.8936075364 0.7018999238 0.1175511051
0.9075788156 0.687356323 0.1230925166
0.9201890057 0.674492504 0.1284772139
0.929850909 0.6627347913 0.1339831569
0.9365693629 0.6513278985 0.1407009306
0.300747615 0.911776195 0.08896898519
0.3127896472 0.9115181285 0.0893393624
0.3421303005 0.9108592633 0.08990514737
0.3931056361 0.9075659829 0.09133817793
0.4579511868 0.8987434945 0.0930559233
0.5324153685 0.8842109483 0.09514351741
0.6131666796 0.8654062592 0.09732956805
0.6875599709 0.8439758 0.09956654804
0.7505966678 0.8178563417 0.1021519829
0.7978148003 0.7934922831 0.1049068291
0.8351893015 0.7741577901 0.1083779235
0.864297907 0.7572612619 0.1127588822
0.8857273057 0.7415733149 0.1177769074
0.9017589094 0.7267221832 0.1230973219
0.9144165228 0.7121859901 0.1281754038
0.9260618266 0.6992587937 0.1333524595
0.93337813 0.6879307661 0.139498802
0.3164096097 0.9231235917 0.09053877626
0.3260606652 0.9229918939 0.09096391583
0.3532490371 0.9224251215 0.09169425666
0.396277463 0.9200249502 0.09314758098
0.4525460074 0.9143485891 0.09466837816
0.5177937886 0.9041490725 0.09656051991
0.5933173926 0.8884164526 0.09854461521
0.6669844424 0.8692129626 0.1006998543
0.7300435398 0.8497257921 0.1031971639
0.78097597 0.8277455488 0.1059897843
0.820996547 0.8067697555 0.109407301
0.8529747816 0.7899931871 0.1134449978
0.8774837069 0.7752759893 0.1182497513
0.8954914622 0.7617097913 0.1235033201
0.9087911089 0.748683697 0.1283933891
0.9213139376 0.7364045901 0.1333454788
0.9305147652 0.7248093168 0.1392744189
0.3301423187 0.9330292331 0.09245002203
0.3393324614 0.9327824979 0.09292648631
0.3639829097 0.9322618452 0.09369747416
0.4006338976 0.930193174 0.09493351955
0.4497683377 0.9259766941 0.09620457414
0.5084209002 0.9186126242 0.09810402157
0.578152726 0.9069038004 0.09999595453
0.6466257564 0.8904843937 0.1020721505
0.7087783652 0.8722528345 0.1044133074
0.7642514917 0.8550690604 0.1072045838
0.8067506925 0.8379950273 0.1105626609
0.8406326463 0.8199416678 0.1144890434
0.8682173538 0.8037908422 0.1188810545
0.8885164755 0.7909634628 0.1238677752
0.9033698715 0.7792745034 0.1286828825
0.9158119135 0.7680776056 0.133537261
0.9270983085 0.7575808421 0.1393344975
0.3442800439 0.9421873732 0.09444399527
0.3530161847 0.9419942663 0.09489974
0.3742356182 0.9416386023 0.09568300352
0.4055113666 0.9397682408 0.09660132214
0.4497487301 0.935983499 0.09796044205
0.5022449244 0.9298269207 0.09963952263
0.5664179528 0.9205024327 0.1013758709
0.6297462942 0.9081144572 0.1032533325
0.6916092719 0.8922126695 0.1055858618
0.748216875 0.8761509661 0.1085158575
0.7924736047 0.8606815697 0.1117401876
0.8281465682 0.846640861 0.1155631037
0.8572932069 0.8321754995 0.1198836065
0.8806136991 0.8172406269 0.1242944707
0.8976787742 0.8050516369 0.1289088438
0.9103522924 0.7946110359 0.1337356416
0.9226165515 0.785435041 0.1395429217
0.3581790272 0.9503328403 0.09636509166
0.3656671351 0.9502290463 0.09679712677
0.3841409838 0.9497681849 0.09753737377
0.4109159307 0.9482925508 0.09816958428
0.451121498 0.9452463717 0.09967904938
0.4980238249 0.9400653649 0.1011721687
0.5563362744 0.9314713485 0.1027395036
0.6151721023 0.9212492405 0.1048272004
0.676385686 0.9089699149 0.1069994123
0.7317529589 0.8951390047 0.10972647
0.7778525192 0.8798622979 0.1128071263
0.8153297756 0.8661759218 0.1166501467
0.8461563397 0.8542396976 0.1207957533
0.8714338099 0.8424041058 0.1249797151
0.8911279022 0.8302648709 0.1291503873
0.9051572548 0.8189195832 0.1338271645
0.9174597363 0.8092908488 0.1396330937
0.3706370318 0.9568170083 0.09820027894
0.3771768614 0.9566803883 0.09860426012
0.3935160953 0.9561235443 0.09930682515
0.4167716864 0.9551531848 0.09985455232
0.4537241222 0.9529615551 0.101451548
0.4953640769 0.9491199899 0.1027115311
0.548273621 0.9414260391 0.1044807897
0.6025965009 0.9323319041 0.1063561513
0.6612116051 0.9222026627 0.1084666417
0.714977097 0.9109381817 0.1112851097
0.7635622062 0.8973633955 0.1141027102
0.8028463299 0.8842517239 0.1177663439
0.8351165721 0.8720365461 0.1218347309
0.8617675701 0.860915571 0.1257940615
0.8832832627 0.8510229507 0.1297813118
0.8997802895 0.8416329035 0.1340629126
0.9122748695 0.8326481189 0.1397243945
0.1031299954 0.09788727039 0.163080846
0.3528680576 0.09482862837 0.1339035225
0.5503788544 0.0950729633 0.2013922104
0.6707720935 0.095832353 0.2483224245
0.7515838238 0.09731400537 0.2702389587
0.8059863141 0.09840218175 0.2872030108
0.843285285 0.1004352898 0.2997047565
0.8719642321 0.1030538444 0.3102440264
0.892314333 0.1055291336 0.3236294021
0.9066342508 0.1082809939 0.3378352274
0.91978209 0.1116602362 0.3474937717
0.9299452695 0.1151400126 0.3585683742
0.93660587 0.1184029061 0.3700651598
0.9430101455 0.1220794661 0.3831142121
0.947774714 0.1263718276 0.3972527169
0.9513727497 0.1313646029 0.4095276011
0.9550195773 0.1363376802 0.4203284234
0.1051967829 0.2101718941 0.17181372
0.3074073085 0.1827004537 0.1201088232
0.5307678222 0.1335794339 0.116291958
0.6746173302 0.1143927886 0.128978809
0.7626813608 0.1090583808 0.1462046183
0.8169621304 0.1083645614 0.1688708144
0.8531382374 0.1090333782 0.1876976104
0.8795227005 0.1111889963 0.2100311196
0.8979157085 0.1140547556 0.2346156909
0.9111107253 0.1168852343 0.2550698446
0.9232996681 0.1196340233 0.2751005637
0.9318948373 0.1219191065 0.2923935027
0.9383161798 0.1254449503 0.3126258724
0.944401535 0.1305043342 0.3350142698
0.9486563491 0.1353550686 0.3529420845
0.9520821511 0.1398499583 0.3694902552
0.9557478631 0.1443239098 0.3880995587
0.1212535706 0.4386374796 0.1218676554
0.240264699 0.4203777154 0.1108656481
0.4741531262 0.3353157991 0.09860987147
0.6210335738 0.2746297478 0.0966228293
0.7269129599 0.2268470427 0.09834910513
0.7965232057 0.1973808596 0.1024388917
0.8411144473 0.1779827734 0.1089105259
0.8734236248 0.1684369267 0.119183087
0.8954523717 0.1634583201 0.131623585
0.9102206382 0.1601121437 0.1472923337
0.9234503566 0.1585646456 0.1670969482
0.9321597932 0.1584266628 0.1883737665
0.938783468 0.1591110851 0.211777584
0.9450129175 0.160542915 0.2384156384
0.9493946142 0.1626211458 0.2616239016
0.9531106289 0.1653892919 0.2845808791
0.9567509628 0.1680931479 0.307479857
0.140385703 0.5698354889 0.09662105431
0.2127614796 0.5633946014 0.09868592942
0.4087219764 0.5014498649 0.09572615735
0.5737236665 0.444557708 0.09434342727
0.6855171506 0.3973278654 0.09517756621
0.7636798128 0.3542473745 0.09735615374
0.8170618342 0.3149927061 0.100623854
0.8550729572 0.2875531376 0.105406242
0.8830793325 0.2645005071 0.111934486
0.9022115205 0.2490103878 0.120488977
0.9166409549 0.2383720465 0.1292383944
0.9286398781 0.2306543186 0.1393865115
0.9361686284 0.2246078363 0.1544888538
0.9432816616 0.220701942 0.1709337129
0.9484490953 0.2182397801 0.1881005192
0.9523011841 0.2169147951 0.2080289819
0.9562123522 0.2167613007 0.231419637
0.16179427 0.6667041336 0.08955198418
0.2108974304 0.6644302839 0.09188150259
0.3609413801 0.6238591641 0.09292700755
0.5178088058 0.5628809955 0.09353910833
0.6466783345 0.5160011501 0.09456927838
0.734458582 0.4783201675 0.09633372502
0.7938451157 0.4456951948 0.09893131167
0.8359220101 0.412537776 0.1023732017
0.8683606941 0.3853014617 0.1070815818
0.8917507611 0.3621528268 0.1130879107
0.9077421885 0.3425693126 0.1203094108
0.9219581092 0.3259429448 0.1280857955
0.9318472183 0.312412521 0.136381498
0.9392109641 0.3029983529 0.1474048382
0.9460078639 0.2962354199 0.1602606522
0.950413943 0.2910364018 0.1734932614
0.954479157 0.2866578181 0.187744365
0.1832301344 0.7344157021 0.08821474478
0.2200539206 0.7335258814 0.08952474299
0.3311470095 0.7107731969 0.09138783498
0.4753822043 0.6664077923 0.09307452401
0.6023453368 0.6129170191 0.0946780636
0.7022632498 0.5701578281 0.0964441778
0.7723873988 0.5387561899 0.09873450666
0.8181694078 0.5075438767 0.1015942668
0.8529607611 0.4830022812 0.1054583833
0.8799253196 0.4603251024 0.1101990168
0.8990574458 0.4386525892 0.1160454456
0.9135447181 0.4189266748 0.1229942454
0.9266903578 0.4020549303 0.1300264785
0.9345935702 0.3885918756 0.1377760681
0.9420594871 0.3772131275 0.1477742624
0.9478261117 0.3677324921 0.1592723809
0.9520082948 0.359978004 0.1707042818
0.2054258455 0.7861898253 0.08810972115
0.2347939502 0.7856714348 0.08906833259
0.3190338817 0.7733235537 0.09076915041
0.4407979329 0.7413098909 0.09283087337
0.5643642785 0.694065224 0.09484452904
0.6685754958 0.6535885336 0.09673337649
0.7479019713 0.6148584584 0.09884565845
0.8009497912 0.5863254757 0.101571925
0.8390389248 0.5584716379 0.1050205546
0.8681422057 0.5378950152 0.109139772
0.8900437907 0.5165253772 0.1142894939
0.9059557711 0.4963342924 0.120648729
0.9199135987 0.4809519755 0.1272320163
0.9304685983 0.4663375856 0.1337045701
0.9376848686 0.4532056296 0.1416022871
0.9447265509 0.4414334913 0.1516942107
0.9496116325 0.4310061026 0.1625056131
0.2264961994 0.8263153959 0.08855878004
0.2515699344 0.8261976431 0.08938258021
0.3169161951 0.817896038 0.09103027524
0.4169122023 0.7969453074 0.09311366453
0.5286391 0.7629374886 0.09536916147
0.6335507187 0.7212380089 0.09740262504
0.7181982936 0.6833166377 0.09947077099
0.7820407486 0.6555574267 0.1021112057
0.8244565938 0.6282393646 0.1052746596
0.8563945623 0.6034931088 0.1089828186
0.8807948379 0.5836585871 0.1136218119
0.8987361754 0.5627133802 0.1192655097
0.9125284467 0.5456692607 0.1253367681
0.9252975108 0.5314779874 0.1311692823
0.9335035202 0.5159606771 0.1377869169
0.9407298037 0.5017521475 0.1462024195
0.9469157091 0.4907349766 0.1560686573
0.2480413128 0.8559432766 0.08932801777
0.2660316192 0.8549090929 0.08998193583
0.3194433322 0.8511001557 0.09150921369
0.4038323433 0.8388474565 0.09375442827
0.5012156511 0.8115935722 0.09584393697
0.6014480482 0.7780744626 0.09791195655
0.6896110677 0.7426532413 0.1000367312
0.7593064432 0.7092305287 0.1025219725
0.807733268 0.6821545244 0.1052969403
0.8432290168 0.6617101693 0.1088554944
0.8711243156 0.6424092456 0.1132839021
0.8913667301 0.6223579714 0.1185110613
0.9060597649 0.6046878584 0.1242468357
0.9191170583 0.5893876662 0.1297885806
0.9296348918 0.5737470749 0.1357531171
0.9367470483 0.5589550869 0.1432572954
0.9437922271 0.5472073634 0.1524449352
0.2654936579 0.8766813834 0.09027044379
0.2813595718 0.8765278115 0.09105638189
0.3255549126 0.8739819218 0.09248058391
0.3963843724 0.8658932617 0.0944987547
0.4820609956 0.8495389765 0.09650197983
0.574653785 0.8219041561 0.09848497989
0.6621616337 0.7907438844 0.1007169466
0.7349741702 0.7608689064 0.1031700989
0.7894573122 0.7320928169 0.1057726917
0.8296505896 0.7079816959 0.1091533377
0.8601309998 0.689280162 0.1135156828
0.8833136573 0.6730306994 0.1184766423
0.9001119707 0.6580508348 0.1237815708
0.9129799264 0.6426780861 0.1289170504
0.9250635848 0.6269394333 0.1342676477
0.933042248 0.6119515536 0.1408672444
0.9399926493 0.5991254271 0.1490812441
0.2826546071 0.8954774271 0.09167071428
0.2982111188 0.894920979 0.09243833792
0.3336375861 0.8925633464 0.09373351001
0.3935867823 0.8864636787 0.09550226219
0.4682410326 0.8739759564 0.09729823518
0.5531916464 0.8555669989 0.09915352742
0.6356896906 0.8312615437 0.1014387233
0.7081966267 0.8010794602 0.1037893689
0.7692101469 0.7755113377 0.1063590183
0.8138618381 0.7518113137 0.1094131428
0.8478541175 0.7323462322 0.1135144741
0.8740593943 0.7144856605 0.1183560025
0.8932612458 0.6981781857 0.1233883621
0.9072526962 0.6841871799 0.1283195673
0.9197998794 0.6716416767 0.1333658001
0.9296065853 0.6599367841 0.1394358098
0.9364030446 0.6484467848 0.1470255117
0.3008423467 0.9099922683 0.09320863286
0.3130301469 0.9094213015 0.09388145035
0.3430615404 0.9078465363 0.09503611171
0.3940834985 0.9038433832 0.09666296071
0.4592006252 0.8946538512 0.09836093315
0.533477799 0.8797874807 0.1002417321
0.6135560426 0.8611603984 0.1025119575
0.6871848323 0.8386928761 0.1047371898
0.7499561085 0.8124024922 0.1073594728
0.7974677837 0.7895578652 0.1102451819
0.8348909094 0.770322786 0.1139105884
0.8638880748 0.7534865279 0.1185215865
0.8854191456 0.7379777729 0.1233769919
0.9014816246 0.723281088 0.128094916
0.914103322 0.7090248368 0.1328277385
0.9257716827 0.6964918108 0.1384088708
0.9332203745 0.6856402276 0.1453114329
0.3161543614 0.9213612911 0.09484160344
0.3258788843 0.9209949525 0.09543013727
0.3536243436 0.9198634686 0.09648191649
0.3967628189 0.9173245184 0.09788206793
0.4534608931 0.9112364287 0.09946518313
0.518520999 0.9004166924 0.1014212956
0.5936886617 0.8844550467 0.1035630399
0.6665739731 0.8650916171 0.1057412661
0.7295654486 0.8459090291 0.1083843309
0.7807166327 0.8235532474 0.1113292011
0.8206409834 0.8031553999 0.1149258382
0.8526016483 0.7867446347 0.1190505823
0.8771466697 0.7721360866 0.1236792289
0.8952252662 0.7586919465 0.1282898865
0.9085508896 0.74586804 0.1328726856
0.9210925958 0.7337965465 0.1382117832
0.9303716457 0.7224528769 0.1448077491
0.3296037796 0.93115164 0.09648115627
0.3389178465 0.9307911199 0.09699757171
0.3641266848 0.9300036818 0.09799246164
0.4008193471 0.9279795328 0.09918562842
0.4507701169 0.9234091546 0.100815824
0.5089667849 0.9158099415 0.102905455
0.578382195 0.903487508 0.1049185002
0.6463219557 0.8867355866 0.1069333363
0.7085694269 0.8690373903 0.1093942055
0.7640182933 0.8520902767 0.1124208348
0.8063874683 0.8346198928 0.1159645228
0.8402805088 0.8164518252 0.1199345877
0.8678939152 0.8007462729 0.1241107426
0.8882078181 0.7883284765 0.1284845237
0.9031676276 0.7767602567 0.1330266192
0.9156365896 0.7657845251 0.1383104528
0.9269943809 0.7555680065 0.1447060648
0.3437001405 0.9404674075 0.09809520353
0.35262597 0.9402133337 0.09859458252
0.3741861128 0.9396708967 0.09959868101
0.4055767115 0.9376804207 0.1005521366
0.4503464353 0.9336270673 0.1024313882
0.5025583212 0.9273222189 0.1043478449
0.5664859716 0.9178101854 0.106015887
0.6295836526 0.905099195 0.1080110342
0.6915880394 0.8892926867 0.1105290933
0.7479963541 0.8733548258 0.1135634265
0.7921082898 0.8581231734 0.116965339
0.8277781188 0.844101685 0.1207808111
0.8569390003 0.8293923381 0.1248381502
0.8803344978 0.8143805967 0.1287106678
0.8974671532 0.8026411693 0.1331530857
0.9102198878 0.7926659807 0.1384254013
0.922522812 0.7836404805 0.1447798076
0.3576507511 0.9489482495 0.09982728229
0.3652957399 0.9487826299 0.1002982349
0.3839296996 0.9481831421 0.1012791006
0.4109398919 0.9465064521 0.1022191577
0.4514512002 0.9430648322 0.1040280542
0.4980571337 0.9376245578 0.1056139629
0.5564095964 0.9288888913 0.1073531544
0.6151416341 0.9188619912 0.1094482216
0.676378848 0.9066379926 0.1118835965
0.7314473732 0.8925428501 0.1147883
0.7774940126 0.8773658367 0.117897414
0.8149954275 0.8638835831 0.1216616685
0.8457797356 0.8520150906 0.1254998203
0.8711312209 0.8399362684 0.129196833
0.8909448027 0.8279427713 0.1332679155
0.9050372983 0.8168680182 0.1384365884
0.9173690554 0.8075608826 0.1447260931
0.3701195861 0.9557435043 0.1016721636
0.3767536501 0.9555523495 0.1021517416
0.3932118368 0.954892504 0.1030040836
0.4168448037 0.9536920988 0.1039905561
0.4536817222 0.9511324162 0.1056157997
0.4953618667 0.9469140151 0.1070742132
0.548269618 0.9390277436 0.1089283802
0.6026451971 0.9302042437 0.1110047118
0.6612235437 0.9202269729 0.1132125471
