app/src/main/assets/spektrafilm/profiles/kodak_gold_200_film.cube
# ============================================================================
# spektrafilm LUT
# Bundle:  spektrafilm_v033_gold200_8printpack_2lut_prophoto_prophoto  (2lut, 17^3)
# Film:    kodak_gold_200
# Print:   fujifilm_crystal_archive_typeii, kodak_2383, kodak_2393, kodak_ektacolor_edge, kodak_endura_premier, kodak_portra_endura, kodak_supra_endura, kodak_ultra_endura
# Input:   ProPhoto RGB  (cctf on)
# Output:  ProPhoto RGB  (cctf on)
# Created: 2026-06-02T06:13:06Z
# spektrafilm: 0.3.3
# Project: https://github.com/andreavolpato/spektrafilm
#
# Copyright (c) 2026 Andrea Volpato. Generated by spektrafilm. Licensed under CC BY-SA 4.0.
#
# License: spektrafilm LUT by Andrea Volpato, licensed under CC BY-SA 4.0.
#          Full text and attribution requirements in SPEKTRAFILM_LICENSE.txt
#          (shipped in this bundle); also at
#          https://github.com/andreavolpato/spektrafilm/blob/main/SPEKTRAFILM_LICENSE.txt.
#
# Citation: If you use this LUT in your work, please cite the spektrafilm
#           project: https://github.com/andreavolpato/spektrafilm, see
#           CITATION.cff for details.
#
# Notes: Generated by the spektrafilm LUT bundle builder. Apply with trilinear
#        or tetrahedral interpolation in your host (DaVinci Resolve, Nuke,
#        OCIO-aware DCC). The input and output color spaces are declared in
#        bundle.json; do NOT apply this LUT to a signal in a different color
#        space.
#
# Role:    film  (domain=input_rgb → range=cmy_film)
# File: lut_v033_gold200_film.cube  (see sibling bundle.json for full metadata)
# ============================================================================
TITLE "v033_gold200_film"
DOMAIN_MIN 0 0 0
DOMAIN_MAX 1 1 1
LUT_3D_SIZE 17
0.1078865034 0.1158077591 0.1063038163
0.4273565229 0.1162317035 0.1071533095
0.6199218289 0.1168399622 0.1139951896
0.7350455372 0.1192224795 0.1310042808
0.8010387858 0.1222523952 0.1544754202
0.8435651362 0.1269517762 0.1809105367
0.8706336852 0.1315169318 0.2103618348
0.8916588563 0.1368992768 0.2430337428
0.9067020866 0.1430633031 0.2723625015
0.9175385652 0.1498391109 0.3060425663
0.9278439962 0.1565122245 0.336208734
0.9350403817 0.1643379092 0.3639981542
0.9411072669 0.1737151065 0.3883129949
0.9469312676 0.183971155 0.4127446573
0.9511730653 0.1947512196 0.434989737
0.9542768699 0.2056996723 0.4533162703
0.957499152 0.2166775855 0.4700849764
0.1098332457 0.3107790647 0.1063038163
0.1955627565 0.2578495189 0.1068064725
0.497802571 0.1682757715 0.1089128519
0.6434399497 0.1489674151 0.1150878703
0.7456600447 0.143139687 0.1260077689
0.8086973108 0.1421115519 0.1419046258
0.8504735703 0.1440255741 0.1638270655
0.8764633568 0.147109463 0.1880978597
0.8981130498 0.1512637713 0.2179149006
0.9116011936 0.1558354238 0.2494445289
0.9231318781 0.1614279565 0.2813734039
0.9323050479 0.169307246 0.3180175697
0.93876498 0.1781280631 0.3476992448
0.9450080324 0.1873803244 0.3751259072
0.9500464935 0.1974515747 0.4030597089
0.9533835599 0.208018259 0.4282533784
0.9565275264 0.2186866811 0.4476664848
0.1287911189 0.5548203157 0.1067251848
0.1639175795 0.5538061071 0.1068134063
0.3753529557 0.4601603264 0.1089056191
0.5552141252 0.3689902075 0.113642885
0.6737181608 0.3017048319 0.1207281609
0.7522753669 0.2559954959 0.1316465017
0.806617633 0.2285212472 0.1437887979
0.8459864049 0.2146807625 0.1597912625
0.8723329358 0.2065956914 0.1777121668
0.8938909953 0.2029688191 0.1999435161
0.9089220745 0.2024209341 0.2266779759
0.9205088207 0.2043268527 0.2548248819
0.930709266 0.2090094891 0.2880790545
0.9377598433 0.2147190618 0.3220991781
0.9443535429 0.221135177 0.3513687512
0.9498119984 0.2287614351 0.3792251108
0.9533583554 0.2372294399 0.4059574795
0.1721607362 0.6848366936 0.1067923606
0.196410853 0.6938810865 0.1069938439
0.3186725494 0.6342097792 0.108976855
0.4736813376 0.5611757026 0.1137482963
0.6053570081 0.4984838077 0.1201029964
0.7016531014 0.4476889606 0.1286132504
0.7663976425 0.4022903058 0.1386100088
0.8130811803 0.3644910473 0.1511153192
0.8476206047 0.3353858309 0.1655501023
0.8720657431 0.3139284766 0.1817375838
0.8926283087 0.2989275022 0.2011960476
0.9076272592 0.2889208533 0.2243842795
0.9189140287 0.2834355754 0.2493586253
0.9294195696 0.2816190453 0.2768071717
0.9365502067 0.2817809241 0.3078389339
0.9431695855 0.2837733416 0.3354590727
0.9489559303 0.2880360133 0.3624668828
0.2288678547 0.7752711818 0.106710817
0.2468714741 0.7831837983 0.1071605478
0.3202899872 0.7554527216 0.1089997317
0.4295478128 0.6909499011 0.1138635913
0.5391516248 0.6308027724 0.1200736655
0.6437356654 0.5786342183 0.1287846698
0.7275865083 0.534356053 0.1377264109
0.7821472813 0.4965662133 0.1479606648
0.8231754842 0.4664105283 0.160724794
0.8533525369 0.4414254443 0.1747995852
0.8749887076 0.4184313732 0.191382574
0.8940145938 0.4009777043 0.2101406067
0.9080266238 0.3882212173 0.2323492393
0.9190103338 0.3783846744 0.255015984
0.9292012221 0.3712914313 0.280264099
0.936114231 0.365724678 0.308155092
0.9425605587 0.3624043536 0.3334964835
0.2872021852 0.826680867 0.1070871639
0.3002722156 0.8315565412 0.1074238562
0.3425491027 0.8239404423 0.1091603218
0.4186156225 0.7898433483 0.1138278407
0.5040976533 0.739106135 0.1202093393
0.5926704411 0.6864948023 0.1286812647
0.6804585892 0.6391963796 0.1378301579
0.7476032341 0.5973512512 0.1471411566
0.7964728799 0.5645608465 0.1584750638
0.8332871806 0.5367407588 0.1711675572
0.8596774672 0.5123846944 0.1854975614
0.8791928841 0.4931516432 0.2020532224
0.8971544155 0.476934089 0.2220662359
0.9095860617 0.4640152314 0.2435914438
0.9201093093 0.4539835735 0.264723016
0.9295820466 0.4453686897 0.2896747983
0.9361955072 0.4382592643 0.3145184469
0.3358519656 0.8619621776 0.1073548759
0.3442837958 0.8653536663 0.1079251779
0.3726528669 0.8629770005 0.1094459426
0.4222039536 0.8432005688 0.1137459302
0.4891802364 0.8121800614 0.1200583078
0.5582450816 0.7745774053 0.128627249
0.6351135237 0.7324345889 0.1376907015
0.709506497 0.6880449339 0.147891683
0.7666326107 0.6525114617 0.1584669311
0.8103618375 0.6191577911 0.1698272677
0.8426808043 0.5942463793 0.1827224782
0.8659626905 0.5720012828 0.1977070254
0.8843340556 0.5532719465 0.2154825979
0.9008323525 0.5370460504 0.2358723942
0.9118029827 0.5229906465 0.2556556852
0.9220278813 0.5119765915 0.2775951571
0.9305739891 0.5027396958 0.3020883455
0.37810459 0.8865668924 0.1079526084
0.384226267 0.8883269879 0.1084186923
0.4019652915 0.8879500264 0.1099272657
0.4340826181 0.8783717512 0.1139644908
0.4852143962 0.857985186 0.1199248473
0.5403921445 0.829426345 0.1285570843
0.6055978216 0.8005480986 0.1375044979
0.6736149808 0.7661618613 0.1471836481
0.733825953 0.7302853384 0.1584891996
0.7836691696 0.6953622533 0.1693366286
0.822610412 0.6684605187 0.1812345522
0.8510432479 0.643118643 0.1946568917
0.8720227535 0.6205595656 0.2112567768
0.8898996941 0.603593231 0.2302947201
0.9044593212 0.5886757975 0.2492197705
0.9144174078 0.5757784909 0.2691999638
0.9243457097 0.5646018678 0.2923977225
0.4110149108 0.9031211075 0.1084559243
0.4151776814 0.9043466512 0.1089008611
0.4271125042 0.9047236829 0.1105816412
0.4491676027 0.9000188343 0.1142852521
0.4888433361 0.8871739948 0.1196561125
0.532513041 0.8678144725 0.1280915794
0.5862456022 0.8438251762 0.1372948497
0.6431669454 0.8188240375 0.146855428
0.7046924925 0.7941546203 0.1582007321
0.7554539653 0.7645581827 0.169756291
0.7989611134 0.7360196155 0.1815354134
0.8336676837 0.7103216825 0.1943903833
0.859312181 0.6862660812 0.2096757215
0.8781019451 0.6683866574 0.2270873847
0.8953014551 0.6511661808 0.2448797672
0.9076271665 0.6339752477 0.2627010408
0.9172867669 0.6200715392 0.2838367222
0.4379896499 0.9165985231 0.1090181959
0.440886272 0.9174092919 0.1096004944
0.4494938586 0.9180353625 0.1113652335
0.4679685936 0.9150691211 0.1147311794
0.4968175354 0.9062892605 0.1197932466
0.5317492856 0.8937804508 0.1278993232
0.5768643336 0.8766462986 0.1369603259
0.626323883 0.8569366492 0.1469850802
0.6807328212 0.8356228289 0.1579266262
0.7306644778 0.8138351993 0.1688166243
0.7746958209 0.7920005284 0.1811454369
0.8129843926 0.7686016435 0.1941009848
0.8435468074 0.7455535457 0.2085179762
0.8662892361 0.726529656 0.2248481116
0.8840411889 0.7075472072 0.2416767247
0.9000614107 0.6894282682 0.2585557291
0.9107766074 0.67626981 0.2779418827
0.462303038 0.9275947617 0.1097882216
0.4651125219 0.9281093458 0.1104858298
0.4732111046 0.9286525016 0.1121984982
0.487408285 0.9267296709 0.1152351225
0.5067700531 0.9205866746 0.1198913791
0.5353042333 0.9113044866 0.1276477235
0.572986005 0.8988128918 0.1365302505
0.6166696644 0.8841778912 0.1466584551
0.6624087953 0.8680021097 0.1579787127
0.7095026514 0.8497779179 0.1685646017
0.7529620938 0.8308754325 0.1804403348
0.7920363364 0.813155229 0.1942553985
0.8260782618 0.7957963475 0.2090006928
0.8528786072 0.7776639931 0.2248735836
0.872805526 0.7590090637 0.2406752165
0.8902258914 0.7426631773 0.2564239366
0.9042900392 0.7286731783 0.274177596
0.4872108772 0.9354040026 0.1107764094
0.4892319164 0.9356921133 0.1115177496
0.494613863 0.9360047602 0.1131024614
0.5037645146 0.9348338759 0.1160125092
0.5182866695 0.931638476 0.1205823934
0.5423561804 0.9254019836 0.1280078882
0.5732969122 0.9150053096 0.1364359821
0.6115284235 0.9036711223 0.1464534869
0.6502222048 0.8912003608 0.1579081193
0.6939726089 0.8773153718 0.168936292
0.7346563086 0.8620815327 0.1798447777
0.7732798112 0.8463683433 0.1930841484
0.807685488 0.8308757805 0.2087690472
0.8373835379 0.815838868 0.2246997816
0.8609596219 0.801751413 0.2403461413
0.879050109 0.787904947 0.2554677705
0.8958724633 0.7738186231 0.2721298947
0.5061766923 0.9410804065 0.1118715507
0.5075113012 0.9412632779 0.1126167586
0.5115044771 0.9415509672 0.1141568904
0.5186567266 0.940938515 0.1169331334
0.5316130023 0.9391060384 0.1213540399
0.5515401858 0.9351485296 0.128241308
0.57674617 0.9283151786 0.1363904526
0.6100370492 0.9190348189 0.1463230117
0.6435564632 0.9084546107 0.1578138284
0.6837531576 0.8977364811 0.1694365017
0.7202814366 0.8855251482 0.1806507454
0.7568413226 0.8733420087 0.1929228236
0.7914499915 0.8607213091 0.2080807518
0.8218873557 0.8469403943 0.2248179861
0.8476822747 0.8334584481 0.2407093235
0.8681579321 0.8208627604 0.2553724927
0.8853704834 0.8093108643 0.271384278
0.5229867394 0.9461513461 0.113087321
0.5242533597 0.9462918942 0.1137912476
0.5279570982 0.9465138609 0.1152966467
0.5345697288 0.9461459566 0.1179657697
0.5459289864 0.9448484054 0.1221762919
0.5616341699 0.9417085285 0.1289295508
0.5823832455 0.9371736104 0.136879216
0.611201078 0.9311481767 0.1465354108
0.6405576972 0.9227207522 0.1579406293
0.6770630326 0.9131777529 0.1695938181
0.7101983739 0.9031747692 0.1812675242
0.7439658018 0.8935813889 0.1942544572
0.7772577087 0.8833729033 0.2079815537
0.8075866668 0.8726776551 0.2246298714
0.8344803132 0.8613579686 0.241220891
0.8569770746 0.8496391883 0.2562622321
0.8749642294 0.8382279035 0.272086705
0.5405987677 0.9506647807 0.1143167856
0.5416545359 0.9507412652 0.1149751651
0.5448448859 0.9508717506 0.1164838873
0.5506838183 0.9506817949 0.1190331323
0.559691196 0.9495488006 0.1234106428
0.5720675742 0.9471325872 0.1296645684
0.5902669502 0.9436423149 0.1372292298
0.6143551921 0.9391581441 0.1465255618
0.6400901103 0.9334849624 0.1580064899
0.6728941016 0.9263565502 0.1698171809
0.7033841484 0.9173623972 0.1818009312
0.7347195793 0.9088929019 0.1952341809
0.7649431248 0.90062298 0.2095563805
0.7949814977 0.8921724183 0.2246054794
0.8221681173 0.88284681 0.2409651497
0.8456229268 0.8734243924 0.2568473884
0.865172776 0.8637766853 0.2731030047
0.5572008437 0.9544522727 0.1155107721
0.5581111112 0.9545074127 0.1161515663
0.5607153228 0.9546065928 0.1177397303
0.5654668055 0.9545448881 0.1202191328
0.5724342407 0.9535917673 0.1246745842
0.5830026245 0.9518272486 0.1305168346
0.5992779934 0.9491117179 0.1376424306
0.6189964379 0.9452834318 0.1471204719
0.6416704337 0.9408406074 0.1582467062
0.6710265363 0.9357427327 0.1697364412
0.6990222358 0.9292553799 0.1819437827
0.7280735643 0.9219707386 0.1959961519
0.755928639 0.9142678769 0.2105966394
0.7840246991 0.9069081045 0.2262768127
0.8107675855 0.8995370457 0.2408341624
0.8349399357 0.8918490366 0.2566011708
0.8554538101 0.8837255232 0.273692393
0.5720188709 0.957728769 0.1167615904
0.5728234035 0.9577830504 0.1174113933
0.5751170148 0.9578735087 0.1190849488
0.57919414 0.9578593911 0.1215160301
0.5852994919 0.9571395227 0.1260135908
0.595229659 0.9559169815 0.1313857679
0.6089378297 0.9536997617 0.1385829221
0.6247613457 0.9506462552 0.1476443447
0.6449539372 0.9469307906 0.1583815554
0.6711479439 0.9424810254 0.1699636246
0.6966435957 0.9375788955 0.1823244212
0.7233619349 0.9323838529 0.1963241473
0.7493345527 0.9263053092 0.2115948937
0.7754798694 0.9194998208 0.2274708814
0.8004980284 0.912647588 0.2424697847
0.8250401096 0.9059850953 0.2562190654
0.8461394155 0.8995050637 0.2733843517
0.1084266515 0.1214102458 0.3055395691
0.3301942183 0.1207263308 0.2634281433
0.5576666567 0.1283758625 0.3494853515
0.6843158345 0.1342669233 0.3792189568
0.7652384115 0.1386088592 0.3826990298
0.8183085352 0.1425490439 0.3852246685
0.854591262 0.1466962727 0.389704425
0.8797045853 0.150989773 0.3935656993
0.9002223124 0.1555892154 0.4021763916
0.9130767938 0.1611769818 0.4147150614
0.9249591415 0.1679501984 0.4258146819
0.9333862672 0.1755112269 0.4368030787
0.9395269799 0.1843691978 0.4497214869
0.9457845881 0.1944091865 0.4636583792
0.9505547568 0.2048624748 0.4778140577
0.9537957564 0.2147422859 0.490101703
0.957100272 0.2246290505 0.5024473505
0.1115742605 0.2961978928 0.2526649359
0.2160651712 0.2538804607 0.2271406936
0.4911746324 0.167177526 0.2076507833
0.6371078002 0.1463162332 0.2241416881
0.7412116833 0.1418873878 0.2422478905
0.8049436588 0.1427002215 0.2608394108
0.847845397 0.1453764096 0.2799557873
0.8751985043 0.1495395098 0.3026671363
0.8968276123 0.1543941166 0.3256968277
0.9107775633 0.1598094854 0.3472552888
0.922291192 0.1672575932 0.369775597
0.932203811 0.1743224631 0.3873346865
0.9385581175 0.1831279604 0.4086670369
0.9445424045 0.193671412 0.4314192186
0.9497247775 0.204832342 0.4504557776
0.9531076277 0.215491975 0.4667870667
0.9562540792 0.2255863128 0.4816214243
0.1363531028 0.5485340691 0.1483539746
0.1735294501 0.5320456009 0.1718155929
0.4003408401 0.4373074638 0.1580176355
0.5617042822 0.3468956784 0.1536628494
0.6731864671 0.2797077522 0.1601777091
0.7512755824 0.2357666079 0.1703932924
0.8057015606 0.2137883448 0.184145079
0.8458372812 0.2030121593 0.2030594186
0.8725646668 0.1979138917 0.2272092171
0.8939596572 0.1961990358 0.2523364234
0.9088978541 0.1972653657 0.2795596931
0.9207840697 0.2012909441 0.3129407825
0.9309293371 0.2071307703 0.3425973645
0.9379940389 0.2136837752 0.3692265745
0.9447709122 0.2207965709 0.3930970921
0.950130468 0.2292593647 0.4176516458
0.9535889314 0.2389336658 0.438805282
0.1832840915 0.6824648094 0.1177561483
0.2078178103 0.6787719876 0.1311887569
0.3273608571 0.6144120185 0.141862031
0.4887250599 0.5426430433 0.1439401363
0.6130584654 0.4834010322 0.1484492119
0.7031195952 0.4325797986 0.156209342
0.7655180736 0.3875118888 0.1659487908
0.8125143164 0.3491215875 0.1785004558
0.8475113076 0.3223410017 0.1943165833
0.8720668663 0.3015462473 0.2134943208
0.8925799542 0.2879575057 0.2350939802
0.9078307962 0.2802330301 0.2572706173
0.9191778402 0.2759223913 0.2849732283
0.9296037952 0.2750784043 0.3150896938
0.9366940739 0.2762255086 0.3413959347
0.9433358651 0.2793101952 0.3669009291
0.9490913382 0.284617515 0.3920624552
0.2399626065 0.7729911138 0.1118919503
0.2561870005 0.7739962558 0.1170927457
0.3254168002 0.7396353502 0.1285789222
0.4331120851 0.6752286874 0.1373731212
0.5469372892 0.6152706817 0.1440689305
0.6505756233 0.5661367217 0.151865479
0.7291048481 0.5227681305 0.1605216746
0.7825023996 0.4874990396 0.1708143634
0.8231622209 0.4583569483 0.1836003804
0.853196328 0.4324758585 0.1989211712
0.8748252365 0.4099810593 0.2167765709
0.8941008473 0.3941394599 0.2373166869
0.9082350204 0.3813418387 0.2582486271
0.9192191837 0.3714648627 0.2823076597
0.9293697288 0.3646051411 0.3090006558
0.9362455454 0.3594208167 0.3331369462
0.9427270923 0.3568200992 0.3565698483
0.295823573 0.8243568501 0.1105286718
0.3067439074 0.8264319151 0.1135401619
0.3457308269 0.8148816462 0.1209738506
0.419737117 0.7768124915 0.1314188265
0.5054759053 0.7259614174 0.1404354278
0.5973483475 0.674550846 0.1490978563
0.6849982432 0.6266060241 0.1581714422
0.7497755637 0.5893115717 0.167155016
0.7974465531 0.5579569214 0.1782730964
0.833520632 0.5301808459 0.1915504329
0.8595442393 0.5065016946 0.2067216394
0.8792063048 0.4879308875 0.2253519696
0.8972996167 0.4722010487 0.2449797206
0.9096742245 0.459544914 0.2650093697
0.9202336521 0.4494889346 0.2888415913
0.9296946019 0.4410922781 0.3130418981
0.9362997318 0.4337301182 0.3345845182
0.3411027798 0.8596809968 0.1102482179
0.3481745672 0.8614276615 0.1122778579
0.3744067422 0.8564000943 0.1175504148
0.4223739744 0.834286512 0.1264549372
0.4890113708 0.8029504327 0.1367641126
0.559411436 0.7636385475 0.1464945993
0.6377618255 0.7221292173 0.1562894947
0.7130058437 0.680132082 0.1664086507
0.7690745943 0.6453080411 0.1763106409
0.8114100502 0.6138353431 0.1880980366
0.8430144729 0.5891776959 0.201567837
0.8661976861 0.567804429 0.218130329
0.8845386094 0.5493788098 0.2367014248
0.9009421785 0.5331719363 0.2550004179
0.9118749222 0.5194535749 0.2753089155
0.9221160457 0.508599325 0.2992093233
0.9306309564 0.499592268 0.3210927169
0.3815628375 0.8844133619 0.1104447505
0.3865475462 0.8853698182 0.1120578884
0.4027606976 0.8835067963 0.1162336454
0.433688469 0.8723679861 0.123329542
0.4843784021 0.8505921956 0.1336894176
0.5401473147 0.8225366547 0.1438027241
0.606354303 0.793239731 0.154259601
0.6762816102 0.7585656925 0.1646090558
0.736503658 0.7240782821 0.1749401915
0.7855716895 0.6890069729 0.185908113
0.823619495 0.6642556461 0.1983656113
0.851723962 0.6388751493 0.2132335442
0.8723796121 0.617382782 0.2307649836
0.8901392027 0.6005834343 0.2482210751
0.9045646196 0.5856963417 0.2665317419
0.9145163074 0.5729978838 0.2882943731
0.9244097401 0.5618633727 0.3105675152
0.4129435315 0.901361522 0.1108974803
0.4164855972 0.9021179579 0.1122754309
0.427468001 0.9017382398 0.1156572982
0.4484515303 0.8957374219 0.1217260174
0.4877656026 0.8821821444 0.1309591738
0.5317045058 0.8622685647 0.1409732516
0.5858603419 0.8381017083 0.1521165165
0.6439590068 0.813901718 0.1628271339
0.7063762312 0.7890297164 0.1736893898
0.7573694236 0.7588273346 0.1853293888
0.8006539938 0.7317399878 0.1976722
0.8348826335 0.7065217822 0.2117315708
0.8599946789 0.6834653681 0.2278675866
0.8785098165 0.6658783066 0.2440657229
0.8955724837 0.648222241 0.2604834613
0.907759726 0.6310722931 0.2797470806
0.9173808898 0.6177503029 0.3015412933
0.4390748012 0.9149124269 0.1115846633
0.441629553 0.9154503808 0.112839555
0.4494983306 0.9154587165 0.1156723898
0.4667627149 0.9116732992 0.1207445211
0.4958410409 0.9028388298 0.1291494335
0.5306331198 0.889725599 0.1388053468
0.5761297368 0.8725016446 0.150071893
0.6263706358 0.8528048471 0.1616267013
0.6815251952 0.8317985175 0.1724844068
0.7318783135 0.8099960374 0.1834247512
0.7763560285 0.7884755033 0.1964112898
0.8146616548 0.7651316685 0.2104544034
0.8447035054 0.7426886377 0.2254499297
0.8668732145 0.7239000708 0.2409321215
0.8844857146 0.7048226513 0.2564325206
0.9002982984 0.6873011233 0.2741709356
0.9109197486 0.6743030171 0.2949317226
0.4631186659 0.9262634904 0.1124195793
0.4654683817 0.9265291808 0.1135453804
0.472639154 0.926499888 0.1160257967
0.4860326785 0.9238429032 0.1204909474
0.5059591057 0.9176844401 0.1279903542
0.5339717954 0.9081824229 0.1371295979
0.5721043002 0.8957936082 0.1478593674
0.6163558538 0.8811747954 0.1599644027
0.6625650704 0.86505527 0.1715025014
0.7099634447 0.8464125322 0.1822579281
0.7541137967 0.8280234559 0.1949392853
0.7935631368 0.8108160647 0.2099157853
0.827414962 0.7933877068 0.2251441443
0.8538435968 0.7752293106 0.2401484187
0.8733821591 0.7567223187 0.2547163258
0.8906716966 0.7406539709 0.2709083478
0.9045153166 0.7269140645 0.2898766547
0.4873853633 0.9342190945 0.1133299811
0.4890931296 0.9343629963 0.1143227114
0.4938148596 0.9343156911 0.116554485
0.5028562337 0.9329807842 0.1206729816
0.5174819912 0.929625268 0.1276862282
0.5409931288 0.9226999786 0.1362831324
0.5724225022 0.9125940783 0.1464802724
0.611060158 0.9015204624 0.1585293255
0.6500144986 0.888887217 0.1702734401
0.6939283624 0.8748612536 0.1818255449
0.7353742563 0.8597911692 0.1934363535
0.7744230174 0.844244357 0.2079308386
0.8088807644 0.82884689 0.2242355091
0.83843639 0.8140163473 0.2393908669
0.8617717719 0.8000493926 0.2537021152
0.8796321256 0.786246649 0.2690579996
0.8962980072 0.7721613828 0.2868488865
0.5060727531 0.9401294398 0.1143011733
0.5072195143 0.9402257314 0.1151957908
0.5107471507 0.9402599332 0.1173019398
0.5179649449 0.9397064544 0.1212155131
0.5306260351 0.9376894119 0.1275831028
0.5501729214 0.9333765345 0.1355871128
0.5759055984 0.9265040272 0.1452886489
0.609467748 0.9171256771 0.1573182773
0.6431368989 0.9066928374 0.1692536482
0.6834751184 0.8958415705 0.1815132186
0.7206177015 0.8838713572 0.1936750803
0.7576105715 0.8717127394 0.2069513641
0.7923323319 0.8590272579 0.223049341
0.8228612869 0.8452469453 0.2390143465
0.8485531292 0.8319030733 0.2536115929
0.8688360039 0.819439114 0.2683614788
0.8860045268 0.8080574101 0.2853226817
0.5226570697 0.945240438 0.1153645342
0.5237603862 0.9453163501 0.1161989285
0.5272098946 0.9454131212 0.1183225742
0.5338876785 0.9451263088 0.1219852781
0.5446884199 0.9435288626 0.1279668311
0.5604269931 0.9403957181 0.1356066551
0.5815743152 0.935965692 0.1449588122
0.610599237 0.9297003419 0.1565659002
0.6400234643 0.9211294695 0.168373759
0.6766702239 0.9116245319 0.1809304143
0.7103443897 0.9019214387 0.1936906702
0.7443847644 0.8923841339 0.2077508304
0.7779031951 0.8820211975 0.222260548
0.8083185077 0.8713250677 0.2384663871
0.835280108 0.8600198901 0.2537461041
0.8576795767 0.8482998872 0.2689565197
0.875585769 0.8370696628 0.2856648859
0.5400805907 0.9498139596 0.1164911999
0.5410894075 0.9498741289 0.1173013723
0.5442175352 0.9499813681 0.1194289788
0.5499287945 0.949758739 0.1228799716
0.5584912457 0.9483923384 0.128644748
0.5709934492 0.9460040152 0.135696422
0.5894301153 0.9426395795 0.1444986124
0.6137189543 0.9381458615 0.155614407
0.6394910293 0.9323742717 0.167558782
0.6724206772 0.9250887911 0.1803752864
0.7033658609 0.916234583 0.1935435721
0.73494287 0.9078889104 0.2081598222
0.76530738 0.8996364141 0.2232725849
0.7955359673 0.8910639355 0.2379170942
0.822786232 0.8817456668 0.2531860316
0.846250312 0.8723508674 0.2692955032
0.8657877215 0.862768202 0.2864262729
0.556746102 0.953755695 0.1176827023
0.557640068 0.9538088038 0.1185344203
0.5601723352 0.9538813158 0.1206259759
0.5645517537 0.9536658501 0.1239989174
0.5713460216 0.9526177338 0.1294791864
0.5820575653 0.9509417666 0.1359081779
0.5984414002 0.9482074495 0.1444924961
0.6183598814 0.9444219822 0.1555465998
0.6410270763 0.9399942843 0.1670404181
0.6704899417 0.9348254994 0.1796676987
0.6989185477 0.9283732988 0.1930829503
0.7281439217 0.9210472307 0.2082581178
0.7560776972 0.9133682511 0.2238477104
0.7843639863 0.9060745096 0.2390250675
0.8112495718 0.8986405774 0.2525722405
0.8354566344 0.890944351 0.2687378006
0.8560120124 0.8829008105 0.2867789971
0.5716399423 0.9571681491 0.118985252
0.5723778485 0.9572042862 0.1198854041
0.5744514154 0.9572293962 0.1220095095
0.5781782336 0.9570600764 0.1252994194
0.5842806928 0.9563550919 0.130468879
0.5943139401 0.9551382872 0.1364965934
0.6081352179 0.9529255003 0.1450341082
0.6241613136 0.9498841714 0.155355787
0.6442965503 0.946150534 0.1664852588
0.6706469656 0.9417740179 0.1792575852
0.6965089947 0.9369731612 0.1927898067
0.7233403772 0.9317384228 0.2078578735
0.7494023644 0.9255862362 0.2242102472
0.7756593611 0.9187264386 0.2397010734
