app/src/main/assets/spektrafilm/profiles/kodak_portra_800_push1_film.cube
# ============================================================================
# spektrafilm LUT
# Bundle:  spektrafilm_v033_portra800_8printpack_2lut_prophoto_prophoto  (2lut, 17^3)
# Film:    kodak_portra_800_push1
# Print:   fujifilm_crystal_archive_typeii, kodak_2383, kodak_2393, kodak_ektacolor_edge, kodak_endura_premier, kodak_portra_endura, kodak_supra_endura, kodak_ultra_endura
# Input:   ProPhoto RGB  (cctf on)
# Output:  ProPhoto RGB  (cctf on)
# Created: 2026-06-02T06:13:08Z
# spektrafilm: 0.3.3
# Project: https://github.com/andreavolpato/spektrafilm
#
# Copyright (c) 2026 Andrea Volpato. Generated by spektrafilm. Licensed under CC BY-SA 4.0.
#
# License: spektrafilm LUT by Andrea Volpato, licensed under CC BY-SA 4.0.
#          Full text and attribution requirements in SPEKTRAFILM_LICENSE.txt
#          (shipped in this bundle); also at
#          https://github.com/andreavolpato/spektrafilm/blob/main/SPEKTRAFILM_LICENSE.txt.
#
# Citation: If you use this LUT in your work, please cite the spektrafilm
#           project: https://github.com/andreavolpato/spektrafilm, see
#           CITATION.cff for details.
#
# Notes: Generated by the spektrafilm LUT bundle builder. Apply with trilinear
#        or tetrahedral interpolation in your host (DaVinci Resolve, Nuke,
#        OCIO-aware DCC). The input and output color spaces are declared in
#        bundle.json; do NOT apply this LUT to a signal in a different color
#        space.
#
# Role:    film  (domain=input_rgb → range=cmy_film)
# File: lut_v033_portra800_film.cube  (see sibling bundle.json for full metadata)
# ============================================================================
TITLE "v033_portra800_film"
DOMAIN_MIN 0 0 0
DOMAIN_MAX 1 1 1
LUT_3D_SIZE 17
0.08449871139 0.09294976065 0.08262755629
0.3062586982 0.09332546607 0.08307360732
0.4885446633 0.09335324675 0.08475435698
0.6026985301 0.09367653022 0.08993048394
0.6834914661 0.09454588301 0.09886003984
0.7433132114 0.0952072432 0.1100945835
0.7867920827 0.09683001382 0.1224076828
0.8224294832 0.09813931295 0.1368990501
0.8507224109 0.09946852398 0.1524810026
0.8713760993 0.1009088605 0.1659800458
0.890687377 0.1025565434 0.1823131634
0.9066227085 0.1044846064 0.199986105
0.9185137086 0.1064408574 0.2158959249
0.9308715009 0.1082346998 0.2314453648
0.9417769716 0.1097446743 0.2454395181
0.9497774008 0.1112596345 0.2601492654
0.9564044795 0.1131004841 0.2763823918
0.08475081391 0.2030592428 0.08266985025
0.1473166962 0.1747667182 0.08302285541
0.4107550929 0.1211510858 0.08354695608
0.5374646871 0.1090425742 0.0856477893
0.6352132012 0.1056151254 0.08988634448
0.7081314391 0.1044692106 0.0965164349
0.7616210995 0.1045372944 0.1056637433
0.8054554139 0.1050651937 0.1155004208
0.8356411975 0.1058032987 0.1268225947
0.8628403175 0.1068293592 0.1399248224
0.8827256449 0.1078643834 0.1530103586
0.9013411074 0.1090333511 0.1665947356
0.9147054218 0.1103423504 0.183894071
0.927168914 0.1115635735 0.2010979642
0.9387982332 0.1127480707 0.2156685374
0.9479993132 0.1143697343 0.2318179949
0.9548464619 0.1164693674 0.249425255
0.0867063391 0.478205398 0.08302989645
0.1009053703 0.4853536574 0.08306817822
0.3105185445 0.3737596519 0.08359073051
0.4685900878 0.2652886235 0.08509106406
0.5740180703 0.2067090421 0.08734732322
0.6526711027 0.172601709 0.09164561213
0.7146051111 0.1547540535 0.09642797343
0.7621726948 0.1446070463 0.1029250287
0.8033853459 0.13791592 0.1100180376
0.8329142292 0.13371218 0.1182535107
0.8596158005 0.1309740857 0.1276218716
0.8797463003 0.1292543597 0.1386374017
0.8993160768 0.1286987244 0.1512480251
0.9134566172 0.1289070131 0.1640981116
0.9262373896 0.129208593 0.1790944097
0.9388371547 0.1296749658 0.1952401549
0.9485989141 0.1306623731 0.2109674652
0.0934322836 0.6163423175 0.08303395342
0.1023784167 0.6274927219 0.08318363822
0.2234923079 0.5626141077 0.0837873753
0.4067267997 0.4781203961 0.08517731679
0.516738283 0.4133910249 0.0869121713
0.604051947 0.3574016857 0.08982073653
0.6701189317 0.303255315 0.09353971135
0.7244387105 0.2579464875 0.09769904084
0.7663759356 0.2268821407 0.1031560931
0.8048009888 0.2047464742 0.1088581719
0.8325377732 0.1899414304 0.1153383059
0.8582146458 0.1778466606 0.12278867
0.8780550183 0.169539139 0.1317215659
0.8976732771 0.1644581484 0.1427529709
0.9118511934 0.1612626565 0.1539031867
0.9240911871 0.1587003681 0.1648133556
0.9370991993 0.1570176772 0.1783455913
0.1062386287 0.7106751533 0.08321866546
0.1150883294 0.7192446609 0.08345591895
0.1816905078 0.6889417834 0.08416194288
0.348352588 0.6083603206 0.08548230486
0.4663121188 0.5449372823 0.08703229429
0.5582405261 0.4957266905 0.08970384624
0.6319443278 0.454191384 0.09284704339
0.6892783839 0.4117985424 0.095995845
0.7375209708 0.3749391765 0.1002357784
0.7746298707 0.3390882701 0.1051372622
0.8101170962 0.3071702243 0.1102730842
0.835383963 0.2795751775 0.1158681289
0.8598562363 0.2571543717 0.1224903736
0.879123091 0.2418796243 0.1302814158
0.8981059628 0.2296669888 0.1398820265
0.9116179835 0.2191148764 0.1498082846
0.9233996671 0.2106697569 0.1594482832
0.124232632 0.7791575879 0.08348345989
0.1313199685 0.7840867299 0.08363017859
0.1757338138 0.7700403176 0.08465200249
0.3066535518 0.7106914815 0.0859089052
0.4249158387 0.6490126433 0.08744218525
0.5150796777 0.5960992979 0.0899330596
0.5930718056 0.5545433692 0.09293588965
0.6555858818 0.5133946283 0.09555991322
0.7080852232 0.4818733816 0.09906393984
0.7507370712 0.4521129744 0.1032954252
0.784990116 0.4216802341 0.1075612243
0.8165353653 0.3951719717 0.1122396033
0.8403159709 0.3707573726 0.1176856766
0.8633134985 0.3486420758 0.1240367357
0.8816409548 0.3266684761 0.131343895
0.8995153317 0.310291045 0.1399165647
0.9121233845 0.2956463653 0.1486491529
0.1477394232 0.8278185394 0.08382792788
0.1543782259 0.8309003725 0.08415753639
0.1860740482 0.8236986316 0.08514329583
0.2772881131 0.785671515 0.08635805858
0.3935199112 0.7312590965 0.088066531
0.4796727045 0.6830819145 0.09047221362
0.556885239 0.6384826211 0.09312311151
0.6223618407 0.5986699567 0.09589824378
0.6779843499 0.5642681662 0.09908163066
0.7259403458 0.5329298482 0.1028055467
0.7628065237 0.5063483335 0.1066071671
0.7964250613 0.4822546238 0.1106307007
0.8233810008 0.4595530871 0.1152666307
0.8475563608 0.4376088939 0.1208244954
0.8677524603 0.417848319 0.1270517861
0.8857205032 0.4009998394 0.134358604
0.9020581963 0.3843781989 0.1422933295
0.1715534046 0.8596931764 0.08450133031
0.1780686545 0.8614098134 0.08486605018
0.204033047 0.8584037777 0.08567129643
0.2674292563 0.8393032819 0.08695233289
0.3636437276 0.7964500488 0.08884773428
0.4509971488 0.7517550816 0.09125786415
0.5235875102 0.7086145435 0.09364350066
0.592246719 0.6746874689 0.09623329949
0.6480575368 0.6368309069 0.09936321206
0.6988093705 0.605275086 0.1027686434
0.7412300055 0.5741742977 0.10615459
0.7740389818 0.5509258891 0.1096803439
0.8070181995 0.5252791457 0.1138142977
0.8306855344 0.5063275599 0.1186019011
0.8542660496 0.4884013205 0.1239862321
0.8724504742 0.4719255987 0.1301995317
0.8902243677 0.4561920753 0.137461721
0.1991459187 0.8828797748 0.08517543838
0.204524967 0.8840444441 0.08549002854
0.2247004905 0.8830355085 0.08619961166
0.269640933 0.8705546649 0.08755188605
0.3462857947 0.844730023 0.08954191522
0.4258537434 0.8053196326 0.09187715991
0.4980014822 0.767554824 0.09416549012
0.5639850113 0.7311016422 0.09660546144
0.6213627212 0.6981682604 0.09957787327
0.6715635879 0.6705727237 0.1031142021
0.7176878901 0.6398915653 0.1064104789
0.7551275079 0.6136057264 0.1097411052
0.7875142261 0.5880674718 0.113596113
0.8167791143 0.5677497081 0.1179368867
0.8391239352 0.5494140556 0.1228357499
0.860958216 0.5292045339 0.1283745634
0.8781779404 0.5138754906 0.1348024036
0.2262129154 0.9012816885 0.08582068857
0.2308443466 0.9019711661 0.08612060564
0.2457587926 0.9014995053 0.08683242833
0.279177622 0.8940494207 0.08822088134
0.3384591527 0.876416959 0.09041370012
0.4090192306 0.8491685477 0.09261931141
0.4743661602 0.8172423231 0.09486914338
0.5365293371 0.7828319895 0.09733258393
0.5970579562 0.7520092194 0.100259285
0.6475803323 0.7209978598 0.1033746576
0.6930701983 0.6945697219 0.1066684115
0.7343143613 0.6712995665 0.1099567459
0.7678632389 0.6460603351 0.1135215426
0.8000096609 0.622989733 0.1174025229
0.824540074 0.6028959781 0.1217836542
0.8473398577 0.5822390414 0.1267205762
0.8667855417 0.5669087908 0.1324820825
0.2500921408 0.9135770496 0.0864713487
0.2533945154 0.9138917233 0.08678907561
0.2646734896 0.9134815864 0.08749602684
0.292676873 0.9091472212 0.08895938681
0.3370921869 0.8994060722 0.09113820315
0.3961114169 0.8792279381 0.09326906677
0.4560868898 0.8545145648 0.09552337894
0.5158933286 0.8273406042 0.09814182858
0.5745538968 0.7963156209 0.1011015067
0.6250535812 0.7681787597 0.1037965842
0.6709125859 0.7417963328 0.1068634544
0.7134005159 0.71668629 0.1103801199
0.7498245593 0.6948911715 0.1139056836
0.7808317707 0.6755085022 0.1177042411
0.8110702623 0.6548539922 0.1217684433
0.8332044736 0.6343674555 0.1263062657
0.8554577969 0.6172524383 0.1314869185
0.2719544556 0.9247309767 0.08722914687
0.2752241843 0.9250019397 0.08761214013
0.2858589433 0.9251321568 0.08835946049
0.3076162969 0.9222112763 0.08998620849
0.3407557239 0.9147282358 0.09206929616
0.3880789748 0.9017014374 0.09407430682
0.4412180452 0.8832041219 0.09642936159
0.4983656912 0.8599964294 0.09908317186
0.5534743288 0.8367885267 0.1019609317
0.604311065 0.8075976348 0.1045713815
0.6504849757 0.7828972268 0.1072764476
0.6931392074 0.7604662348 0.1105706235
0.7309861739 0.7380340004 0.1142075091
0.7631750921 0.715891785 0.1179909548
0.7938610402 0.6968882363 0.1218654083
0.8201331117 0.6802189123 0.1261174397
0.8418799923 0.6636173959 0.1307791291
0.295267776 0.9341967342 0.08819331717
0.2980301838 0.9343978737 0.08863106246
0.3062349649 0.9346138298 0.0894556274
0.3218029882 0.9331375319 0.09103932699
0.3470874591 0.9282449231 0.092874105
0.3852106088 0.9172624301 0.09481931756
0.4310272624 0.9044420139 0.09726418042
0.4823177118 0.8868942733 0.1000622975
0.5335716191 0.8654515343 0.1028990063
0.5858200357 0.8439044439 0.1056286107
0.6314578408 0.8210715006 0.108268541
0.6743333119 0.7972522207 0.1111571011
0.7137777277 0.7774519032 0.114668291
0.7472686365 0.7571855086 0.1185451042
0.7760598161 0.7373149859 0.1224888148
0.8064831945 0.7177866673 0.1265625356
0.828528273 0.7011455333 0.1309793138
0.3149566381 0.9409145495 0.08933444431
0.3170490262 0.9410742245 0.08978132817
0.3233189012 0.9412259744 0.09063456892
0.3353552689 0.9403319485 0.09204237755
0.3546016001 0.9375022239 0.09363051506
0.3864048929 0.9305897075 0.0956614321
0.4253704914 0.9199754377 0.09837793314
0.4706318205 0.9063004953 0.1011871734
0.5187742681 0.890225744 0.1039365451
0.5695608727 0.8709510237 0.1066766052
0.6146082913 0.8510554419 0.1093125945
0.6566715514 0.8326972622 0.1122894565
0.6967573728 0.8116204892 0.1154092465
0.7317616436 0.7917271627 0.119065246
0.7615454961 0.7742344963 0.1232244289
0.790141658 0.7562566106 0.1273675916
0.8169113712 0.7390272761 0.1317842949
0.3318021675 0.9468403689 0.09054202483
0.3335043669 0.946944809 0.09097141905
0.3384617044 0.9470175994 0.09180293229
0.3477636326 0.9463266798 0.09297247311
0.3631872261 0.9438587134 0.09456032915
0.3902079796 0.9393898226 0.09656148398
0.4226785738 0.9331440466 0.09930739077
0.4622636788 0.9217588502 0.1020992366
0.5071190451 0.9080256853 0.104902293
0.5539268423 0.8938072244 0.1077064211
0.5987186504 0.8757072267 0.1103667982
0.6403798454 0.8585170061 0.1133879257
0.6795511696 0.8423096717 0.1165953992
0.716662964 0.8249740806 0.1197853106
0.7481794085 0.8056297514 0.1237721601
0.7747130643 0.7887443828 0.1281113943
0.8039263198 0.7731518866 0.1326968697
0.3464346461 0.9522794884 0.09170962847
0.3477441332 0.9523169306 0.09209869718
0.3516451624 0.952300146 0.09288142305
0.3590410141 0.951794902 0.09381763999
0.3725584591 0.9496660564 0.0954297506
0.3959382182 0.9461666997 0.0974109039
0.4223409025 0.9414593354 0.1002089402
0.4566296821 0.9342199342 0.1031840883
0.4970275661 0.9229000876 0.1059097574
0.539178579 0.9098962128 0.10865261
0.5842372922 0.8964923701 0.1113545931
0.6256346358 0.8810870473 0.1144408403
0.664309125 0.8653578018 0.1176421175
0.7009775843 0.8503592284 0.1210213668
0.734417426 0.8359181897 0.1243320239
0.7622155491 0.819530861 0.1286401408
0.7890132295 0.8024567504 0.1334469388
0.3590360277 0.9567838213 0.09278309819
0.360226596 0.9567941522 0.09313676809
0.3638019143 0.9567480171 0.09385763092
0.3706291067 0.956487417 0.09471012063
0.383395137 0.9549949626 0.09642846339
0.4022861354 0.9526544153 0.09839103365
0.4239494458 0.9484249551 0.1013734547
0.4534380068 0.9423009604 0.1041299468
0.488733088 0.9350218838 0.10677859
0.5275643177 0.9244123606 0.1096699323
0.5716304481 0.9117815066 0.1125707991
0.6119709598 0.8997427142 0.1154880458
0.6499261372 0.8860640406 0.1187303356
0.6861096674 0.8719282975 0.1221785238
0.7199678714 0.8577140711 0.1255270187
0.7503600573 0.844483757 0.1291733385
0.7754163666 0.8312066015 0.1339172763
0.08449871139 0.09466394023 0.1617091051
0.2243246246 0.09368008804 0.1722995446
0.4460066744 0.09411890966 0.2436005811
0.5619065665 0.09456908429 0.2707131104
0.6482667514 0.09510852575 0.2702095716
0.713066659 0.09625000256 0.2649064721
0.7625008503 0.09736127819 0.2631964836
0.8060528373 0.09847018649 0.259600161
0.8362328177 0.09970426887 0.2605968994
0.8626398506 0.1009837781 0.2637562989
0.8834892211 0.1025227491 0.267560993
0.9021973391 0.1040972565 0.2736183642
0.9149263234 0.1059618991 0.2838903369
0.9271193565 0.1079697485 0.2931785415
0.9391363659 0.1095700345 0.3001782792
0.9484916321 0.1110710518 0.3077746408
0.9552747804 0.1127337663 0.3159844055
0.08496544556 0.2095928543 0.1544598703
0.1516953156 0.1771600927 0.141063048
0.4071512763 0.1171541217 0.1296261536
0.534487163 0.1039235047 0.1369776967
0.6322307213 0.1007501749 0.1459134726
0.7041332919 0.1002875386 0.1553473165
0.75831393 0.1007128148 0.1638153383
0.8027021886 0.1017428887 0.1745853192
0.8326284405 0.1029596847 0.1863670101
0.8598491427 0.1044674651 0.1991469188
0.8800722237 0.1061296508 0.2121786733
0.9003840804 0.1073291686 0.2211538074
0.9137631135 0.1088928555 0.2352639454
0.9251504798 0.1105031844 0.2506127495
0.9367506992 0.1119427209 0.2639713929
0.9467766694 0.1136508058 0.2784793376
0.9539987967 0.1157380639 0.2930341328
0.08811281574 0.4861071006 0.1085814829
0.1095778827 0.4738219871 0.1137864412
0.3262881971 0.3548100446 0.1032809253
0.4734356385 0.2477202871 0.1005249506
0.5748780167 0.1901092717 0.1033097531
0.6522804829 0.1592944707 0.1079015424
0.7134195214 0.1439525203 0.1137599718
0.761325759 0.1357651 0.1215613798
0.8027824399 0.1307487383 0.1308347653
0.8322237323 0.1273422809 0.1419841566
0.8588223446 0.125158694 0.1530422709
0.8795395827 0.1243444323 0.1650792639
0.8991487488 0.124310279 0.1798770465
0.9133786756 0.1249748218 0.1964841038
0.9264254835 0.1257171153 0.2106866862
0.939218819 0.1267328515 0.224593616
0.9488320182 0.1283264132 0.2404595477
0.09621624666 0.623230495 0.09261410932
0.1093334554 0.6212051867 0.09745620818
0.2382338857 0.5477058118 0.09784692427
0.414371992 0.4640720612 0.09612185745
0.5204735712 0.3990346316 0.0971513664
0.6049383 0.3390168246 0.09994077279
0.6688423625 0.2837015678 0.103753264
0.7231326688 0.2415821526 0.1083571111
0.7654793868 0.2127252409 0.1140072998
0.8038094111 0.1935706711 0.1206752637
0.8315017445 0.1791168525 0.1281671693
0.8577332973 0.1691995781 0.1371205666
0.8778269226 0.1628118133 0.1481635985
0.8974992056 0.159031793 0.1590652022
0.9116948668 0.1563382548 0.1711661133
0.9239202679 0.1542962391 0.1855163554
0.937041928 0.153191839 0.2007148344
0.1103696025 0.7138754776 0.08803967764
0.1200593181 0.7150385216 0.09111436554
0.1952404111 0.676906409 0.09419869135
0.354128812 0.5932293465 0.09463545194
0.4707281765 0.5313201807 0.09567486363
0.5614172466 0.4846280211 0.0977279775
0.6317402341 0.4414226352 0.1006827973
0.6885574994 0.4004475906 0.1042915868
0.7366526201 0.3631410658 0.108504139
0.7736414431 0.3252466896 0.113308684
0.8090319825 0.2952362421 0.1187895749
0.8346197796 0.2672351363 0.1252412751
0.8595369076 0.2479841112 0.1331907746
0.8788327457 0.2332710505 0.1422542949
0.897910982 0.2212992386 0.151850281
0.9114374804 0.2120982486 0.1614356477
0.9232427434 0.2044776445 0.172362788
0.1277471758 0.7788516008 0.08711260327
0.1364410397 0.7808611251 0.08881402122
0.1847808231 0.7598346101 0.09210124862
0.3130892498 0.6988366548 0.09379371055
0.427078675 0.636504299 0.09514533247
0.5169954815 0.5842993101 0.09709096014
0.5948030868 0.5440169385 0.09975269429
0.655934458 0.5056805826 0.10268652
0.707807618 0.4743216508 0.1061499658
0.7499681033 0.4434136258 0.1100198531
0.7837737551 0.4133959759 0.1142790031
0.8157746834 0.3870744326 0.1194218328
0.8398507322 0.3630416484 0.1255332609
0.8629368963 0.3395828538 0.1326750453
0.8813014879 0.3192200902 0.1409443536
0.8992824135 0.3033504505 0.1496527911
0.9119356562 0.2883812459 0.1579814196
0.1512529538 0.8258824928 0.08698444145
0.1578968085 0.8269931823 0.08806839947
0.1920024426 0.8148966081 0.09080773995
0.2833847955 0.7748610168 0.09316731863
0.3961796182 0.7200872354 0.09497372943
0.4803898542 0.6740534636 0.0969053468
0.5576551507 0.6286917839 0.09935820224
0.6233613194 0.5889414783 0.1024101603
0.6784835601 0.5581800866 0.1054731603
0.7255948758 0.5256305866 0.1088128305
0.762118302 0.5005260272 0.11246193
0.795822003 0.4768301608 0.1168986044
0.8230531622 0.4543351646 0.1219831805
0.8471102544 0.4320607032 0.1278065297
0.8674282459 0.4126613112 0.13461968
0.8854039549 0.3955805425 0.1425155073
0.901766408 0.3790356055 0.1503925373
0.1746651253 0.8574872017 0.08722831522
0.1811074025 0.8581910796 0.08811771573
0.2076625326 0.8526974552 0.09039150228
0.2715079005 0.8307229056 0.09286669957
0.3665458068 0.787792576 0.09504121697
0.4516733329 0.7424872413 0.09710977319
0.5237861601 0.7008026313 0.09955555997
0.5928305357 0.6674199904 0.1024498904
0.648878406 0.6300962188 0.1053447029
0.6990437978 0.5980180211 0.1082368182
0.7409232824 0.5695223652 0.1114289194
0.7738856277 0.5461540142 0.1151888247
0.8067836067 0.5214571404 0.1196386844
0.8303639835 0.5025015722 0.1246258825
0.8539571397 0.4845253926 0.1303476733
0.8722084118 0.46816998 0.137214851
0.8899137264 0.4522391403 0.1447663979
0.2012887735 0.8804366996 0.08762227876
0.2066182101 0.8809476931 0.08840164193
0.2268288677 0.8784116349 0.09028404758
0.2723281727 0.8641982965 0.09277849304
0.3486284128 0.8383560209 0.09500593761
0.4266322162 0.7972596806 0.097133012
0.4982772866 0.7604426669 0.09972413223
0.564130622 0.7243975292 0.1024681549
0.6215206127 0.6926019394 0.1052088741
0.6717747528 0.6644402571 0.1082274128
0.7179546175 0.6345791109 0.11138716
0.755320741 0.6096629256 0.1148606259
0.7874428145 0.5842406843 0.1189567283
0.8166067992 0.5648497525 0.1234560249
0.8388819812 0.5457801784 0.1286137878
0.8607333276 0.5255900143 0.1346174313
0.8779256385 0.5109399192 0.1413602739
0.2275718814 0.8990599799 0.08823478665
0.23195201 0.8992672919 0.08898159278
0.2465955412 0.897813711 0.09056921459
0.2808840381 0.8894461674 0.09282894897
0.3399421297 0.8707694173 0.09516319833
0.4097822179 0.8431543629 0.09739452836
0.4746948475 0.8100014553 0.1002112793
0.5365591227 0.7774009976 0.1029441879
0.5967601098 0.746315032 0.1055756389
0.6474386353 0.7153971344 0.1082647471
0.6935016896 0.6905328849 0.1114707319
0.734808884 0.667333543 0.1148221992
0.7681205401 0.6420542901 0.1185277249
0.7999479182 0.6197892604 0.1225298416
0.8244334609 0.5993111525 0.1270752859
0.8471514974 0.5792591575 0.1322858595
0.8666296009 0.5646783601 0.1383795263
0.2505145915 0.9113213085 0.08892146713
0.2536959867 0.9113477679 0.08961836987
0.265155886 0.9104680565 0.09105761876
0.2939010874 0.9059131352 0.09313631801
0.3379397546 0.895001475 0.09535591812
0.3968948232 0.873934187 0.09767731329
0.4565369327 0.849790415 0.1006183513
0.5159528671 0.822094129 0.103406269
0.5741418776 0.7913450788 0.1061086001
0.6247109882 0.7633772562 0.1084484354
0.6710468323 0.7376088778 0.1115036769
0.7138237138 0.7132241376 0.1151082865
0.750188562 0.6918701193 0.1187106894
0.7810517996 0.6725926605 0.1225776962
0.8111002437 0.6516518069 0.1267684794
0.8331150636 0.6316497346 0.1314714874
0.8553731794 0.614882828 0.1369848748
0.2722704717 0.9225918535 0.08976090061
0.2755379456 0.922758617 0.09039880312
0.2862663704 0.9224367139 0.09174155421
0.3078946865 0.9189855385 0.09360515682
0.3410398458 0.9112212945 0.09580444622
0.3886764756 0.8979134524 0.09828917749
0.4417962305 0.8791219083 0.101285281
0.4986255296 0.8560458892 0.1040467363
0.5532501649 0.8323170447 0.1066721447
0.6039004189 0.803213938 0.1090569363
0.6505282479 0.7796078152 0.1117847933
0.693359147 0.7572494513 0.1151689844
0.7312402168 0.7347720497 0.1188466394
0.7634513628 0.7130981639 0.1226943979
0.794107695 0.694463799 0.1266163512
0.8201887637 0.6779961648 0.1309551264
0.8418705109 0.6613075418 0.1360498369
0.2955768067 0.9327534029 0.09077298025
0.2981899892 0.9328658253 0.09134749554
0.3061632208 0.9326415452 0.09254835682
0.3215196738 0.9305707501 0.0941443877
0.3470673118 0.9253946919 0.09627442188
0.3856244062 0.9142735839 0.09881497203
0.4315928073 0.9017623229 0.1018986637
0.4825992458 0.8834487616 0.1047204638
0.5334079621 0.8618939858 0.10733347
0.5855610491 0.8407409824 0.1099573318
0.6314326074 0.8175599325 0.1127254487
0.6744124118 0.7943468634 0.1156757178
0.7138232052 0.7745666341 0.119226787
0.747494913 0.7545294002 0.1231569955
0.7763164441 0.7347035706 0.1271318773
0.8066778316 0.7154220623 0.1312548281
0.828704753 0.6992755263 0.1360185441
0.3148385018 0.9397229488 0.09179731543
0.3167785012 0.9397579723 0.09230706984
0.3228697128 0.9396334356 0.09336866201
0.3349452582 0.9386503502 0.09480186922
0.3545032343 0.9355040043 0.09692500727
0.3866371659 0.9281472242 0.0995684711
0.4257595982 0.9173123477 0.102742372
0.4708275469 0.9038695838 0.1055154034
0.5186721846 0.8870458992 0.1080860835
0.569477752 0.8680808365 0.1108638373
0.6146285291 0.8486976554 0.1136563264
0.6566307926 0.8300434395 0.1167021075
0.6967536492 0.8086848696 0.1198735454
0.7318158168 0.7894282123 0.1236072706
0.7616886912 0.7719043287 0.1278160285
0.7903887789 0.7540849888 0.1320398114
0.8171287715 0.7370385011 0.1366593964
0.3313748208 0.9455214044 0.09279687795
0.3330255999 0.945555458 0.09325433127
0.3379382514 0.9454937141 0.09420774735
0.3473795102 0.944798601 0.0954954156
0.362944293 0.9422616256 0.09767497723
0.3903153238 0.937726295 0.1003088434
0.4229113295 0.9310568665 0.1033778662
0.4623676216 0.9192119542 0.1061253663
0.5071049289 0.9058101604 0.1088980477
0.5541000137 0.8916071237 0.1118563799
0.5987574469 0.8735263351 0.1145806586
0.6403041008 0.8563854284 0.1177209313
0.6794852429 0.8403592342 0.1209903738
0.7166528308 0.8227525558 0.1241510783
0.7481980696 0.8034798419 0.1283205843
0.774852243 0.7868728286 0.1327832841
0.8042392844 0.7713815266 0.1374507032
0.345951567 0.9510787356 0.09375495452
0.3472876741 0.9510898477 0.0941656634
0.3511574656 0.9510143038 0.09508870524
0.3585514828 0.9504011285 0.09634029558
0.3722534178 0.9481836185 0.09848175942
0.3959355326 0.9447554639 0.1009691661
0.422454215 0.9399962693 0.104065031
0.4566379338 0.9322969352 0.1069268822
0.4970728907 0.9207110175 0.1097061022
0.5394262191 0.9082769387 0.1127036587
0.5842766706 0.894745704 0.1155183652
0.6255873671 0.8791048795 0.1186948725
0.6641792597 0.8635325805 0.1219815558
0.700868327 0.8486144077 0.125331389
0.7344091024 0.8339647542 0.1287772409
0.7622485958 0.8174482702 0.133299023
0.7892484915 0.8008454025 0.1381722621
0.3585574444 0.9558689441 0.09469536527
0.3597494744 0.9558604584 0.09508984827
0.363305927 0.9557587122 0.09599322672
0.3701733741 0.9552800339 0.09723781734
0.3831008833 0.9537762912 0.09933441208
0.4022440613 0.9513410603 0.1017865039
0.4238784088 0.9469753511 0.1048916596
0.4533725184 0.9409408551 0.1075881203
