app/src/main/assets/spektrafilm/profiles/kodak_verita_200d_film.cube
# ============================================================================
# spektrafilm LUT
# Bundle:  spektrafilm_v033_verita200d_8printpack_2lut_prophoto_prophoto  (2lut, 17^3)
# Film:    kodak_verita_200d
# Print:   fujifilm_crystal_archive_typeii, kodak_2383, kodak_2393, kodak_ektacolor_edge, kodak_endura_premier, kodak_portra_endura, kodak_supra_endura, kodak_ultra_endura
# Input:   ProPhoto RGB  (cctf on)
# Output:  ProPhoto RGB  (cctf on)
# Created: 2026-06-02T06:13:10Z
# spektrafilm: 0.3.3
# Project: https://github.com/andreavolpato/spektrafilm
#
# Copyright (c) 2026 Andrea Volpato. Generated by spektrafilm. Licensed under CC BY-SA 4.0.
#
# License: spektrafilm LUT by Andrea Volpato, licensed under CC BY-SA 4.0.
#          Full text and attribution requirements in SPEKTRAFILM_LICENSE.txt
#          (shipped in this bundle); also at
#          https://github.com/andreavolpato/spektrafilm/blob/main/SPEKTRAFILM_LICENSE.txt.
#
# Citation: If you use this LUT in your work, please cite the spektrafilm
#           project: https://github.com/andreavolpato/spektrafilm, see
#           CITATION.cff for details.
#
# Notes: Generated by the spektrafilm LUT bundle builder. Apply with trilinear
#        or tetrahedral interpolation in your host (DaVinci Resolve, Nuke,
#        OCIO-aware DCC). The input and output color spaces are declared in
#        bundle.json; do NOT apply this LUT to a signal in a different color
#        space.
#
# Role:    film  (domain=input_rgb → range=cmy_film)
# File: lut_v033_verita200d_film.cube  (see sibling bundle.json for full metadata)
# ============================================================================
TITLE "v033_verita200d_film"
DOMAIN_MIN 0 0 0
DOMAIN_MAX 1 1 1
LUT_3D_SIZE 5
0.1068433143 0.1091762651 0.09708737864
0.6884842091 0.1116277854 0.1740212559
0.8329312258 0.1245480675 0.3379720408
0.910743473 0.1453075431 0.4198241342
0.9574445691 0.1761960263 0.4714671852
0.1456412077 0.7020038113 0.09824275612
0.563875108 0.5579783612 0.1126126025
0.7725982172 0.4560058058 0.1617622156
0.8827365709 0.3957605257 0.2465775516
0.9432972362 0.3677154253 0.3429655529
0.2850175865 0.8617667368 0.1041131164
0.452691661 0.8167541214 0.1182708558
0.6987339223 0.705322186 0.1581541477
0.83073189 0.6324677776 0.2229899341
0.9111560204 0.5847853363 0.300790762
0.38736291 0.9251133887 0.1129542508
0.4437255299 0.9171307022 0.1273638558
0.6219953492 0.8554465178 0.1648573863
0.7801762655 0.7885837594 0.2198266247
0.8772940068 0.7379133603 0.288338319
0.4486967378 0.9574228616 0.1257371557
0.4696357454 0.9558388252 0.1383365577
0.5774842246 0.9342472491 0.1747396172
0.7259772475 0.8914877575 0.2283849483
0.8377931326 0.8458424426 0.2872150025
0.1079531936 0.2840169522 0.678030838
0.6051458944 0.1395182572 0.6028964549
0.7804684349 0.1641494086 0.6616428054
0.8769256629 0.1925285163 0.6850662674
0.9345061883 0.2258020957 0.691792987
0.1458710287 0.6202513524 0.5838621312
0.5328914983 0.5176316628 0.503132566
0.7511112669 0.4206748177 0.5020831391
0.870411698 0.3462542165 0.5301711587
0.9357286232 0.3178522027 0.555442342
0.2811866509 0.7997887822 0.445589633
0.4595445117 0.7559472693 0.4522210446
0.6955968166 0.6706456874 0.4242833792
0.8265768913 0.6094444544 0.4234541958
0.9084026226 0.5615885719 0.4381831075
0.3866189398 0.8970943855 0.3368565872
0.4519929345 0.8867444543 0.3823539009
0.6268907431 0.8296287302 0.3943984913
0.7809051576 0.7689861253 0.3971623633
0.8759920899 0.7254026577 0.4107264903
0.4493407362 0.9454337608 0.2689882745
0.4737565316 0.9422028184 0.3181242613
0.5847573884 0.9186292968 0.3603766604
0.7289578268 0.8782294127 0.3811577457
0.8385611806 0.8347767355 0.3986097013
0.1167378198 0.4698260551 0.8388431873
0.4673636325 0.3238238739 0.7798159436
0.7386539559 0.2346165922 0.7420447216
0.8472274145 0.262093429 0.775149508
0.9162117594 0.3038497204 0.8024184265
0.1463532627 0.6125441556 0.8034157753
0.4342019957 0.5415350044 0.7452189024
0.7102202799 0.4487761152 0.6987775872
0.8351546062 0.3920404889 0.7213526675
0.9111467338 0.3721332358 0.7467558322
0.2618046273 0.758991262 0.7249142152
0.4182063576 0.7343503484 0.6932971624
0.6653984488 0.6531960137 0.6475030438
0.8025280799 0.5961759809 0.6379251943
0.8912056856 0.5464647793 0.6456622504
0.3778927409 0.858680813 0.6456399321
0.4460931507 0.8477893291 0.6472651625
0.6146225627 0.79948181 0.6179211533
0.7670525515 0.7450848218 0.5908736348
0.8633065675 0.7057419358 0.5798286522
0.446264173 0.9204097521 0.5766207159
0.4755935226 0.9162899548 0.5913918883
0.5849530989 0.8939877743 0.5880258149
0.7237959644 0.8518592205 0.5673002099
0.833569902 0.8144740082 0.5519310448
0.1358817526 0.5486250212 0.9160034674
0.2089734066 0.513264833 0.9064193135
0.6914527973 0.3780682956 0.829801254
0.822254689 0.3421246849 0.8236248481
0.8983251242 0.3586758682 0.8427305785
0.1639146454 0.6308983815 0.9001435922
0.2534585457 0.60113235 0.8762983934
0.6640683392 0.4983621314 0.8182397094
0.8080389279 0.4407364072 0.799950925
0.8922172672 0.4198184533 0.8169996064
0.2542680217 0.7485479214 0.8474639962
0.3415936624 0.7363964609 0.8271517991
0.6201525309 0.660410126 0.7893698952
0.7768224958 0.602043803 0.7639424241
0.8711871718 0.5559724161 0.7670768212
0.3666516749 0.8392867057 0.8001645305
0.421490451 0.8341845628 0.7925316855
0.5836835716 0.7922373941 0.7559375901
0.744180365 0.7378081852 0.732983713
0.8439662796 0.6982837576 0.7244917543
0.4396963931 0.9026709863 0.7519273204
0.4668778664 0.9000898181 0.753797429
0.5700553639 0.8799648319 0.7372017282
0.7090067681 0.8385062082 0.7121097869
0.8206883248 0.8012686493 0.6904257848
0.1640418591 0.6038882389 0.954838476
0.1735344389 0.5903775398 0.950405382
0.5962287608 0.4768656867 0.9111731968
0.7924415016 0.4267485263 0.8786610609
0.8812950412 0.4104547588 0.8786217754
0.1878660195 0.6555499303 0.9471037313
0.205800007 0.647424501 0.9354443361
0.5794909762 0.5498260023 0.9033720039
0.7790795286 0.4947284812 0.8695704044
0.873285048 0.4591394979 0.8632299473
0.2630726951 0.7505484364 0.9198278543
0.2990851037 0.7436302022 0.9086923383
0.5602461274 0.6836053499 0.8819758519
0.747945445 0.6189650591 0.8491683135
0.8495074095 0.573841218 0.8361165744
0.3606903481 0.832170739 0.8883725171
0.3940973722 0.8292763339 0.8813297691
0.5457822918 0.7966032347 0.8509961776
0.7169211459 0.7414286462 0.8283930202
0.8271810378 0.7018086035 0.8129008134
0.4331356204 0.8934859916 0.8538125271
0.4546912422 0.8919478776 0.8511518662
0.5447957338 0.8762470612 0.8316889305
0.6863895423 0.8359728676 0.8066625135
0.8032391328 0.7977297728 0.7893366788
