app/src/main/assets/spektrafilm/profiles/kodak_portra_400_film.cube
# ============================================================================
# spektrafilm LUT
# Bundle:  spektrafilm_v033_portra400_8printpack_2lut_prophoto_prophoto  (2lut, 17^3)
# Film:    kodak_portra_400
# Print:   fujifilm_crystal_archive_typeii, kodak_2383, kodak_2393, kodak_ektacolor_edge, kodak_endura_premier, kodak_portra_endura, kodak_supra_endura, kodak_ultra_endura
# Input:   ProPhoto RGB  (cctf on)
# Output:  ProPhoto RGB  (cctf on)
# Created: 2026-06-02T06:13:07Z
# spektrafilm: 0.3.3
# Project: https://github.com/andreavolpato/spektrafilm
#
# Copyright (c) 2026 Andrea Volpato. Generated by spektrafilm. Licensed under CC BY-SA 4.0.
#
# License: spektrafilm LUT by Andrea Volpato, licensed under CC BY-SA 4.0.
#          Full text and attribution requirements in SPEKTRAFILM_LICENSE.txt
#          (shipped in this bundle); also at
#          https://github.com/andreavolpato/spektrafilm/blob/main/SPEKTRAFILM_LICENSE.txt.
#
# Citation: If you use this LUT in your work, please cite the spektrafilm
#           project: https://github.com/andreavolpato/spektrafilm, see
#           CITATION.cff for details.
#
# Notes: Generated by the spektrafilm LUT bundle builder. Apply with trilinear
#        or tetrahedral interpolation in your host (DaVinci Resolve, Nuke,
#        OCIO-aware DCC). The input and output color spaces are declared in
#        bundle.json; do NOT apply this LUT to a signal in a different color
#        space.
#
# Role:    film  (domain=input_rgb → range=cmy_film)
# File: lut_v033_portra400_film.cube  (see sibling bundle.json for full metadata)
# ============================================================================
TITLE "v033_portra400_film"
DOMAIN_MIN 0 0 0
DOMAIN_MAX 1 1 1
LUT_3D_SIZE 5
0.09713453133 0.1009285426 0.08735150245
0.6556836757 0.1030664037 0.1857606595
0.812912331 0.1127207131 0.3456753488
0.9056045853 0.127542036 0.4151041742
0.9569783698 0.148682859 0.4622031401
0.1503601725 0.6868779966 0.08866937551
0.4961217879 0.5234705203 0.100117997
0.7330268933 0.3973005634 0.1411972803
0.8589335019 0.3329476994 0.2145788042
0.9385281076 0.3007215344 0.3077848305
0.2990727207 0.8533019359 0.0947304909
0.4119096779 0.79456911 0.1037963524
0.6487166514 0.6685674321 0.1339350146
0.7934496031 0.5777691821 0.1844021555
0.8925215264 0.5179894258 0.2512794839
0.3803636446 0.9244652688 0.1038697039
0.4171549209 0.9137246279 0.1124416601
0.5829537995 0.832268393 0.1387412088
0.736611382 0.7447445896 0.1786715858
0.8477643493 0.6869183836 0.2371846031
0.4335763362 0.9571757361 0.1167341464
0.4486514994 0.955201089 0.1237826593
0.5479289026 0.9265859792 0.1474891819
0.6893777068 0.8678807101 0.184444977
0.8006704541 0.8058424288 0.2343458119
0.09863218452 0.326083509 0.6329827331
0.540664601 0.1382091365 0.5825596908
0.745319015 0.1580237261 0.6377240219
0.8569890056 0.1809834646 0.6693545148
0.929652477 0.2023499126 0.6841027399
0.1507688988 0.6157165472 0.5159049018
0.4583448264 0.4844203242 0.4770793306
0.7038579819 0.3689260081 0.4751235613
0.841511708 0.29027563 0.5069827353
0.9247424746 0.2619079108 0.5373828547
0.2973713444 0.7871919971 0.3804238886
0.4065555971 0.73629257 0.4035969385
0.6433319204 0.6364643834 0.3849222022
0.787511832 0.5591960243 0.3846236085
0.8876535675 0.4983353663 0.3966547622
0.3826728065 0.8974727252 0.2802644029
0.4214759183 0.8805868982 0.3254001067
0.5805760032 0.802673856 0.3431774575
0.7366899707 0.7266888895 0.3478020859
0.8452652128 0.6752857647 0.3640946611
0.4370008725 0.9466817727 0.2289067178
0.4521572727 0.942021048 0.2647525043
0.550311332 0.9123392228 0.3074461057
0.6889903655 0.8544878057 0.3280797269
0.8008058304 0.7936182248 0.3461776196
0.1107380703 0.4807673637 0.8068736685
0.3892967233 0.33543515 0.7743560918
0.6911269918 0.2310579817 0.717763536
0.8180275455 0.2500749279 0.7490386898
0.9023085761 0.2814039459 0.7780456321
0.1545725045 0.6180283162 0.7475738278
0.3611212138 0.52277266 0.7327743515
0.6556707805 0.4072904069 0.6804712943
0.7945306034 0.3480892927 0.6976414017
0.8906827493 0.330165634 0.7214854069
0.2837065713 0.7497425568 0.6587281136
0.3690598062 0.7172757621 0.6603886332
0.6058456532 0.6222569572 0.6183549763
0.7564656661 0.5440991948 0.6077542011
0.8598175486 0.485588156 0.6166270087
0.3750691786 0.8600755672 0.5766165006
0.4098157183 0.8436417647 0.5948608282
0.5577831791 0.7721457072 0.575577923
0.7191425322 0.7050904292 0.5447152091
0.8282486173 0.6558422572 0.5328734948
0.4335642888 0.9248588108 0.5041163162
0.4493934216 0.9181700455 0.5226472913
0.5427849631 0.8828171503 0.5284728454
0.6780911342 0.8240779745 0.5145424442
0.7929407221 0.7714481595 0.5012156869
0.1376141004 0.5676935527 0.9034543903
0.1775213954 0.5094842274 0.9217027557
0.6413950493 0.3631358059 0.8186239222
0.7815659711 0.3234658028 0.8041161493
0.8755722211 0.3315949986 0.8225572392
0.1776131475 0.6429865414 0.867850385
0.229351533 0.6003228498 0.8766383086
0.6050594678 0.4655868796 0.8061610627
0.7615712932 0.4005307426 0.7802444251
0.8620714849 0.3774183297 0.7944767932
0.2820951624 0.7442874257 0.7992909251
0.3197802309 0.7256400001 0.8040130913
0.5531292768 0.6377120469 0.7693079363
0.7266171026 0.5616022927 0.7372409121
0.8336160176 0.5026379044 0.7389293705
0.3680424555 0.8414887965 0.7411635851
0.3895705862 0.8283558409 0.7513680426
0.5241671736 0.768829622 0.7257837934
0.6928354638 0.7013375175 0.7013382703
0.8027002323 0.6522289724 0.6912999263
0.4265954661 0.9075841101 0.6913379976
0.4407703508 0.9005442213 0.7017830483
0.5235000145 0.8682887387 0.6967821223
0.6598111559 0.8089015125 0.6714258941
0.7769712285 0.7594211004 0.6506693186
0.1726797427 0.6266903187 0.9490460151
0.1686622305 0.5991989948 0.9565030405
0.5237807863 0.4607757848 0.9247585513
0.7491359399 0.3986849702 0.8754569275
0.8491785897 0.3782986179 0.8697682208
0.2079054061 0.6757545914 0.934307192
0.2114723567 0.6555772392 0.9396857084
0.5038973362 0.5319374514 0.915659383
0.7321654117 0.4562441956 0.8643827727
0.8360339911 0.4166171448 0.8520646021
0.2919408321 0.7537046285 0.8965352623
0.3011028303 0.739018125 0.9031916984
0.4868563121 0.6709580456 0.8859944355
0.6954134148 0.5857397249 0.8377637823
0.8063338152 0.5259657003 0.8172389026
0.3663365635 0.8359256159 0.8531718174
0.3768184005 0.8257833834 0.8620988399
0.4843415917 0.7788436621 0.8398192368
0.6623634479 0.7087167571 0.8081996958
0.7818607029 0.6609346238 0.7872250779
0.4212270572 0.8976841248 0.8047616642
0.4315664871 0.8922839405 0.8127667895
0.4963708223 0.8667272212 0.8036440361
0.6347331984 0.8083565926 0.7770133308
0.7562915175 0.7579865188 0.7564511031
