app/src/main/assets/spektrafilm/profiles/kodak_kodachrome_64_film.cube
# ============================================================================
# spektrafilm LUT
# Bundle:  spektrafilm_v033_kodachrome64_portraendura_1lut_prophoto_prophoto  (1lut, 17^3)
# Film:    kodak_kodachrome_64
# Print:   kodak_portra_endura
# Input:   ProPhoto RGB  (cctf on)
# Output:  ProPhoto RGB  (cctf on)
# Created: 2026-06-02T06:53:56Z
# spektrafilm: 0.3.3
# Project: https://github.com/andreavolpato/spektrafilm
#
# Copyright (c) 2026 Andrea Volpato. Generated by spektrafilm. Licensed under CC BY-SA 4.0.
#
# License: spektrafilm LUT by Andrea Volpato, licensed under CC BY-SA 4.0.
#          Full text and attribution requirements in SPEKTRAFILM_LICENSE.txt
#          (shipped in this bundle); also at
#          https://github.com/andreavolpato/spektrafilm/blob/main/SPEKTRAFILM_LICENSE.txt.
#
# Citation: If you use this LUT in your work, please cite the spektrafilm
#           project: https://github.com/andreavolpato/spektrafilm, see
#           CITATION.cff for details.
#
# Notes: Generated by the spektrafilm LUT bundle builder. Apply with trilinear
#        or tetrahedral interpolation in your host (DaVinci Resolve, Nuke,
#        OCIO-aware DCC). The input and output color spaces are declared in
#        bundle.json; do NOT apply this LUT to a signal in a different color
#        space.
#
# File: lut_v033_kodachrome64_portraendura.cube  (see sibling bundle.json for full metadata)
# ============================================================================
TITLE "v033_kodachrome64_portraendura"
DOMAIN_MIN 0 0 0
DOMAIN_MAX 1 1 1
LUT_3D_SIZE 5
0.01756198218 0.01567351053 0.007950425259
0.2839587098 0.09766682962 0.04654150262
0.3079626533 0.0996324603 0.1111269027
0.3289857574 0.1111481128 0.1810427452
0.3702702171 0.1378547916 0.258564945
0.2240686052 0.405059382 0.1131703775
0.4569482943 0.4420174761 0.1212498189
0.5479091808 0.3876147698 0.1411125019
0.5397998144 0.3556678218 0.2128866514
0.5479932277 0.3603007311 0.3042760388
0.3251941492 0.5244600237 0.1495693429
0.4479765856 0.5902878976 0.1690327994
0.6741381965 0.6621097548 0.219787277
0.7061759443 0.669280486 0.2976944204
0.707344376 0.6640361988 0.3819977479
0.4213185816 0.6047468047 0.1917609639
0.4784507628 0.6338744703 0.2055265753
0.6542587952 0.7026654803 0.2599140682
0.7259829917 0.7279842681 0.3339631115
0.7366423309 0.7362326289 0.4147660149
0.4985643575 0.6601619788 0.2508966337
0.5303626136 0.6739777971 0.2614244233
0.6394228478 0.7143197661 0.3058439264
0.7213701469 0.7400166685 0.3706459249
0.7408535597 0.7498605702 0.4402446234
0.07942535431 0.05111596884 0.2065379001
0.2812235167 0.09311405768 0.2273227331
0.325491489 0.1065402134 0.2598825953
0.346445073 0.1185031753 0.2904415032
0.3901971676 0.1488252588 0.3448952119
0.237153882 0.4273734375 0.4405170069
0.4554434839 0.4522035317 0.4421473248
0.5592401419 0.3778359991 0.4339302966
0.5313013356 0.3154431816 0.4367709606
0.5312632375 0.3105753655 0.4605314279
0.3440529397 0.5985251301 0.4597637939
0.4766019591 0.6623935342 0.4784828446
0.698679669 0.7003482677 0.4840828075
0.7210242932 0.6886187423 0.5079219714
0.7168668775 0.6686408637 0.5377990986
0.4390716313 0.6673462181 0.442310894
0.5052096196 0.6958482566 0.4637514276
0.6781754268 0.7395975871 0.4847448533
0.7390954004 0.747653145 0.5113190069
0.7463739089 0.7476851053 0.5473692985
0.5151140444 0.7001624382 0.4413801024
0.5512362602 0.7133749538 0.4591105717
0.6608324517 0.7424669329 0.4878493531
0.7337983278 0.7559946825 0.5189284272
0.7494349622 0.7596241389 0.5540299588
0.1742028928 0.2092009399 0.4320898838
0.266801041 0.1327759221 0.3638865391
0.3698571929 0.1352774253 0.3299940475
0.3973552038 0.1537794242 0.3609272292
0.4443517356 0.1958017922 0.4177649358
0.2567114588 0.416257095 0.5510373369
0.3997425146 0.4766461724 0.6049930214
0.6003218386 0.4361937645 0.5827607164
0.5794706635 0.3775808651 0.5569433373
0.5724986982 0.3642089426 0.5522670129
0.3739033868 0.6093343336 0.640949847
0.476684781 0.6674957288 0.6722617614
0.7143501877 0.7135102921 0.688124798
0.7401883285 0.7018843478 0.6888523552
0.733186138 0.6769305324 0.6870445238
0.4810777712 0.6936439098 0.6752843811
0.5406973686 0.7181739903 0.6858535718
0.7010026142 0.7544712883 0.6912678929
0.7559346775 0.7586100944 0.6902416757
0.7601544725 0.7561216048 0.6941295305
0.555918645 0.7274044729 0.6799342311
0.5920496216 0.7384554703 0.6851978756
0.6910294713 0.7596505147 0.6885502943
0.7514773001 0.7669699726 0.6870487348
0.7621427595 0.7676087834 0.6898553544
0.2287242717 0.3343272567 0.5241789954
0.2437831999 0.3360778002 0.5322343667
0.5065007893 0.278305729 0.4978152191
0.4956512192 0.2538555458 0.4764611312
0.5148481898 0.277740517 0.497284835
0.2802538151 0.4486453069 0.5845707121
0.3208253731 0.4929903598 0.6146370441
0.6375449235 0.5162269804 0.6396701697
0.6275216621 0.4603455735 0.6117808785
0.6158627327 0.4374220974 0.6001547536
0.3823451673 0.6083762831 0.6641010463
0.4363730618 0.6488014291 0.6875367702
0.7029091784 0.7182324895 0.7181593987
0.7454465413 0.7114324994 0.7142260829
0.7417545393 0.6934366381 0.7100949479
0.487545428 0.6946202397 0.7064440685
0.5323684601 0.7149232925 0.7158321954
0.6904271824 0.7543337347 0.7259721692
0.7585143527 0.7605987677 0.7230540808
0.7634267982 0.7584506817 0.7237211122
0.5675556781 0.7316768848 0.7209111363
0.5991540684 0.741247821 0.7240401427
0.69246508 0.7611283589 0.7261610219
0.7548458643 0.7685806951 0.7228262788
0.7655521198 0.7691253245 0.7226526092
0.2740360083 0.4270870435 0.5780598053
0.274052611 0.4309158084 0.5794129891
0.5628873887 0.4178092843 0.5925466051
0.594837719 0.4018400661 0.5814591758
0.5853500415 0.3845153046 0.571632985
0.312823842 0.4958513111 0.6136073187
0.3212557076 0.5158714739 0.6226267708
0.6250479808 0.5792241603 0.6711554338
0.6793638024 0.5596690536 0.661115768
0.6595952988 0.5175420062 0.6418195999
0.4007349711 0.6186218974 0.6750780969
0.4196459422 0.6384272949 0.6850645641
0.6612559571 0.7184530598 0.7235985843
0.7488177614 0.7228268155 0.7201557718
0.7473282219 0.7080920719 0.7160779012
0.4919739609 0.6947672842 0.7122431232
0.5182173183 0.7084632501 0.718649955
0.6662468471 0.7507927457 0.7324548228
0.7569528443 0.761595108 0.7286709503
0.7640387365 0.7600870805 0.7277311235
0.5698087768 0.7320595486 0.7278961759
0.5934739624 0.7395489917 0.7304033298
0.6793222053 0.7591547972 0.7335789644
0.752289658 0.7686792749 0.7300908314
0.7660230388 0.7695144444 0.7289757786
