app/src/main/assets/spektrafilm/profiles/kodak_portra_400_film.cube
# ============================================================================
# spektrafilm LUT
# Bundle:  spektrafilm_v033_portra400_8printpack_2lut_prophoto_prophoto  (2lut, 17^3)
# Film:    kodak_portra_400
# Print:   fujifilm_crystal_archive_typeii, kodak_2383, kodak_2393, kodak_ektacolor_edge, kodak_endura_premier, kodak_portra_endura, kodak_supra_endura, kodak_ultra_endura
# Input:   ProPhoto RGB  (cctf on)
# Output:  ProPhoto RGB  (cctf on)
# Created: 2026-06-02T06:13:07Z
# spektrafilm: 0.3.3
# Project: https://github.com/andreavolpato/spektrafilm
#
# Copyright (c) 2026 Andrea Volpato. Generated by spektrafilm. Licensed under CC BY-SA 4.0.
#
# License: spektrafilm LUT by Andrea Volpato, licensed under CC BY-SA 4.0.
#          Full text and attribution requirements in SPEKTRAFILM_LICENSE.txt
#          (shipped in this bundle); also at
#          https://github.com/andreavolpato/spektrafilm/blob/main/SPEKTRAFILM_LICENSE.txt.
#
# Citation: If you use this LUT in your work, please cite the spektrafilm
#           project: https://github.com/andreavolpato/spektrafilm, see
#           CITATION.cff for details.
#
# Notes: Generated by the spektrafilm LUT bundle builder. Apply with trilinear
#        or tetrahedral interpolation in your host (DaVinci Resolve, Nuke,
#        OCIO-aware DCC). The input and output color spaces are declared in
#        bundle.json; do NOT apply this LUT to a signal in a different color
#        space.
#
# Role:    film  (domain=input_rgb → range=cmy_film)
# File: lut_v033_portra400_film.cube  (see sibling bundle.json for full metadata)
# ============================================================================
TITLE "v033_portra400_film"
DOMAIN_MIN 0 0 0
DOMAIN_MAX 1 1 1
LUT_3D_SIZE 17
0.09713453133 0.1009285426 0.08735150245
0.3252244148 0.1014302748 0.08935039594
0.4826567243 0.1013180066 0.1056469738
0.5862994985 0.1021178132 0.1414119377
0.6556836757 0.1030664037 0.1857606595
0.7052933651 0.1050674012 0.2352750873
0.7475312926 0.1073726357 0.282434488
0.7826380957 0.1097459963 0.3180359343
0.812912331 0.1127207131 0.3456753488
0.8431381446 0.1162895895 0.3691685181
0.8653358045 0.1202069543 0.3868994524
0.8880076522 0.1238596822 0.4010579716
0.9056045853 0.127542036 0.4151041742
0.9218028024 0.1317644348 0.4280186794
0.9366295462 0.1368350984 0.4397223639
0.9475497494 0.1425651316 0.4512607917
0.9569783698 0.148682859 0.4622031401
0.09768797689 0.2714420693 0.0873720947
0.1906719205 0.2042256411 0.08774212546
0.4265786187 0.1362882696 0.08997613977
0.5451383947 0.1226630418 0.09735829356
0.6341356543 0.1183997895 0.1117619085
0.6926755632 0.1168355753 0.1339571936
0.7383089154 0.1170464977 0.1655321192
0.7758343659 0.1184227737 0.2065272037
0.8072293926 0.1205127465 0.2506152234
0.8397387983 0.1229215925 0.294233723
0.863426258 0.1256240505 0.3270512837
0.8873446187 0.1286896778 0.3539700577
0.9053800373 0.1324793475 0.3771862243
0.9216805641 0.1371212808 0.3939359468
0.937164893 0.1426203722 0.4093438525
0.9481822851 0.148062538 0.423597878
0.9573708356 0.1533465707 0.4369641991
0.1026348784 0.4784171056 0.08780178819
0.1320566472 0.4653105731 0.08796588193
0.3580336115 0.3828040901 0.08967223079
0.4848403301 0.3150579496 0.09445652627
0.5818300296 0.2579750155 0.1021960195
0.6520048191 0.2150538847 0.1140810391
0.7030244845 0.1881739863 0.1274431902
0.7470998716 0.1752495354 0.1458056265
0.7840141688 0.1674566824 0.1670917375
0.8164964571 0.1631017439 0.194675503
0.8475836476 0.1613276212 0.2277001905
0.8711613274 0.1610285316 0.2618231024
0.89486087 0.1624708335 0.2987329949
0.9128418821 0.164864915 0.3276242721
0.9305142443 0.1680168631 0.3529484788
0.9440927897 0.171057891 0.3752659459
0.9541557218 0.1744657506 0.3917883999
0.1193270283 0.6027417456 0.08799974411
0.1389391744 0.5998823637 0.08830543992
0.2990436124 0.5261399351 0.09001904299
0.4388281284 0.4644617137 0.09409264828
0.5378429322 0.4189874849 0.1004833629
0.6145874888 0.3818981483 0.1091089471
0.6710674043 0.3458083767 0.1199489389
0.7166136459 0.3144322701 0.1324765028
0.7569089707 0.2873093489 0.1481688606
0.7912878096 0.2677582069 0.1656155758
0.8241975638 0.2526507309 0.186724549
0.8528165036 0.24154855 0.2117607276
0.8770706499 0.2342838956 0.2379408885
0.899716263 0.2297222737 0.2667329997
0.9176964855 0.2271537251 0.2962291356
0.9351643388 0.2259349742 0.3200471421
0.9474616323 0.2250502211 0.3413479512
0.1503601725 0.6868779966 0.08866937551
0.1646303711 0.6862006896 0.08919994998
0.2702825129 0.6438364496 0.09075057729
0.3982117914 0.5760336283 0.0946296804
0.4961217879 0.5234705203 0.100117997
0.5802000135 0.4823306312 0.1082093669
0.6441000654 0.4481620307 0.1179138589
0.6912676602 0.42038601 0.1278809975
0.7330268933 0.3973005634 0.1411972803
0.7701361897 0.3782906047 0.1561038611
0.8013333953 0.3596014434 0.1729642404
0.833861297 0.3447271374 0.1919347866
0.8589335019 0.3329476994 0.2145788042
0.8839008241 0.3231552254 0.2372971756
0.904271789 0.3139965949 0.2609189252
0.9222437052 0.3067589467 0.2868383035
0.9385281076 0.3007215344 0.3077848305
0.1914251449 0.7409320957 0.08971367577
0.2015070932 0.7413269547 0.09009927881
0.2670584416 0.7165052483 0.09189481702
0.3742330202 0.6691048541 0.0955281942
0.4616477007 0.6177837575 0.100459474
0.5450084786 0.5723816814 0.1075327623
0.6156914132 0.5307275915 0.1169972645
0.6675362494 0.4992227559 0.1259205934
0.7102460781 0.473780758 0.1375297452
0.7494470914 0.4519343796 0.1509274376
0.7830198639 0.4336140743 0.1654007881
0.8128079336 0.4188082594 0.1819139933
0.8432553089 0.4054869784 0.2011479343
0.8666816213 0.3945528271 0.2228591402
0.8906031238 0.3852663474 0.2425632982
0.9089846587 0.3769614651 0.2641812161
0.9267284454 0.3690118306 0.2868060727
0.2323579067 0.7841474458 0.09092203729
0.2405224706 0.784509379 0.0914547605
0.2799855399 0.7700664755 0.09332120768
0.3595705797 0.7307658031 0.09659158446
0.4401535923 0.6897881839 0.1013165289
0.5146707981 0.6490517696 0.1079603407
0.586984229 0.6115539929 0.1163275894
0.6444224765 0.5747787866 0.1254133718
0.6901603647 0.5440508466 0.1360935071
0.7299019513 0.5191650634 0.1483145875
0.7651833127 0.4994529702 0.1612371446
0.7951833816 0.4813969139 0.1760470063
0.8256686105 0.4656903479 0.1926384096
0.8525219926 0.4517362024 0.212593939
0.875299551 0.4398285917 0.2320251035
0.8972035822 0.4301112527 0.2506150476
0.9144736546 0.4219223123 0.2717215661
0.2697826951 0.8210982939 0.09274114129
0.275338428 0.8213614263 0.09334535015
0.2986657319 0.8124842514 0.09508659968
0.3551957844 0.7847748044 0.09801948841
0.4242407084 0.7460758124 0.1025675302
0.4912663699 0.7071723499 0.1089993477
0.5581999293 0.6755565689 0.1164927139
0.6206150531 0.6411681449 0.1244097519
0.6683877009 0.6104155299 0.1347196332
0.710330787 0.582052809 0.1464242742
0.7478729723 0.5624329683 0.1586083204
0.7795524698 0.5395451785 0.1719030041
0.8077817536 0.5216461317 0.1874318994
0.8385187378 0.5071449888 0.2053049461
0.8610988486 0.4938730985 0.2243594427
0.8845282569 0.4819774892 0.2417206513
0.903636669 0.4714949182 0.2605965739
0.2990727207 0.8533019359 0.0947304909
0.3028218482 0.853552932 0.0953384042
0.319246832 0.8483919809 0.09682632689
0.3578518095 0.8270526215 0.09946516076
0.4119096779 0.79456911 0.1037963524
0.4729494941 0.7582816588 0.1101413754
0.5375676375 0.722945084 0.1174458226
0.5981179389 0.6945959872 0.1246190664
0.6487166514 0.6685674321 0.1339350146
0.6916379577 0.6416348118 0.1458951623
0.730552458 0.6194605528 0.1576895921
0.7643580062 0.5963412501 0.1700437172
0.7934496031 0.5777691821 0.1844021555
0.8222515218 0.5629438207 0.2006888645
0.8490379627 0.5454936837 0.2184072085
0.870494213 0.5295506209 0.2348617795
0.8925215264 0.5179894258 0.2512794839
0.3253612092 0.8760690519 0.09678317229
0.3283345295 0.8761057924 0.09735108383
0.3398191251 0.8732324909 0.09864286276
0.3652398314 0.8617948575 0.1012103686
0.4067183542 0.8382974304 0.1056255938
0.4598051068 0.8035031714 0.111672831
0.5191000325 0.7704444663 0.1184559888
0.5762952017 0.7386184655 0.1255051947
0.6293418748 0.7114759885 0.1339482588
0.6732481925 0.6898632592 0.1444918348
0.7120029444 0.6688518315 0.1561874905
0.7482222871 0.6467938011 0.1683764508
0.7797134316 0.6282647765 0.1820102084
0.8069290995 0.6118484471 0.1973571055
0.8361940103 0.5943853513 0.2141834401
0.8583755518 0.5796149028 0.230455894
0.8805134193 0.5677359372 0.2458774294
0.3475277307 0.8950146275 0.09882043568
0.349489372 0.8950546958 0.09935777549
0.35697479 0.8936157869 0.1005577058
0.374548761 0.8856960102 0.1031153262
0.4066198083 0.8698265924 0.1074644076
0.4515398004 0.8455020969 0.113240844
0.5041885124 0.811693432 0.1197135626
0.5583109428 0.7818482763 0.1266957434
0.6121411818 0.7547887149 0.1354974427
0.6564370684 0.7292246074 0.1446125294
0.6959023915 0.7082235123 0.1551804506
0.7321154171 0.6906281673 0.1676815526
0.7651707956 0.674044325 0.1809741445
0.7939070979 0.6566545506 0.195756337
0.8218308671 0.6398349507 0.2114997039
0.8476863039 0.6256096991 0.2270772655
0.8682124647 0.6119154614 0.2416488386
0.3650831686 0.9114125625 0.1010907778
0.3665905304 0.9114524671 0.1017329812
0.3721097477 0.9107451932 0.1028930434
0.3849395447 0.905808681 0.1057402407
0.4107328881 0.8942425875 0.1099925909
0.4477371062 0.8751247481 0.1153374392
0.4939903814 0.8516535236 0.1213413778
0.5452376596 0.8210643674 0.1282198854
0.5969569309 0.7939107846 0.1369990536
0.6407559439 0.768411925 0.1456286472
0.6801799795 0.7462716925 0.1547699269
0.7165122513 0.7260671148 0.1662407774
0.7503578628 0.708812779 0.1797667987
0.7808634677 0.6941642113 0.1943481288
0.8074543306 0.680262264 0.2097927231
0.8362599765 0.6661946196 0.2251389813
0.8576808071 0.6518667851 0.2391893194
0.3803636446 0.9244652688 0.1038697039
0.3815923567 0.9245719676 0.1045518551
0.3858816364 0.9243296413 0.1058304752
0.3959409327 0.921396924 0.1086700924
0.4171549209 0.9137246279 0.1124416601
0.4469361557 0.8996478629 0.1174243453
0.4871294227 0.8805704929 0.1231590412
0.5349040096 0.8583288203 0.1302679817
0.5829537995 0.832268393 0.1387412088
0.6269065527 0.8047004622 0.1473485994
0.6657559337 0.7826777563 0.1561642691
0.7022884456 0.7627773028 0.1660298423
0.736611382 0.7447445896 0.1786715858
0.7673769496 0.7272336563 0.1930646858
0.7946726898 0.7118958814 0.2084500204
0.8223315615 0.6987519713 0.2234841979
0.8477643493 0.6869183836 0.2371846031
0.3940954178 0.9345843713 0.1070350172
0.3952118603 0.9346491441 0.1077240868
0.3989575041 0.9343974157 0.1090853191
0.407715938 0.9322158685 0.1115964747
0.4249728166 0.9272052847 0.1148819054
0.4485437955 0.9184630342 0.1199098238
0.4832258212 0.9042207748 0.1256599107
0.5263866156 0.8853603408 0.1326823856
0.5704185323 0.8645991056 0.1409175961
0.614964171 0.8423672349 0.1492625372
0.6535394105 0.8167993274 0.1578854451
0.6890705803 0.7966067774 0.1677785808
0.7233079262 0.7792065227 0.1788146198
0.7548390984 0.7620604829 0.1921436575
0.7831080152 0.7459195294 0.207893836
0.8085395418 0.7302475252 0.2229530256
0.8369131195 0.7164499303 0.2363812034
0.407942214 0.9434073524 0.1102652308
0.4089389374 0.943391153 0.1109370314
0.4123184272 0.9430623242 0.1122872845
0.4197459505 0.9414273607 0.1144284346
0.4330512706 0.9375361391 0.1178282692
0.4518014982 0.9314045453 0.1223797928
0.4817211834 0.9219921413 0.1279641823
0.5197433373 0.9081406229 0.1350704844
0.5603947299 0.8900411205 0.1431175307
0.6046703394 0.8705832047 0.1513879045
0.6425160692 0.8509545616 0.1597503602
0.6772399387 0.8299812746 0.1696267573
0.7104877794 0.8103482846 0.180636523
0.7428676495 0.7938791531 0.1920402886
0.7718062224 0.7782113382 0.2070321116
0.7970230748 0.7627348547 0.2224943713
0.8239477695 0.7483181857 0.236045075
0.4214949672 0.9509393374 0.1134359236
0.4223741362 0.9509291863 0.1140855723
0.4252614601 0.9507545603 0.1154415642
0.4309575049 0.9499628498 0.1172615942
0.4408173601 0.9472233655 0.1207710752
0.4566148078 0.9422518237 0.1249790344
0.482279062 0.9344810671 0.1305248033
0.5156030041 0.9247416151 0.1379269925
0.5530524741 0.9110882225 0.1453924773
0.5954456457 0.8944952507 0.1532663552
0.6323521364 0.8762930981 0.1614556062
0.6667937737 0.8597408461 0.171698649
0.6995169072 0.843260634 0.1825129032
0.7307285031 0.8242350627 0.1940828893
0.7605571211 0.8073703162 0.206632853
0.7869169339 0.7927737217 0.2216355455
0.8113031572 0.7783705805 0.2354646626
0.4335763362 0.9571757361 0.1167341464
0.4343188717 0.9572055495 0.1173670547
0.4364137113 0.9571691797 0.1186957643
0.4407529757 0.956860875 0.1203344149
0.4486514994 0.955201089 0.1237826593
0.462306055 0.9517228972 0.1274807669
0.4846386778 0.9452932216 0.1336297075
0.5136747135 0.9367792405 0.1405888681
0.5479289026 0.9265859792 0.1474891819
0.5871055511 0.9143939 0.1554750642
0.623267451 0.898400761 0.163666134
0.6574299368 0.8829903236 0.1735465254
0.6893777068 0.8678807101 0.184444977
0.7196808908 0.8535625882 0.1959811344
0.7491815667 0.8377773587 0.2082739386
0.776817086 0.8211148234 0.2209764249
0.8006704541 0.8058424288 0.2343458119
0.09754618975 0.1064597978 0.2408028655
0.2507358552 0.1023624668 0.2687932441
0.4415725528 0.1032717041 0.3562363682
0.545064352 0.105704369 0.3962093068
0.6248658673 0.1077053092 0.4120785032
0.6806174781 0.109497216 0.4210868282
0.7263006892 0.111574304 0.4281306929
0.7663976562 0.1141061081 0.4315990336
0.7980970871 0.1171165092 0.4367256112
0.8304239183 0.1204790609 0.4440510516
0.8569935035 0.1235312129 0.4490150177
0.8810805078 0.1264171269 0.4549273655
0.9008824168 0.129827659 0.4615492385
0.916808377 0.1345526995 0.4680181365
0.932822889 0.1402224672 0.4759110675
0.9450017594 0.1457567318 0.4842507326
0.9545984021 0.1509616608 0.4921805035
0.09787701555 0.2848648232 0.191209335
0.1829249584 0.2105895961 0.2053575385
0.4117786707 0.1312761297 0.2041689879
0.5305564355 0.1161115401 0.2406067974
0.6190134908 0.1127100639 0.28084875
0.6800788681 0.1128195147 0.3133392779
0.7281319374 0.1140679367 0.3353595613
0.7688294966 0.1165396245 0.356452971
0.8010668381 0.1196275884 0.3750561686
0.8338107992 0.1227851364 0.3887624261
0.8582409156 0.1258295354 0.4010806762
0.8833647811 0.1284552171 0.411266991
0.9027256772 0.1323752859 0.4230204356
0.9182175798 0.1380036965 0.4357501239
0.933688835 0.1440212156 0.4481791597
0.9454673037 0.1496207875 0.4589944391
0.9550955063 0.154871427 0.4687298799
0.105797716 0.4831521626 0.1252989305
0.1420788426 0.4547735205 0.1442918917
0.3613922492 0.3690006743 0.1329951965
0.4811222401 0.2953263262 0.1341387474
0.5762191606 0.2346281002 0.1437649015
0.647878561 0.1936692614 0.1568001536
0.6993217152 0.1732554888 0.1742620477
0.7442671722 0.1630748196 0.1996875231
0.7820930105 0.1580514117 0.2315324344
0.8139113257 0.155232923 0.2640519698
0.845766274 0.1548083453 0.2986909657
0.8696639442 0.1557894802 0.3271899997
0.8932493343 0.1578965091 0.3519321757
0.9112560712 0.1608715871 0.3745270992
0.9293544246 0.1644440064 0.3910658361
0.943508582 0.1682912749 0.405001423
0.9532827458 0.1720442777 0.4183132991
0.1281233008 0.604874153 0.103959097
0.1497349431 0.5889244162 0.1140988898
0.3045654651 0.5135916699 0.1188420882
0.4402844707 0.4513790421 0.1210852545
0.53547653 0.4085514431 0.1273207956
0.6118651893 0.3700179452 0.136573437
0.6682266119 0.3337688881 0.1477948246
0.714453015 0.2998981212 0.1611799518
0.755770421 0.2755623412 0.1788750427
0.79043869 0.2555920429 0.2005112996
0.8230786695 0.24147748 0.224635608
0.8523644254 0.2323591178 0.2482076276
0.8767031212 0.225586883 0.2789000015
0.899226596 0.221260779 0.3056130408
0.9170418431 0.2192650094 0.3288077882
0.9343809663 0.2184640283 0.3501388775
0.9468997703 0.2185718395 0.3701980898
0.1599679758 0.6846866745 0.0985036834
0.1767746421 0.6791091588 0.1029050308
0.2779533101 0.6300181823 0.1100175457
0.3990994195 0.5647041396 0.1153771565
0.4963917639 0.5127627639 0.1216417367
0.5789986121 0.4737940727 0.129984379
0.6418890649 0.4403325875 0.1399094389
0.6897300176 0.4137185504 0.1510763189
0.7320295416 0.3914965309 0.1644437827
0.7693770871 0.3717379656 0.1804940988
0.8005403901 0.352808459 0.1992588649
0.833209823 0.3390746516 0.2208875492
0.8588370607 0.327134516 0.24190388
0.8837383497 0.3162996853 0.2648585502
0.9041167742 0.3072401037 0.2891196525
0.9219748283 0.3005625202 0.3099453584
0.9381854108 0.2947081269 0.3285226856
0.1994198371 0.7359352814 0.09766180317
0.2098357271 0.7329362104 0.1000403964
0.2739917159 0.7059451269 0.1055268366
0.3754556987 0.6570313258 0.1117206953
0.461102561 0.605826819 0.1183945491
0.5450108596 0.5643692113 0.1258891866
0.6150052446 0.5234377177 0.1353869768
0.6663795557 0.4937687179 0.14563304
0.7095881683 0.4692953916 0.1573129646
0.7489279563 0.4475726805 0.1710048794
0.7823074517 0.4295596007 0.1865463795
0.8121988743 0.4149063278 0.2047973083
0.8431153414 0.4019641473 0.2250914491
0.8665589272 0.3911870805 0.2441356017
0.8904281713 0.3816182291 0.2649944555
0.9088624728 0.3731361346 0.2870339948
0.9265173971 0.3649547028 0.3050813484
0.2388373031 0.7783513278 0.09781735241
0.2462940145 0.7770309269 0.09939264801
0.2846238089 0.7601322161 0.1037053016
0.3611652548 0.7199604719 0.1094935516
0.4396744621 0.6808551925 0.1165925119
0.5140446002 0.6405699832 0.1238810892
0.5862327027 0.6028924406 0.132113968
0.6442873629 0.5696840869 0.1429010619
0.6899210745 0.539572108 0.1536849195
0.7294555308 0.5159399662 0.1658757707
0.7646096467 0.4959596622 0.1795326253
0.7948432728 0.4782607805 0.195478026
0.8255452063 0.4628534775 0.2141395551
0.8524315851 0.448946657 0.2323275717
0.8751118881 0.4372051708 0.2498579673
0.8970631929 0.4276097006 0.270270101
0.9142835346 0.4193467989 0.2899679578
0.2739465128 0.8148209991 0.09880214904
0.2790000164 0.8140477196 0.100099463
0.3016902812 0.8035380997 0.1036604182
0.3565648124 0.7749442847 0.1087618921
0.4243642103 0.736922086 0.1158671886
0.4908245069 0.7009438177 0.1229889984
0.5573515339 0.6688599615 0.1304312419
0.6205704828 0.6359197753 0.1400168042
0.6687567365 0.6060317434 0.1507293792
0.7102948005 0.5791141419 0.1618983167
0.747359325 0.5592252447 0.1747297268
0.7792865307 0.5365600271 0.18902023
0.8077356198 0.5195427463 0.2061291993
0.8384406875 0.5049480814 0.2240932154
0.8609689955 0.4915795509 0.2406771566
0.8843708482 0.4797676712 0.2583699808
0.9034921693 0.4692563539 0.2779394862
0.3016334734 0.8481405448 0.1000977624
0.3050687405 0.8476004969 0.1011850153
0.3210145835 0.8407197871 0.1040431873
0.3588827585 0.8173881104 0.108907318
0.4125714969 0.7869190021 0.1154912814
0.4727114657 0.7514669739 0.1223728941
0.5368536785 0.71730133 0.1299736184
0.5979274979 0.6907314634 0.1388328841
0.6489272384 0.6646978705 0.1486874977
0.6918934723 0.6382981146 0.1600863198
0.7305064982 0.6165409754 0.1723751656
0.7643082582 0.5938230492 0.185832287
0.7934555954 0.5761739865 0.2014132587
0.822169612 0.5612297395 0.2181540836
0.8489272791 0.5432114721 0.2338465232
0.8703675599 0.5276523654 0.2491099027
0.8923792166 0.5161373484 0.2668453055
0.326989843 0.8714859764 0.1017123503
0.3297132627 0.8709836578 0.1027740313
0.3408267455 0.8673303758 0.1051991169
0.3660276601 0.855572918 0.109759421
0.4075424847 0.8307378861 0.1160688948
0.4597727073 0.7972618274 0.1224807651
0.5186566449 0.7649845871 0.1300104586
0.5761674957 0.7345137583 0.1386609375
0.6293160115 0.7084365499 0.147534606
0.6733809437 0.687191755 0.1576003304
0.7122170409 0.6660266952 0.1695722239
0.7485002678 0.6445496682 0.1827525178
0.7799180145 0.6267359844 0.1974717152
0.8068476493 0.6099669565 0.2134540514
0.8360449015 0.5924566082 0.2289666662
0.8582556498 0.5780997604 0.2437599944
0.8803521677 0.5661833263 0.2600578913
0.3484231714 0.8909853964 0.1036204815
0.3502496304 0.8906693118 0.1046723512
0.3576420159 0.8885228593 0.1070172278
0.3754854941 0.880713591 0.1112878248
0.4073679478 0.864618111 0.1168743642
0.4516483917 0.8393709885 0.1227495584
0.5040533586 0.8066613108 0.130269071
0.5582352207 0.7779764376 0.1389623157
0.6119968066 0.751546928 0.148122708
0.6564147093 0.7262132487 0.1567417023
0.6959929875 0.7059247831 0.1677060795
0.7325791101 0.6889901394 0.181093627
0.7655752044 0.6724356114 0.1953801871
0.7940307831 0.654978964 0.2107642076
0.8217692764 0.6383893146 0.2257115265
0.8475600886 0.6242846018 0.2397137433
0.8680671314 0.6103002945 0.2543025728
0.3658548253 0.9083166993 0.1060836564
0.3673155241 0.9082561323 0.1071130403
0.3728726223 0.9071944732 0.109400205
0.3856989968 0.9020757457 0.113381978
0.4111012902 0.8896110597 0.1182357578
0.4479930949 0.8707198439 0.1239394834
0.4941510198 0.8475205722 0.1312478609
0.5453163025 0.8172003369 0.1396761192
0.5969658953 0.7909676652 0.1486749059
0.6406130665 0.7655785907 0.1569526492
0.6802149817 0.7437753397 0.1664066506
0.7168743197 0.7242209075 0.1788366961
0.7507716993 0.7074168089 0.1930250235
0.7811349672 0.692872126 0.2084374812
0.807567875 0.6789967835 0.2233553844
0.8362158852 0.6648673098 0.2371162864
0.8575442781 0.6504493726 0.2507063344
0.3811663657 0.9224987793 0.1090623479
0.3823383082 0.9225065916 0.1100640253
0.3865079142 0.9218557726 0.112226204
0.3963525082 0.9186274808 0.1155451116
0.4173312159 0.9100168091 0.1197051979
0.4472921594 0.8962051543 0.1253767092
0.4874729929 0.8772927802 0.1325670841
0.535130631 0.8555856435 0.1410125358
0.5830219317 0.8290232349 0.1497205707
0.6267564051 0.8020607275 0.1579357845
0.6657508483 0.7804899159 0.1672807181
0.7026069775 0.7611511174 0.1778962446
0.7369124267 0.7431561518 0.1910909349
0.7676881696 0.7257267907 0.2063843641
0.7948866354 0.7106307424 0.2215277881
0.8224547241 0.6976615446 0.2348881501
0.8477569837 0.6858567466 0.2477204899
0.3946738062 0.9328838345 0.1121941962
0.395683668 0.9328137993 0.1130876838
0.3992437093 0.9322162414 0.1149932033
0.4078847674 0.9299780056 0.1176854304
0.425304944 0.924790457 0.1217097611
0.4489870185 0.9161565126 0.127449605
0.4836679321 0.901527311 0.1347700643
0.5267306503 0.8829112341 0.1428328078
0.5705545399 0.8623234789 0.151036972
0.614839827 0.8394583752 0.1592171838
0.6536057802 0.8146264957 0.1685976303
0.6893255009 0.7951373977 0.1791058623
0.7235760851 0.7777061609 0.1905572258
0.7550421308 0.7606332389 0.2048684819
0.7833432885 0.7445555591 0.2205022931
0.8087236286 0.7289642387 0.2338971608
0.8370169201 0.7153667977 0.2465120573
0.4082293082 0.9416253361 0.1151101187
0.4091847009 0.9415406534 0.1159040622
0.4124810411 0.9410577793 0.1176095714
0.4199993622 0.9395225877 0.1199674439
0.4335102499 0.9356665828 0.1241594962
0.452294272 0.9296759309 0.1298608529
0.4822029257 0.9201730994 0.1367350432
0.5201639829 0.9061031045 0.1444296075
0.5605734842 0.8878722518 0.1524600492
0.6046271509 0.868441631 0.1607398404
0.6426342059 0.8492111245 0.1700512313
0.6774546825 0.8282844519 0.1804956315
0.7106543963 0.8088312799 0.1919090101
0.7430438334 0.7925021155 0.2041064344
0.7719647876 0.7768946471 0.2192331884
0.7971875277 0.7614939914 0.2330158355
0.824134411 0.7471459943 0.2457996548
0.4218030268 0.9496183181 0.1179760802
0.4227071994 0.9496029569 0.1187031221
0.4255570081 0.9493992344 0.120347724
0.4313194032 0.948561212 0.1225753481
0.4412565553 0.9456798047 0.1267852558
0.4570721039 0.940767892 0.1320867682
0.4828087985 0.9329818543 0.1389204622
0.5160114404 0.9231727999 0.1466290433
0.5532189481 0.9092406008 0.1540728771
0.5954470331 0.8926880748 0.1623512708
0.6325387501 0.8748678375 0.1715238137
0.6669867575 0.8585169624 0.1821479443
0.6995993428 0.8419357801 0.1934412139
0.7308204644 0.82277802 0.205540707
0.7607066422 0.8061570433 0.2182405474
0.7869919387 0.7915445753 0.2318081809
0.8114715113 0.777237312 0.2449012803
0.4339958521 0.9563982735 0.1210712758
0.43469253 0.956410482 0.1217750265
0.4367720592 0.9563547176 0.1233695551
0.4411326065 0.9559452455 0.1257327082
0.4490330723 0.9540751573 0.1297999171
0.4628265317 0.9505214809 0.1347418192
0.4851043857 0.9439479419 0.141602978
0.5140356242 0.9354884071 0.1486132445
0.5481081221 0.9253207039 0.155598978
0.5872791401 0.9128623905 0.164216489
0.6235145786 0.8971627396 0.1731994424
0.657621891 0.8818129197 0.1834658884
0.6894916224 0.866726331 0.1949083385
