app/src/main/assets/spektrafilm/profiles/kodak_portra_160_film.cube
# ============================================================================
# spektrafilm LUT
# Bundle:  spektrafilm_v033_portra160_8printpack_2lut_prophoto_prophoto  (2lut, 17^3)
# Film:    kodak_portra_160
# Print:   fujifilm_crystal_archive_typeii, kodak_2383, kodak_2393, kodak_ektacolor_edge, kodak_endura_premier, kodak_portra_endura, kodak_supra_endura, kodak_ultra_endura
# Input:   ProPhoto RGB  (cctf on)
# Output:  ProPhoto RGB  (cctf on)
# Created: 2026-06-02T06:13:07Z
# spektrafilm: 0.3.3
# Project: https://github.com/andreavolpato/spektrafilm
#
# Copyright (c) 2026 Andrea Volpato. Generated by spektrafilm. Licensed under CC BY-SA 4.0.
#
# License: spektrafilm LUT by Andrea Volpato, licensed under CC BY-SA 4.0.
#          Full text and attribution requirements in SPEKTRAFILM_LICENSE.txt
#          (shipped in this bundle); also at
#          https://github.com/andreavolpato/spektrafilm/blob/main/SPEKTRAFILM_LICENSE.txt.
#
# Citation: If you use this LUT in your work, please cite the spektrafilm
#           project: https://github.com/andreavolpato/spektrafilm, see
#           CITATION.cff for details.
#
# Notes: Generated by the spektrafilm LUT bundle builder. Apply with trilinear
#        or tetrahedral interpolation in your host (DaVinci Resolve, Nuke,
#        OCIO-aware DCC). The input and output color spaces are declared in
#        bundle.json; do NOT apply this LUT to a signal in a different color
#        space.
#
# Role:    film  (domain=input_rgb → range=cmy_film)
# File: lut_v033_portra160_film.cube  (see sibling bundle.json for full metadata)
# ============================================================================
TITLE "v033_portra160_film"
DOMAIN_MIN 0 0 0
DOMAIN_MAX 1 1 1
LUT_3D_SIZE 17
0.1094032055 0.1069976461 0.09157089877
0.2716020552 0.1073001155 0.09339982034
0.4567900907 0.1076365315 0.1105288942
0.564570435 0.1088125972 0.1456716088
0.640474134 0.1118737835 0.1881635207
0.6981640201 0.1152812546 0.2302092463
0.7400336412 0.1202238213 0.2712161736
0.7739492768 0.1264157419 0.3040407839
0.8031087767 0.1323487777 0.3320017654
0.8294503773 0.1402107708 0.3524853664
0.85218215 0.150766255 0.3703602312
0.8710090257 0.1612407878 0.3865649127
0.8864899614 0.1715273594 0.4008058031
0.9021363375 0.1829019586 0.4130488016
0.9164646297 0.1945006296 0.4245383391
0.9268409792 0.206934963 0.4359797403
0.9355520546 0.2213090312 0.4471912
0.109995949 0.2576863447 0.09157089877
0.237083692 0.2200867847 0.09224244121
0.4712699184 0.1494074274 0.09684231029
0.6005128972 0.130412123 0.1093331658
0.6845141245 0.1263866267 0.1299966674
0.7366085761 0.1259905084 0.1571838358
0.7745160217 0.1281504251 0.1919005768
0.803873071 0.1312408223 0.2284040466
0.8300660321 0.1365537545 0.269229456
0.8519110569 0.1440030376 0.302278325
0.870204857 0.1531465402 0.3319743154
0.8855903628 0.1626784804 0.3538797103
0.9005894103 0.1724736802 0.3718259846
0.9146783071 0.1833918662 0.3891992223
0.9253415053 0.1946126828 0.4046184728
0.9337687354 0.2065773222 0.4169931507
0.9424508545 0.2209207799 0.4292385563
0.116214221 0.4700604205 0.09194619598
0.1551430648 0.4764883158 0.0925409504
0.4149201068 0.3954326884 0.09615447447
0.5475762498 0.3374671659 0.105075503
0.6439898461 0.2822496269 0.117492251
0.7144727785 0.2379605545 0.1348978558
0.763769505 0.209677961 0.1548039574
0.8027689111 0.1958951208 0.1797503399
0.8357151929 0.1899042333 0.2071497483
0.8620108962 0.1886751333 0.2393546976
0.8820499671 0.1901808528 0.27213106
0.899826733 0.1941794958 0.3015048795
0.9163574268 0.2005579398 0.3302560952
0.9275447853 0.2084731626 0.3513567624
0.9366502914 0.2180008233 0.3692503621
0.9455452195 0.2288235674 0.3860604927
0.9533759952 0.2398255227 0.4016361797
0.1381711715 0.602442903 0.09218908473
0.1650949905 0.6125944273 0.09307781269
0.3455714426 0.5459148707 0.09692364662
0.5085329206 0.4773827365 0.1045057688
0.6120226807 0.4328041287 0.1152119734
0.6842526999 0.3980161997 0.128989893
0.7395962991 0.3659612802 0.1455294251
0.7830309552 0.3408137906 0.1645344586
0.8206111509 0.3175436199 0.1869646633
0.8520910754 0.3024259148 0.2115695399
0.8765320221 0.2921399553 0.2391083873
0.8969056665 0.2850459478 0.2678126383
0.9160387831 0.2809384681 0.2927544984
0.9290098063 0.2797878762 0.3192975712
0.9399022209 0.2808423593 0.3402029414
0.9502425348 0.283495281 0.3574648976
0.9580461668 0.2876074822 0.3732826995
0.1777956149 0.6923862498 0.09312380974
0.198684784 0.6988984736 0.09430826764
0.3122362977 0.6661814643 0.09806560494
0.4557706406 0.598310061 0.1054328752
0.5773918277 0.5395619427 0.1145951285
0.6590114727 0.4977352571 0.127652996
0.7182917278 0.4654564386 0.1428972811
0.7628164207 0.4394053818 0.1593542652
0.8024109176 0.4190853976 0.1795375078
0.8374144224 0.40309665 0.2010910038
0.8655511296 0.3888691796 0.2248714857
0.8875714298 0.3761152771 0.2505222351
0.9087529629 0.3665057843 0.2746439337
0.9249800844 0.3602319219 0.2970690756
0.9368481931 0.3558775129 0.3204218594
0.948471315 0.3528111065 0.339028776
0.9575548084 0.3507452891 0.35487491
0.2268322547 0.7450170737 0.09467532981
0.2406669107 0.7494062853 0.09571443966
0.3099177888 0.7359980213 0.099477438
0.4226128501 0.6922229053 0.1066637258
0.5334928029 0.6376154867 0.1151417539
0.6312117692 0.5913951816 0.1264241939
0.699106334 0.5510638095 0.1413565271
0.7461073117 0.521887461 0.1562928862
0.7857009348 0.4981312017 0.1750870307
0.8214644979 0.4777335578 0.1947643484
0.8520482297 0.4597405702 0.2161193358
0.876586488 0.4455675697 0.2389607849
0.8978281416 0.4342696302 0.2632663129
0.9178854692 0.4246381031 0.2840898113
0.9311245133 0.4168220238 0.3053319607
0.9432907227 0.4105316926 0.3254034584
0.9542455123 0.4058277907 0.3415279747
0.2731704594 0.7865432133 0.09631956158
0.2831833149 0.7893091001 0.09738380463
0.3242612336 0.7823634446 0.1012524852
0.4050983588 0.7516357837 0.1079080282
0.50160237 0.7130006121 0.1164783774
0.5970041771 0.6685770427 0.1271046981
0.6768948394 0.6308854551 0.1399800439
0.7305751511 0.5994329872 0.1550617649
0.7720098424 0.5735117588 0.172917929
0.807348064 0.5493720916 0.1913228223
0.8390573316 0.5308836871 0.211193549
0.8654148644 0.5131755106 0.2320690744
0.8870395233 0.4982221262 0.2551929016
0.9082565353 0.4850865462 0.2758793354
0.9247446309 0.4734076302 0.2951025738
0.9369451352 0.4633624648 0.3154108061
0.9490613138 0.4553720762 0.3322899461
0.3118275031 0.8189038622 0.09832102484
0.3186955029 0.821208225 0.09966689516
0.3435776902 0.8190140984 0.1034223191
0.4008366086 0.7994572293 0.1096136919
0.4786088907 0.7656378081 0.118045769
0.5647681641 0.7299063103 0.1288587998
0.6455529161 0.6958745078 0.1401643658
0.7118958619 0.6639737295 0.1532206426
0.7572019806 0.6385166618 0.1706132911
0.794830354 0.6142020899 0.1884706041
0.8272934875 0.5966000855 0.2070135787
0.8542989001 0.5781639375 0.2264220983
0.8773007723 0.5593595251 0.2484425342
0.8976518022 0.5442743589 0.2694591613
0.9172861625 0.5314266766 0.287419764
0.9305053266 0.5197240888 0.3065105846
0.942689416 0.5093736145 0.3244887917
0.3425091769 0.8460663207 0.1009239923
0.3469858484 0.8473488022 0.1022962038
0.3649972473 0.8461958782 0.1056962972
0.4048031662 0.8343959026 0.1112978705
0.4636228434 0.8103725552 0.1194142142
0.5396578828 0.7776775035 0.1304179553
0.6192624458 0.7448082146 0.141772511
0.6891771417 0.7186631978 0.1536184989
0.7416129311 0.6939674262 0.1690269946
0.7822179793 0.6718575676 0.187223285
0.8164062271 0.6536683964 0.2053028878
0.8450256528 0.6355746033 0.2241898155
0.8689719243 0.6175150397 0.2448695084
0.8887135274 0.6032701582 0.2652581287
0.9086420261 0.5907706266 0.2824378851
0.9244385447 0.5761585208 0.299981964
0.9363226171 0.5619677603 0.3177641143
0.3695273878 0.8696788177 0.1036673746
0.3733248422 0.8708741072 0.1050294308
0.3865995064 0.8710132843 0.1080431155
0.4137314107 0.863240306 0.1133119949
0.4584130301 0.8452097394 0.1216309763
0.522589096 0.819676426 0.1322421924
0.5953915131 0.789744766 0.1432520494
0.6638072388 0.760439428 0.1551425187
0.7222307069 0.7368010553 0.1688659756
0.7676319069 0.7182703437 0.184981181
0.8039500735 0.7007323161 0.2027896739
0.8352355599 0.6830341416 0.2215157443
0.8606678379 0.6673801924 0.2412051703
0.8811402711 0.6538643487 0.2612832551
0.9000405749 0.639900451 0.2783373412
0.9180756916 0.6254643799 0.2948933628
0.9305281708 0.6122443467 0.3125016841
0.3936301327 0.8902340089 0.1065948053
0.3962538982 0.8909045086 0.1078555748
0.4052377115 0.891504326 0.1104996117
0.4247207811 0.8873016077 0.1154826887
0.4595002311 0.8752466348 0.1235761462
0.5130856957 0.8529568475 0.1339953202
0.5766430301 0.8281506917 0.1450639259
0.6410329799 0.8017708483 0.1570803772
0.702114801 0.777287609 0.1711415951
0.750823527 0.7550862743 0.1850178005
0.791190045 0.7380587576 0.2011477515
0.8246585363 0.7239660266 0.2202027516
0.8521943693 0.7106617097 0.239620275
0.8744215494 0.6970347105 0.2594175461
0.8929841121 0.6830201591 0.2761036865
0.9113638011 0.6702570097 0.2917655923
0.9255798412 0.6586953928 0.3083718037
0.4129190028 0.9048395036 0.109493083
0.4149603487 0.9053189985 0.1107209533
0.42187306 0.9061075507 0.1131780397
0.4366294224 0.9039554393 0.1184690936
0.4653304157 0.8969618968 0.1264282511
0.5090646819 0.8825572228 0.1364379137
0.5640354233 0.8605013149 0.1471408133
0.6248454734 0.8369657555 0.1594037864
0.6840146461 0.8146350678 0.1734368802
0.7330552047 0.7923877356 0.1865337295
0.7761011751 0.7727699596 0.2004697154
0.8126312375 0.7565548177 0.2180449799
0.8425667273 0.7429512973 0.2375702541
0.8670399987 0.7310457744 0.2573604534
0.8861776424 0.7199589951 0.2741293398
0.9048981709 0.7091572967 0.2893538425
0.920652509 0.6979284197 0.3052691533
0.430118807 0.9179555388 0.1125677336
0.4317708262 0.9184121309 0.1138723616
0.4373027407 0.9193518095 0.1164852684
0.44934049 0.9183142954 0.1218905881
0.4738620771 0.9132133819 0.1292688657
0.5090159861 0.9036528615 0.1387608958
0.5561173903 0.8896946116 0.1493024568
0.612341585 0.8690844992 0.1619888076
0.6671452993 0.8470407833 0.1758333021
0.716528908 0.8262803651 0.1888846643
0.7597804389 0.8071648926 0.2024509945
0.79907363 0.7905686226 0.2177369762
0.8323410852 0.775403878 0.2358138314
0.858627944 0.7616649494 0.2557506708
0.8795261632 0.7494498117 0.2727094641
0.8980597157 0.7387390452 0.2874840257
0.915604682 0.7290236045 0.3029035675
0.4457282125 0.9301038452 0.1160847421
0.4471748303 0.930529284 0.1174489392
0.4524150814 0.9313671514 0.1202927944
0.4634136591 0.9307456761 0.1254553245
0.4840425931 0.9271867357 0.1321277936
0.511953406 0.9201141843 0.1417635586
0.5521352354 0.9092346958 0.152519057
0.6019562274 0.8953612612 0.1650470617
0.6520303222 0.8778392039 0.1785322815
0.7020334847 0.8564163174 0.1913568285
0.7451853622 0.8379846499 0.2050958307
0.7846025911 0.8218750818 0.2201676449
0.8204984983 0.8067134336 0.2357922974
0.8495823662 0.7930277197 0.2544365078
0.8724923039 0.7802384109 0.2718833894
0.8913831175 0.768036555 0.2865800248
0.9098865454 0.7569712248 0.3017423874
0.4619964684 0.94057029 0.1199356579
0.4635733028 0.9409103715 0.1213382562
0.4684534264 0.9415119086 0.124331457
0.478143904 0.9412396055 0.1290056353
0.494461564 0.9389371572 0.1359819375
0.5168065151 0.9341696759 0.1447874615
0.55134991 0.9257053802 0.1552549203
0.5948475448 0.9143129457 0.1677776988
0.6407526933 0.9007304912 0.1810595561
0.6897888614 0.885072482 0.1942462663
0.7320572465 0.8666122356 0.2078812904
0.770784079 0.8495949625 0.2226945535
0.8067610135 0.83516792 0.2382699138
0.8392316706 0.8213667091 0.2540536005
0.8648229046 0.8087549041 0.270852095
0.8845356856 0.7969200952 0.2856786459
0.9034548869 0.7860000532 0.3008900972
0.4787761668 0.9494488783 0.1240227222
0.4801592384 0.9497005344 0.125428545
0.4843637819 0.9501360852 0.1284909315
0.4920068294 0.9503120481 0.132669737
0.5043912307 0.9490703488 0.1397600762
0.5233039479 0.9458505773 0.1478170703
0.5530696672 0.9395195851 0.1580384353
0.5909160983 0.9303003803 0.1711715397
0.6328919562 0.9184183575 0.1837040586
0.6793565727 0.9056516261 0.1967231049
0.7200577498 0.8919449458 0.2102406245
0.7581320266 0.8772292041 0.2253091902
0.7939814719 0.8614534232 0.240605055
0.826989534 0.8469389691 0.2562345725
0.8557593134 0.8345249036 0.270331857
0.8776815511 0.8230267101 0.2844489572
0.8964123646 0.8121367296 0.2998211168
0.4938315599 0.9568357597 0.1283223518
0.4949535503 0.957044154 0.1297239046
0.4982525996 0.957469996 0.1327744721
0.5040971542 0.9578871608 0.1366258857
0.5142177481 0.9571839501 0.1434332344
0.5308596179 0.955168245 0.1507370509
0.5568539948 0.9504582375 0.1617535421
0.5895400114 0.943549664 0.1740707769
0.6276025934 0.9338642537 0.1859470849
0.6698536588 0.9227142451 0.1992984309
0.7095108052 0.9102246027 0.2127960978
0.7468860758 0.8985143825 0.2274546235
0.7820493464 0.8861954328 0.2431248748
0.8147853961 0.8723587815 0.258261407
0.8446740926 0.8585496504 0.2717370198
0.8699095587 0.8462304932 0.2835490756
0.8894097091 0.835750836 0.2982484591
0.1099814851 0.1112604262 0.3029237215
0.2542149317 0.1101224495 0.3036249782
0.4401176027 0.1159475388 0.3689430109
0.5377347867 0.122969506 0.3945976308
0.6138059008 0.128631459 0.4024616186
0.6746291129 0.1325384609 0.4047180406
0.7215785022 0.1373697349 0.4076734316
0.7565328009 0.1435292905 0.4093927796
0.7881513205 0.1513234945 0.413349012
0.8152568955 0.1597440376 0.4194315397
0.8400415994 0.1677747587 0.4246965569
0.8613468595 0.1756258277 0.4305361729
0.8797828164 0.1853766763 0.4387762045
0.8959561173 0.1965587624 0.4476638139
0.9107365998 0.2084324784 0.456570214
0.9223112892 0.2213263297 0.4651860641
0.9311549835 0.2345386386 0.4742122341
0.1102295729 0.264089833 0.2683334003
0.2121095484 0.2175043305 0.2529221659
0.4497414283 0.1446483262 0.2383447106
0.5793769518 0.1280736581 0.2610905872
0.6634256268 0.1261913224 0.2840925566
0.7185530228 0.1281523679 0.3091178062
0.7579891174 0.1311794553 0.3284261639
0.7885051606 0.1364566188 0.3450529053
0.8154894386 0.1440327846 0.360331394
0.8399246139 0.1533458027 0.3744078473
0.8604631667 0.1628057855 0.3886790629
0.8771287039 0.1705176647 0.3990002687
0.892580786 0.1805624308 0.4102250043
0.9081192735 0.1925449909 0.4222261104
0.920454581 0.2047942345 0.4338284709
0.9295407549 0.2187853125 0.4447098189
0.9378271668 0.2328513988 0.4552641944
0.1198756845 0.4684863091 0.1642117045
0.1662735865 0.4503461505 0.1892608868
0.4077903842 0.3730451835 0.1672749328
0.5361014906 0.3126057661 0.1661241301
0.637219706 0.2565766655 0.1763776228
0.7103268731 0.2161940315 0.1918109573
0.7605625627 0.1946895149 0.2130502085
0.8002334759 0.1862558895 0.2400536323
0.8334768772 0.1833967684 0.2701562048
0.8594980354 0.18393769 0.2966969286
0.8796886415 0.1868800666 0.3237660059
0.8971530653 0.1929572367 0.346111966
0.9134442024 0.2004438665 0.3645822365
0.9249482996 0.2093743221 0.3809190232
0.9336102344 0.2195949002 0.395982694
0.9424139049 0.2313258895 0.4089031609
0.950831517 0.2432212556 0.4210065387
0.1477553958 0.5998510914 0.1204645236
0.175460434 0.5927238096 0.1402373703
0.3499954898 0.520230194 0.1470963405
0.5043168504 0.4581212501 0.1489290671
0.6038049899 0.4207213378 0.1580269155
0.6803463438 0.3866280003 0.1705035059
0.7372655057 0.3557227043 0.1860272873
0.7818883987 0.3290954711 0.2043353595
0.8201169583 0.3076675112 0.227055104
0.8516409836 0.294046298 0.2538039055
0.8759053642 0.2836661159 0.277437957
0.8963044343 0.2777763486 0.300969253
0.9155389677 0.2743611646 0.3256513134
0.9284368548 0.2740741547 0.3446442266
0.9391023505 0.2760894556 0.3612082561
0.9492593027 0.2799113862 0.3765888525
0.9572220953 0.2848697499 0.3918277881
0.1874307579 0.6864560319 0.1092341856
0.2087889222 0.6833348259 0.1185027134
0.3181041227 0.6432702672 0.1325857041
0.4564333632 0.5782464252 0.1408894637
0.5744235891 0.5256056024 0.1494732488
0.6543824068 0.4884147627 0.1621705711
0.715142419 0.4576841378 0.177120112
0.7615526736 0.4336220572 0.1931055759
0.8019707391 0.4138967907 0.2123640513
0.8371920949 0.398020685 0.2342766627
0.865207956 0.3830585607 0.2578067309
0.8873147097 0.3710811059 0.2792219962
0.9086191254 0.3623661542 0.3008080125
0.9247979139 0.3563662771 0.3223083453
0.9365692522 0.3521135308 0.3396418008
0.9481666986 0.3489020414 0.3548177203
0.9572144546 0.3471819525 0.3689139955
0.233760329 0.7390604186 0.1068640279
0.2467183956 0.7385779253 0.1119543589
0.3142490822 0.7209504464 0.1232958089
0.4239559488 0.6739963353 0.1348653035
0.5334848731 0.6219847798 0.1448008808
0.6299275434 0.580680187 0.1557727516
0.696833962 0.5439787281 0.1709223415
0.7443369287 0.5168365994 0.1864562531
0.7848719758 0.4939219812 0.203770386
0.8210200272 0.473447386 0.2233426619
0.8516248481 0.455727458 0.2445526845
0.8764382804 0.4421736818 0.2663819302
0.8978483904 0.4310305546 0.2856971201
0.9178328384 0.4214272462 0.3060233099
0.9309972466 0.413705408 0.3252133514
0.943110332 0.4076856004 0.3405815514
0.9540399303 0.4030660524 0.3542880993
0.2775322168 0.7789932978 0.1065957952
0.2865194213 0.7792733948 0.1100386631
0.3266699734 0.7687308458 0.1187241812
0.406450572 0.7386461712 0.1302439187
0.5019665823 0.7012865366 0.1418986391
0.5970534918 0.6594666983 0.1527217077
0.6758970419 0.6223043279 0.165796005
0.7296490627 0.5951201766 0.182172468
0.7709658815 0.5692552543 0.1988712168
0.8064436341 0.5460648012 0.2169684585
0.8384289592 0.5274334375 0.2365813888
0.8651868163 0.5100852834 0.2577110998
0.8869920116 0.4953640152 0.2768231804
0.9081607639 0.4820788534 0.2947343599
0.924650348 0.4703759464 0.3141018219
0.9368412907 0.4603785682 0.3305757857
0.9489280161 0.4527661507 0.3443894906
0.3143475402 0.8124718719 0.1074276983
0.3207312663 0.8133981341 0.1102311594
0.3449733853 0.808706989 0.1174572796
0.4017601343 0.7880390075 0.1276786411
0.4796813379 0.7556535276 0.1401810125
0.5653046297 0.7228816507 0.1514819619
0.6457414785 0.6888990957 0.163081268
0.711786606 0.6595620021 0.1778230641
0.7568644475 0.6348101649 0.1941951087
0.7940050411 0.6112375995 0.2114714077
0.8264013968 0.5940335042 0.229975972
0.8538549368 0.5753029848 0.250104449
0.8771058345 0.5564315623 0.2698670345
0.8974469557 0.5417709015 0.2866473526
0.9171271278 0.5289002968 0.3046111644
0.9303899007 0.5171616684 0.3219965711
0.9425553106 0.5068768226 0.336433701
0.3438784526 0.8405140406 0.1090742624
0.3480813979 0.8409376068 0.1113707444
0.3655310189 0.8381138325 0.1170090749
0.4053248394 0.825355933 0.1266045017
0.46490809 0.8021489081 0.138714459
0.5404481504 0.770198478 0.150273783
0.6199064098 0.7397228072 0.1627266001
0.6897749329 0.7148450551 0.1761913754
0.7417496965 0.6903688724 0.1907581254
0.7818430859 0.6687377462 0.2083359564
0.8157567971 0.65123742 0.226508864
0.8445271835 0.6333994707 0.2460797967
0.8685920099 0.6154618486 0.2654010042
0.8883571322 0.6013296517 0.2816835132
0.9083766161 0.5886281156 0.2980931956
0.9242616404 0.5735605677 0.3154230339
0.9361712985 0.5592160434 0.3300696722
0.3704386031 0.8642743412 0.1108800655
0.3738967555 0.8646873344 0.1129827374
0.3868486939 0.8636844791 0.1179045961
0.4140550379 0.8554726044 0.1266914048
0.4595224178 0.8389036759 0.1385065514
0.5234363486 0.8133714835 0.1498689229
0.5964320314 0.7847633147 0.1627031515
0.66495411 0.7567498355 0.1761011551
0.7227478432 0.7339941679 0.1889321565
0.7675904542 0.7156122092 0.2043619366
0.803769808 0.6983181503 0.2226780239
0.8349626015 0.6810530476 0.2416224888
0.8602617388 0.6656346734 0.2608487657
0.880698517 0.6521595091 0.2772818289
0.8996047223 0.6379397974 0.2928101409
0.9178130429 0.6231897028 0.3095383389
0.9303347656 0.6103871536 0.324746977
0.3941078206 0.8859639588 0.1131966621
0.3965139719 0.8862570494 0.1151683872
0.405273504 0.8859779451 0.1197619596
0.4252415899 0.8816502195 0.1279702919
0.4604251229 0.8690070054 0.1386989453
0.5138217534 0.8474897984 0.149580011
0.5776116154 0.8239009161 0.162790852
0.6421109089 0.7983010385 0.176508163
0.702668193 0.7741194722 0.1897537729
0.7510929917 0.7524505063 0.2029061198
0.7912633934 0.7360812266 0.2197812753
0.8246720489 0.7224485653 0.2390794249
0.8519374479 0.7091592736 0.258325452
0.874040478 0.6953699549 0.2748156607
0.8925311017 0.681320942 0.2896871712
0.91093071 0.6686324156 0.3054426155
0.9253086212 0.6571584616 0.3205706489
0.4131386073 0.9016750112 0.1158155595
0.4150905675 0.9019767992 0.1177287616
0.422008424 0.9023446542 0.1221426968
0.4371932097 0.9005040976 0.1299888682
0.4658104068 0.8928964915 0.1396642554
0.5097981787 0.8782997122 0.1504581855
0.5650753648 0.8565456717 0.1635629262
0.6257891123 0.8338975143 0.1772435881
0.6847323118 0.811740393 0.1906186267
0.7334531303 0.78973929 0.2033251075
0.776484141 0.77059858 0.2178195952
0.8128002758 0.7549527689 0.2358417241
0.8425043091 0.741488781 0.255325128
0.8667774757 0.7296881477 0.2723041857
0.8858296409 0.7185875806 0.2868345817
0.9044261856 0.7078439749 0.3021281289
0.9203175241 0.6964798467 0.3173589557
0.4304086757 0.9153696977 0.1190072756
0.4320861221 0.9158185698 0.1209574361
0.4376957796 0.9165309048 0.125413802
0.4497561962 0.9154232553 0.1323189034
0.4740765662 0.9098834862 0.1408867342
0.5097277741 0.9007757764 0.1516576542
0.5571895142 0.8865745261 0.1646477903
0.6133072012 0.8660136769 0.1785514226
0.6679622456 0.8444734305 0.1918977407
0.7170346756 0.8238184279 0.2047833717
0.7602724467 0.805235263 0.2190764996
0.7994779954 0.7889235415 0.2344775378
0.8323729158 0.7737260122 0.2526809062
0.858529125 0.760122102 0.2702735237
0.8793020293 0.7481100412 0.2847206543
0.8976881584 0.7375185084 0.2994961225
0.9152414757 0.727924485 0.3147862185
0.4461702867 0.928165838 0.1227842533
0.4476603604 0.9285529271 0.1246975992
0.4527571797 0.9290549702 0.1289089531
0.4635696084 0.9282024875 0.1348456744
0.4844128191 0.9242706532 0.1429650868
0.5126586407 0.9176520758 0.1539767923
0.5531352704 0.90701486 0.1669443529
0.602984462 0.893262215 0.180389009
0.6528861966 0.8751856552 0.1934623419
0.7025498869 0.853972171 0.2065757565
0.7457545585 0.836265434 0.2209375279
0.785080351 0.8202799125 0.2360654034
0.8207135561 0.8051081904 0.2517175082
0.8495550513 0.7915362779 0.268526091
0.8723708172 0.7787684715 0.2833090651
0.891149589 0.7666814968 0.298007777
0.9096067739 0.7558499951 0.3133540294
0.4624169977 0.9389474734 0.1267035189
0.4639132052 0.9391907517 0.1284544159
0.4685914567 0.9395368731 0.1322820653
0.4782627583 0.9391621354 0.1376230046
0.4949108381 0.9367838934 0.145832365
0.5174360728 0.9322141114 0.156210021
0.5522434518 0.9238260091 0.1687443552
0.5958260797 0.9124886309 0.1817916601
0.641490318 0.8988249054 0.1950349326
0.6903473032 0.8830171325 0.2086370797
0.7326613613 0.8648270561 0.2228957982
0.7712745506 0.8481074106 0.2379165251
0.8070377654 0.8336802929 0.2534998401
0.839358426 0.8199031129 0.2674766347
0.8647405836 0.8073595249 0.2818969927
0.884401215 0.7956018077 0.2966701902
0.9032691017 0.7848369093 0.3121080477
0.4790151954 0.9480613353 0.1306496724
0.4803445103 0.9482640492 0.1322443055
0.4845267595 0.9486511706 0.1359077168
0.4922427329 0.948783646 0.1409074177
0.5048539617 0.9475405072 0.1488150359
0.5239196864 0.9443113998 0.1585596765
0.5539205848 0.9378512009 0.1709249647
0.5917703108 0.9286371283 0.1841393725
0.6334585559 0.9167287212 0.1967539083
0.6798790747 0.9041440541 0.2104717076
0.7206791473 0.890678047 0.2245410808
0.7585938761 0.8755746957 0.2398183755
0.7942252623 0.8599145031 0.2553294017
0.8271554978 0.8455753064 0.268831842
0.8558048572 0.8332131353 0.2808705578
0.8775800816 0.8217273481 0.2951062367
0.8963164938 0.8110227299 0.3106983104
0.4940747378 0.95576114 0.1347447424
0.4952079521 0.9559816333 0.1362987122
0.4984977026 0.9564176496 0.139770887
0.5044288115 0.9567402498 0.1445920664
0.5146320046 0.956134149 0.152093811
0.5314713516 0.9539019523 0.1612810764
0.5575755969 0.9492365076 0.1736471506
0.590239197 0.9421634857 0.1859353992
0.6281228864 0.9323858808 0.1980708925
0.670515046 0.921366901 0.2123637847
0.7101195447 0.909070254 0.2262447745
0.7473286073 0.8973067253 0.2412352438
0.7823782147 0.8848415761 0.2569561272
0.8149618933 0.8708763138 0.2702433327
