app/src/main/assets/spektrafilm/profiles/kodak_ultramax_400_film.cube
# ============================================================================
# spektrafilm LUT
# Bundle:  spektrafilm_v033_ultramax400_8printpack_2lut_prophoto_prophoto  (2lut, 17^3)
# Film:    kodak_ultramax_400
# Print:   fujifilm_crystal_archive_typeii, kodak_2383, kodak_2393, kodak_ektacolor_edge, kodak_endura_premier, kodak_portra_endura, kodak_supra_endura, kodak_ultra_endura
# Input:   ProPhoto RGB  (cctf on)
# Output:  ProPhoto RGB  (cctf on)
# Created: 2026-06-02T06:13:09Z
# spektrafilm: 0.3.3
# Project: https://github.com/andreavolpato/spektrafilm
#
# Copyright (c) 2026 Andrea Volpato. Generated by spektrafilm. Licensed under CC BY-SA 4.0.
#
# License: spektrafilm LUT by Andrea Volpato, licensed under CC BY-SA 4.0.
#          Full text and attribution requirements in SPEKTRAFILM_LICENSE.txt
#          (shipped in this bundle); also at
#          https://github.com/andreavolpato/spektrafilm/blob/main/SPEKTRAFILM_LICENSE.txt.
#
# Citation: If you use this LUT in your work, please cite the spektrafilm
#           project: https://github.com/andreavolpato/spektrafilm, see
#           CITATION.cff for details.
#
# Notes: Generated by the spektrafilm LUT bundle builder. Apply with trilinear
#        or tetrahedral interpolation in your host (DaVinci Resolve, Nuke,
#        OCIO-aware DCC). The input and output color spaces are declared in
#        bundle.json; do NOT apply this LUT to a signal in a different color
#        space.
#
# Role:    film  (domain=input_rgb → range=cmy_film)
# File: lut_v033_ultramax400_film.cube  (see sibling bundle.json for full metadata)
# ============================================================================
TITLE "v033_ultramax400_film"
DOMAIN_MIN 0 0 0
DOMAIN_MAX 1 1 1
LUT_3D_SIZE 17
0.1006643849 0.105764146 0.09493070059
0.3944900967 0.1060861932 0.0959304803
0.5613845879 0.1066567622 0.1036116584
0.6646516926 0.108470437 0.1218434693
0.7306861379 0.1116666122 0.1472538214
0.7803275552 0.1148864942 0.1757671271
0.8160765622 0.1195667074 0.2068540485
0.8465760057 0.1242408345 0.2358879109
0.8694033223 0.1290437847 0.2663208164
0.8881597971 0.134184038 0.2911444732
0.9037539542 0.1402203238 0.3129171248
0.9161959279 0.1469513999 0.3329369366
0.9279202568 0.1531961302 0.3515446871
0.9360946495 0.1590779075 0.3685809366
0.9428650324 0.1659584831 0.3823311579
0.9504593878 0.1745766649 0.3948797744
0.9571641011 0.183672642 0.4070769596
0.1023905903 0.3195447419 0.09493070059
0.2124522878 0.2745657322 0.09542088285
0.4652082675 0.1824203539 0.09780004898
0.5895270712 0.1541594109 0.1043272855
0.6795018349 0.14500086 0.1158193851
0.7411531907 0.1416154571 0.1326491223
0.7900370174 0.141953047 0.1555421454
0.8248356028 0.1437850781 0.1810993655
0.8562770674 0.1466772051 0.2112681462
0.8772051039 0.1503303123 0.2385170035
0.8967773742 0.154254952 0.2684050795
0.9104842376 0.1588584759 0.2949627346
0.9237647994 0.1644096433 0.3180929692
0.9334738768 0.1708141383 0.3378917616
0.9404115395 0.178105875 0.35711904
0.9480265443 0.1864318576 0.3746551658
0.9554459527 0.1946250107 0.3890654785
0.1183409949 0.5236201804 0.09524941678
0.1593729857 0.524423834 0.09561581986
0.372660368 0.4448023437 0.09779581636
0.5185229355 0.3797593531 0.1023255327
0.6189929258 0.3259971561 0.1092983927
0.6894094849 0.2835319518 0.1202387445
0.742789487 0.2517109247 0.1328779134
0.7876053896 0.234097893 0.1497218479
0.8211461565 0.2234775157 0.1684245444
0.8523621057 0.2171661432 0.1912149945
0.8737418419 0.2138346051 0.2171250651
0.8935664328 0.2128087344 0.2415400883
0.9085180786 0.2143545509 0.2706944316
0.922058654 0.2171236656 0.2960337374
0.9327738382 0.2201672745 0.3175535493
0.9402821484 0.2242583378 0.3375891648
0.9483054802 0.2290363351 0.3572150951
0.1536980098 0.6366445254 0.09538775276
0.1787589094 0.6455304679 0.09595760117
0.3163579438 0.5925333313 0.09816199816
0.4572158104 0.5336796106 0.1027220323
0.5662667503 0.4841332059 0.1088236688
0.6475083422 0.4451488953 0.1171034204
0.7058408845 0.4105847814 0.1274262307
0.7532025078 0.3823799666 0.1400868556
0.7928015635 0.3573260543 0.1549656829
0.8234255572 0.3377903867 0.1715807341
0.8530156674 0.3237939051 0.1912219695
0.8732870937 0.3117335216 0.2137307294
0.8925885291 0.3032013463 0.2351089425
0.9074985987 0.2981236614 0.2602372573
0.9205616298 0.2948206069 0.2844035043
0.9317252656 0.2927200139 0.3043403023
0.9393968195 0.2928342717 0.3238645213
0.1990081379 0.7184395578 0.09592067711
0.2182364797 0.7265143908 0.09646271126
0.3001723966 0.699546247 0.09863087925
0.4140915223 0.6425045828 0.1033153412
0.514269935 0.5950786083 0.1091092163
0.601896337 0.5542210183 0.1172697854
0.6730252236 0.519814063 0.1264058845
0.7236931443 0.4881760443 0.1365573651
0.7667332642 0.4644352531 0.1497733066
0.8019054547 0.4440036007 0.1640823768
0.8295842674 0.4266355613 0.1805814426
0.8565536664 0.4099088162 0.1990596691
0.8753572997 0.3969975008 0.2192961837
0.8940938932 0.3879766719 0.2386445303
0.9081014614 0.3810948912 0.2614094996
0.9205858525 0.3744602918 0.282888082
0.9315229121 0.3685306908 0.3012796343
0.246519423 0.7720700912 0.09660195408
0.2594313726 0.7772511081 0.09728409414
0.3091785305 0.7680936165 0.09932380096
0.3949796765 0.7333893193 0.1040178882
0.4805473284 0.6862855148 0.1097776031
0.5625180348 0.6429532635 0.1176325949
0.6362728334 0.6086962517 0.1267327512
0.693587629 0.5741830294 0.1357674255
0.7402225798 0.5486660751 0.1473805951
0.779913039 0.5264290549 0.1600965485
0.8109528879 0.5053572994 0.1743356247
0.8371734477 0.487060966 0.1902790003
0.861461674 0.4728088765 0.2092029786
0.8788800023 0.4606597266 0.2276362054
0.8967740588 0.4503899572 0.2460639137
0.9093978791 0.4419040885 0.2670313372
0.9214343738 0.4342198983 0.2856472508
0.2900701557 0.8137439955 0.09752699345
0.298261364 0.8175837784 0.09806408699
0.3277116939 0.8152629272 0.1002870373
0.3879195419 0.7908977848 0.104690159
0.4616842139 0.7566152978 0.1105656738
0.5311656202 0.7205172738 0.1183888418
0.5996123184 0.6842526311 0.1268763856
0.6629569728 0.6502606899 0.1365128171
0.7137079678 0.6234688895 0.1474040824
0.7569956641 0.597959667 0.1589386848
0.7923742631 0.5759241334 0.1717718118
0.8199105645 0.557639618 0.1862177621
0.846040536 0.5409587051 0.2030969646
0.8669164125 0.5265679292 0.2208872503
0.8840433294 0.5134260715 0.2373290716
0.8999631328 0.501637195 0.2565396964
0.9116561939 0.4912845264 0.2754766773
0.3249562017 0.8469760886 0.09851507085
0.3301769027 0.8496485899 0.0992472009
0.3496739382 0.8491305718 0.1015256644
0.3910373761 0.8358263777 0.1056122789
0.4484661532 0.8098469267 0.1114961262
0.5108543934 0.7768032844 0.1195729262
0.5745810244 0.7475544202 0.1276863826
0.6354559002 0.7181101348 0.1369393291
0.6864086625 0.6881927039 0.1480103955
0.7321062159 0.6628591285 0.1589257128
0.7719124782 0.6386463069 0.1705840188
0.8035731438 0.6208909221 0.183591932
0.829029134 0.6013981022 0.1989326432
0.8545580573 0.5838965427 0.2158103294
0.8721311219 0.5704906283 0.2313642493
0.889339213 0.5585716485 0.2482224568
0.9033741362 0.5474465159 0.2671161743
0.3537667118 0.8712256319 0.09983151038
0.358103454 0.8730402187 0.1006818168
0.3724810113 0.8738581325 0.1029024885
0.3997304337 0.8664339296 0.1066019313
0.4429674691 0.849313692 0.1123083676
0.4965867522 0.8236133252 0.1203146249
0.5541754538 0.7943632654 0.1284323176
0.6093463418 0.767250787 0.1372412171
0.6625580539 0.7443727991 0.1479857804
0.7076947288 0.7206922509 0.1593500042
0.7491865992 0.6968670498 0.1709822526
0.7852752447 0.6771123747 0.1834979468
0.8141922977 0.657856552 0.1980828213
0.8393342718 0.6398457396 0.2139525777
0.8619798469 0.6265995778 0.2287124744
0.8781011587 0.6135183013 0.2440220608
0.8947691217 0.5995062592 0.2615366676
0.3796518136 0.8930887876 0.1014840446
0.3825201863 0.894464634 0.1023698134
0.3918431107 0.8956586881 0.1043588414
0.4108371023 0.8915619335 0.107757126
0.4443646371 0.8784504004 0.1135401894
0.4886756642 0.8588754942 0.121275684
0.5397375324 0.8359683738 0.1293191827
0.5903447651 0.8114576739 0.138650842
0.6424452302 0.7876819335 0.1489595224
0.6868509741 0.7658467715 0.1594681708
0.7273973529 0.7468643318 0.1714363825
0.7654745581 0.7282542576 0.1840707471
0.7979981284 0.7086022365 0.1979059252
0.8237671288 0.6911071066 0.2125466754
0.8489191738 0.67632489 0.2263212986
0.8679132052 0.6609517245 0.2401623168
0.8842793345 0.6463407448 0.2563702419
0.3998556626 0.9083275064 0.1032424357
0.4020009695 0.9090928663 0.1040703189
0.4089333951 0.9101617124 0.1057932471
0.4227247081 0.9083444035 0.109105732
0.4501626272 0.9011695082 0.1145809808
0.4856478357 0.8873915616 0.1221483367
0.5302537591 0.8671264708 0.1301370366
0.5779633191 0.8470583949 0.1396826255
0.6256963348 0.8266840382 0.1501144649
0.668519124 0.8054729312 0.1597633997
0.7082099862 0.7853014495 0.1711741501
0.7455003055 0.7680166125 0.1846101855
0.7802303884 0.7522695743 0.1985848028
0.8094083535 0.7373234159 0.2130743483
0.8338176765 0.7216986061 0.2260628211
0.8575968796 0.7063665511 0.2389855867
0.8740789754 0.6928038431 0.2540088739
0.4172481333 0.9204015146 0.1050469352
0.4189614528 0.9210253748 0.1058481433
0.4243727578 0.9220550024 0.1074508767
0.4362037692 0.920766722 0.1109693056
0.4588938149 0.9158888409 0.1163840781
0.4863155096 0.9075224748 0.12361892
0.5246453983 0.8943468691 0.1313372647
0.5684051598 0.8760501564 0.1410833389
0.611165229 0.8578980661 0.1514315239
0.6531265647 0.8395464136 0.1610970085
0.691614369 0.8216322812 0.1716297709
0.7284040557 0.804851542 0.184414076
0.7627919162 0.788080969 0.1990271093
0.7936939941 0.7726575472 0.2135097923
0.819325276 0.7588199133 0.2261378204
0.8440647546 0.7462169221 0.2383648937
0.8646092381 0.7340492801 0.2522548263
0.4338751617 0.9308294638 0.1068936741
0.4353871396 0.9312175322 0.107691202
0.4405906927 0.9319415437 0.1093855198
0.4512076547 0.9312143005 0.1129409719
0.4680854291 0.9281223646 0.1180643861
0.4896010911 0.9220067769 0.1248969663
0.5223171233 0.9124702241 0.1325733462
0.5611545993 0.9007166638 0.1424301218
0.5997608905 0.8851950216 0.1526705884
0.6413673868 0.8675552638 0.1628159364
0.6779823222 0.8517588798 0.1735113454
0.7133342152 0.8368237577 0.185198072
0.7470398344 0.8224368818 0.1995325507
0.7783804397 0.8076218861 0.2143887191
0.8059968356 0.7926800705 0.2272404589
0.8294679183 0.7787081491 0.2391729123
0.8538104951 0.7665883123 0.2525478553
0.4511002918 0.9392473093 0.1088498616
0.4525239631 0.939580039 0.1096891604
0.4569997851 0.940246179 0.11156942
0.4650104432 0.9400636149 0.1150508891
0.476987049 0.938268273 0.1198814345
0.4950629126 0.9337185034 0.1265808571
0.5227165636 0.9263282724 0.134390799
0.5565413717 0.9169121508 0.144136396
0.5919549469 0.9059970264 0.1540609736
0.6317946626 0.8930169927 0.1643941087
0.6666588207 0.8772679283 0.175226395
0.7000113879 0.8631819514 0.1872446981
0.7332850248 0.8505646445 0.2003521414
0.7644837743 0.8375056587 0.2148403446
0.7925847814 0.8245429581 0.2282377543
0.8167788137 0.8114455346 0.2405147507
0.8402828896 0.7985694061 0.2538376737
0.4664755772 0.9464275683 0.1111151424
0.4675952264 0.946717645 0.112001122
0.4709263796 0.9472854424 0.1140590471
0.4765097611 0.9474006363 0.1173067272
0.4859344707 0.9461647169 0.1222298124
0.5018504983 0.9431593175 0.128207089
0.5251421792 0.9376487695 0.135872455
0.5544066742 0.9303046037 0.1454358702
0.5865077437 0.9208607388 0.1553134212
0.6237465755 0.9107564298 0.1659936488
0.6571215066 0.8996609216 0.1768709289
0.6894935439 0.8876190126 0.1890440764
0.7209149561 0.8743706117 0.2025613208
0.7514892539 0.862176911 0.2155280585
0.7800785511 0.8508672264 0.2285506106
0.8052358973 0.839318444 0.2415182018
0.827228344 0.8276891628 0.2551607265
0.4788538238 0.9522666037 0.113684757
0.4796999274 0.9524645294 0.1145860943
0.4822514318 0.95284301 0.116745168
0.4870414916 0.9530441119 0.1196606781
0.4956064312 0.9521830894 0.1244522436
0.5096305829 0.9502205076 0.1299535163
0.5291730739 0.9466086596 0.1374513457
0.554545843 0.9410465495 0.1472822915
0.5834064405 0.9333362599 0.1567911915
0.6168906494 0.9247193002 0.1672450123
0.6493280586 0.9150255441 0.1781930542
0.6807734262 0.9059595896 0.1909639761
0.7104163511 0.8961143113 0.2043178908
0.7395264687 0.8850128095 0.2174483517
0.7684339938 0.8730871414 0.2288258502
0.7940569261 0.8623739297 0.2417340574
0.8162471739 0.8521951119 0.2559023667
0.4902859477 0.9569603112 0.1164033708
0.4910936372 0.9570963202 0.117310674
0.4935040513 0.9573700313 0.1194514956
0.4980724801 0.957607541 0.122060207
0.5059314072 0.9570161695 0.1266657082
0.5180390409 0.9557425146 0.1316264727
0.5344285651 0.9532216286 0.1399018878
0.5565474868 0.9493681701 0.148973025
0.5819603683 0.9437243279 0.1580938031
0.6119616386 0.9366689768 0.1688415363
0.6431813197 0.9282679566 0.1799833598
0.6732032985 0.9199139218 0.1926253081
0.7014493107 0.9114805877 0.2062585839
0.7297523964 0.903242112 0.2191564838
0.7570234407 0.8939794112 0.2305072101
0.7834609355 0.883771224 0.2419170264
0.8065155416 0.8732575561 0.2559550733
0.1010371051 0.1104478209 0.2685151868
0.3124224779 0.1076641277 0.2640220409
0.5099235364 0.1089719187 0.336700111
0.6244776285 0.1116785084 0.3650697997
0.7006915094 0.1142077359 0.3685151307
0.7560337131 0.1175954521 0.3686710193
0.7998834849 0.1215219037 0.3707810823
0.8331747237 0.1257237139 0.3711349152
0.8625116343 0.1303054551 0.3748274966
0.8821567055 0.1351391259 0.3800302171
0.9006949326 0.1407973683 0.3850995373
0.9139832082 0.1466320441 0.3916674203
0.9261130756 0.1526146826 0.4001852099
0.9348944711 0.1590204494 0.4087196536
0.9419318184 0.1660742617 0.417577853
0.9496303836 0.174221845 0.4259134646
0.9567275328 0.1826029126 0.4344500827
0.1029817491 0.2975230382 0.229734531
0.218881767 0.2578838784 0.205413006
0.4574271589 0.16638284 0.1961362149
0.5847033089 0.1382027088 0.2166753009
0.6768984752 0.1308063303 0.2345536472
0.7396842003 0.1300151609 0.2545730282
0.7895813254 0.1317622201 0.2741237907
0.8254775211 0.1352747485 0.2919495032
0.8564546076 0.1396780827 0.3079281308
0.8770922792 0.1449291008 0.3235711432
0.8965615295 0.150561072 0.3394976923
0.9111324903 0.1548424922 0.3523738713
0.9240414779 0.1603109773 0.3680460062
0.933135616 0.1673886979 0.381776314
0.9400480309 0.1758165408 0.3939455857
0.9476655525 0.1848593055 0.4060387547
0.9551462532 0.1928900253 0.4169103256
0.1226820502 0.5150653124 0.1457591918
0.1697781007 0.5015371645 0.158755479
0.3865829637 0.4243770401 0.1431803938
0.5225650966 0.3580412291 0.1406425144
0.6183098177 0.3007562616 0.1478502022
0.6886739812 0.2576401395 0.1591348563
0.742207412 0.2304148849 0.1741491941
0.7878528688 0.2167744611 0.1943551097
0.8219182218 0.2084553148 0.2181430849
0.8530745817 0.2038868394 0.2407837957
0.8741767579 0.2019768494 0.2667315975
0.8944317424 0.2028483296 0.2914239558
0.9091415955 0.2053167972 0.3130837786
0.9227706774 0.2088105551 0.3326651947
0.9334172506 0.2128105674 0.3503253228
0.9410148632 0.2181185652 0.3679245259
0.9490399227 0.224083926 0.3824087294
0.1619652563 0.6328856542 0.1132110682
0.1866909657 0.6302420104 0.1250418283
0.3231773902 0.5744469346 0.1303699153
0.4659006484 0.5172358895 0.1314201185
0.5708238782 0.4708996327 0.1360303081
0.6485283938 0.4328944802 0.1442606564
0.7051341335 0.3965180804 0.1544485605
0.7527628713 0.3687565842 0.1675635611
0.7928476107 0.3437268876 0.1840461187
0.8235697719 0.3256928919 0.2036227467
0.8530522088 0.3107326475 0.2235387015
0.873671485 0.300147028 0.2434992148
0.8930869594 0.2926009149 0.2683960114
0.9078659311 0.288447003 0.2908338659
0.9209166403 0.2858640775 0.310357533
0.931978268 0.2844885538 0.3285293954
0.939645295 0.2854164656 0.34686505
0.2071537279 0.7140228366 0.1052764584
0.2247301785 0.7155420803 0.1108618844
0.306146347 0.683797027 0.1203865152
0.4167880996 0.629528557 0.1265622489
0.5194733724 0.581650571 0.1322353289
0.6064910117 0.5434200026 0.1396952788
0.6739270283 0.5095885664 0.1486214533
0.7240256331 0.4802184913 0.1592449272
0.7668722936 0.4569237204 0.1724989682
0.8018748268 0.4368390721 0.1877888569
0.8294429509 0.4185252976 0.2058552917
0.8566784689 0.40223682 0.2240826864
0.8757153311 0.3909106057 0.2427189925
0.8944298938 0.3820625182 0.264133669
0.9083620993 0.374833522 0.2846597374
0.9208275733 0.3676178989 0.3023282221
0.9317055284 0.3619253296 0.3191883596
0.2519995622 0.767595674 0.1036537047
0.2641250944 0.7697203363 0.106714587
0.3129505536 0.7572647718 0.1142024516
0.3967447398 0.7198373718 0.1226450767
0.4816616604 0.6751148811 0.1298565093
0.5656981001 0.6337409718 0.1375645342
0.6392195847 0.5984444245 0.1465884787
0.6952232398 0.5677084411 0.1556674572
0.7411373826 0.5428508286 0.1668828086
0.7802125868 0.5206301052 0.1800909736
0.8108545172 0.4993373307 0.1951808843
0.8372203981 0.4822721489 0.2125572765
0.8616780819 0.4683365858 0.2293541252
0.8790637613 0.4561236967 0.2470315366
0.896930668 0.4461577403 0.2673162909
0.9095538042 0.4377587903 0.2856395889
0.9216056909 0.4301251473 0.3013899758
0.2931524717 0.8089980293 0.1033897024
0.3008861769 0.8112629058 0.1055456008
0.3295436854 0.8062152767 0.1112576312
0.3891106032 0.7798526201 0.1194442516
0.4621459251 0.7473760428 0.1278046333
0.5319515114 0.7106006402 0.1359997009
0.6014460319 0.6761294001 0.1449799545
0.6653408367 0.6423861684 0.1547610534
0.7155839304 0.6187357246 0.1649762618
0.757936168 0.5923461554 0.1767915636
0.7926826952 0.5715685076 0.1899732511
0.8201764182 0.5536469194 0.2060682169
0.8463572632 0.5373779463 0.222115464
0.8670625829 0.5229069321 0.2373841619
0.8841758343 0.509653912 0.2552301751
0.9000617103 0.4979903008 0.2742125667
0.911723228 0.4877836495 0.2903830933
0.3266476263 0.8431049714 0.1040078814
0.3314519359 0.8447546524 0.1057493209
0.3505321627 0.842224868 0.1102300402
0.3914623856 0.8272767897 0.1174813967
0.448955187 0.8010412949 0.1264811763
0.510961149 0.769330516 0.1352180153
0.5751216072 0.7410081264 0.1445494835
0.6370873302 0.7116648726 0.1542492911
0.6883948893 0.6832815359 0.1644033678
0.7336234421 0.6576614113 0.1753006929
0.7727324709 0.6350295841 0.1872476516
0.804216718 0.6178541324 0.2014352249
0.8294935744 0.5978600374 0.2168379615
0.8548158594 0.5810624153 0.2312691344
0.8722862721 0.567748532 0.2467545076
0.8894838329 0.555794233 0.2647558013
0.9034425066 0.5446915448 0.2816094599
0.3547953285 0.8674788316 0.1048705671
0.3588265475 0.8686906385 0.1062996818
0.37267016 0.8682406868 0.1099885858
0.3996885621 0.8599019818 0.1168239399
0.443326828 0.8429038918 0.125374765
0.4965254538 0.816812798 0.1340205679
0.5543321166 0.7882103534 0.1438109293
0.6102332239 0.7627232911 0.1533081067
0.6638150868 0.7399410647 0.1632482049
0.7091534776 0.7159478999 0.1746811902
0.7506139963 0.6930896102 0.1866392976
0.7863952917 0.6743168274 0.2001450156
0.8148374005 0.6548123983 0.2149024717
0.8398312341 0.6375368333 0.2285069322
0.8622477256 0.6243926563 0.2427047408
0.8782853325 0.6107722144 0.2590702532
0.8948797577 0.5967016321 0.2756577504
0.3801238664 0.8899967111 0.1060148639
0.3827105896 0.8908332884 0.1073591161
0.3916341957 0.891111485 0.1105809202
0.4106080241 0.8862733199 0.1166811309
0.4443587279 0.87285039 0.1248169633
0.4885193995 0.8535072241 0.1333241595
0.5397343796 0.8309311472 0.1434898616
0.5906692098 0.8070644107 0.153455076
0.642974992 0.7834854281 0.1633379528
0.6877180843 0.7622636065 0.1740363983
0.7286988402 0.7438781127 0.1863997638
0.7669028718 0.725286324 0.1998972259
0.799083868 0.7058729256 0.2137464923
0.8243949667 0.6887507304 0.226353986
0.8494054691 0.674255515 0.2390566742
0.8681458825 0.6585394197 0.2538956737
0.8844842561 0.6439675864 0.2702127301
0.3999241758 0.9059785036 0.1073616243
0.4018662462 0.9064948335 0.108639655
0.4085341025 0.9069604233 0.1117147397
0.4225412074 0.9049235413 0.1173998861
0.449847248 0.8971685925 0.1246656824
0.4854736332 0.882251522 0.1327975276
0.5302402763 0.8630572273 0.143040991
0.5781022753 0.843485382 0.1533355984
0.6259401347 0.8232252098 0.1636347291
0.6689418571 0.8017725495 0.1734576961
0.7091314976 0.7822970556 0.1854983217
0.7467873651 0.7657613935 0.199801812
0.7813912974 0.7501688719 0.2136843902
0.8102472418 0.7352126897 0.2261027801
0.834510309 0.719560131 0.2380042934
0.8579719837 0.704265534 0.2518242835
0.8743503173 0.6910083233 0.2673695616
0.4170860319 0.9181966307 0.1090469742
0.4186646745 0.9186471603 0.1102926607
0.4239716743 0.919349288 0.1133415463
0.4359032746 0.9180761886 0.1185988047
0.4582990494 0.9127760141 0.125180029
0.4861176748 0.9044014482 0.1332619296
0.5246555015 0.8909782478 0.1433604433
0.5685335915 0.8727944983 0.1536675421
0.6113194513 0.855081222 0.1640385238
0.6532293558 0.8365271176 0.1741797826
0.6922161175 0.8191530276 0.1852675676
0.7293265476 0.802554037 0.1990131192
0.7638000909 0.7858708009 0.2135185944
0.7946449906 0.7707614687 0.2259874789
0.8200488827 0.7571004149 0.2374459438
0.8446984281 0.7446514078 0.2505886211
0.86493405 0.7325019522 0.2650533487
0.4335735837 0.9289720164 0.1110288088
0.4350720025 0.9293362003 0.1122439258
0.4401742574 0.929855719 0.1152132546
0.4506670076 0.9289858724 0.119844448
0.4674919696 0.9255098516 0.1258326847
0.489368623 0.9195267593 0.1337627022
0.5223142212 0.9101831349 0.143666451
0.5612409391 0.8984598407 0.154075077
0.5997763732 0.8822881151 0.1645612974
0.6413797531 0.8649400587 0.1753023585
0.6783901063 0.8497732453 0.1866456887
0.7140122075 0.8349306966 0.1991730913
0.7477758974 0.8205300068 0.2135756154
0.7792102213 0.8057542925 0.2264181166
0.8067394826 0.7908853419 0.2381909786
0.8301652811 0.7771513187 0.2508789384
0.8543961432 0.7652409378 0.2647706233
0.4509052447 0.937799848 0.113172136
0.4522834483 0.9380816806 0.1143576068
0.4565638771 0.9384937694 0.1171918957
0.4644645475 0.9381591246 0.1213086511
0.4765442856 0.9361076619 0.1271095919
0.4948317277 0.9316889454 0.1350227482
0.5226866572 0.9243790336 0.1447158366
0.5565712134 0.9150387003 0.1548112968
0.5919251249 0.9040063912 0.1651811267
0.6317916382 0.8908430989 0.1762461108
0.6669859605 0.8754050619 0.1878152069
0.7004342983 0.8616021087 0.2007444708
0.7338129396 0.848946972 0.2138199507
0.7650921969 0.8358726041 0.2264951452
0.7932557156 0.8229800702 0.2389388626
0.8173947809 0.8099177956 0.2518070371
0.8410105659 0.7971264021 0.2656388756
0.466284416 0.9452647188 0.115519301
0.467304404 0.9454610535 0.116692255
0.470484815 0.9458341663 0.1193730649
0.4760388682 0.9458799582 0.1231051314
0.4855657236 0.9445936404 0.1287931045
0.5015749199 0.941546468 0.1361645427
0.5250681695 0.9361013242 0.145418412
0.5543685546 0.9286790704 0.1552211571
0.5864575447 0.9191548355 0.1657554479
0.6237960945 0.9092602837 0.1771999222
0.6573764507 0.8983770563 0.1888819997
0.6897760189 0.8859772537 0.2022200668
0.7212649524 0.8728661869 0.215315398
0.7519636246 0.8608027702 0.2266843843
0.7805812719 0.8495167496 0.2389711262
0.8057552882 0.8379465254 0.2525123599
0.8278601601 0.8264573752 0.2666032272
0.478542819 0.9512623317 0.1180354827
0.479335648 0.9514122204 0.1191870275
0.4818004468 0.9517184098 0.1216963995
0.4865976501 0.9518725405 0.1251380392
0.495258478 0.9510440903 0.1305397178
0.5093628318 0.9491383629 0.1373399666
0.529088857 0.9453377339 0.1465423161
0.5544312242 0.9396236088 0.1564305117
0.5833253328 0.9318994712 0.1665486336
0.6169510603 0.9234517988 0.1779653876
0.6495410512 0.9139359687 0.1897962352
0.6809771193 0.9048084619 0.203498423
0.7106262512 0.8948434619 0.2164610962
0.7398185066 0.8836265402 0.228111848
0.7688426979 0.8717993929 0.2387983908
0.7944705121 0.8612187597 0.2524615703
0.8167348636 0.8511385792 0.2670492486
0.4898821043 0.956105147 0.1206432294
0.4906820029 0.95622644 0.1217245165
0.4930919553 0.9564928408 0.12408928
0.4976492178 0.956646635 0.1273202844
0.5055932973 0.9561350841 0.1323964717
0.5178029459 0.9548311064 0.1390527759
0.5342964818 0.952252587 0.1482175505
0.5563580598 0.9483752591 0.1574168407
0.5818883813 0.9426268301 0.1672397695
0.6120797819 0.9356017654 0.179050511
0.6433571789 0.9272655396 0.1910802914
0.6733746734 0.9189223805 0.2045072368
0.70163041 0.9105522189 0.2176698456
