app/src/main/assets/spektrafilm/profiles/kodak_ektachrome_100_film.cube
# ============================================================================
# spektrafilm LUT
# Bundle:  spektrafilm_v033_ektachrome100_portraendura_1lut_prophoto_prophoto  (1lut, 17^3)
# Film:    kodak_ektachrome_100
# Print:   kodak_portra_endura
# Input:   ProPhoto RGB  (cctf on)
# Output:  ProPhoto RGB  (cctf on)
# Created: 2026-06-02T06:53:56Z
# spektrafilm: 0.3.3
# Project: https://github.com/andreavolpato/spektrafilm
#
# Copyright (c) 2026 Andrea Volpato. Generated by spektrafilm. Licensed under CC BY-SA 4.0.
#
# License: spektrafilm LUT by Andrea Volpato, licensed under CC BY-SA 4.0.
#          Full text and attribution requirements in SPEKTRAFILM_LICENSE.txt
#          (shipped in this bundle); also at
#          https://github.com/andreavolpato/spektrafilm/blob/main/SPEKTRAFILM_LICENSE.txt.
#
# Citation: If you use this LUT in your work, please cite the spektrafilm
#           project: https://github.com/andreavolpato/spektrafilm, see
#           CITATION.cff for details.
#
# Notes: Generated by the spektrafilm LUT bundle builder. Apply with trilinear
#        or tetrahedral interpolation in your host (DaVinci Resolve, Nuke,
#        OCIO-aware DCC). The input and output color spaces are declared in
#        bundle.json; do NOT apply this LUT to a signal in a different color
#        space.
#
# File: lut_v033_ektachrome100_portraendura.cube  (see sibling bundle.json for full metadata)
# ============================================================================
TITLE "v033_ektachrome100_portraendura"
DOMAIN_MIN 0 0 0
DOMAIN_MAX 1 1 1
LUT_3D_SIZE 17
0.006177993081 0.005550346328 0.004767449414
0.09654777201 0.03449395647 0.009736474053
0.2016978752 0.06605960349 0.02598170942
0.253649225 0.08137760278 0.0354773968
0.2770333165 0.08743845182 0.04048408562
0.2904490268 0.08942538232 0.04655413117
0.3007243092 0.089328942 0.05614808763
0.3083191351 0.09074074459 0.0713990763
0.3146856775 0.09418548382 0.09113447664
0.3219164527 0.09825431079 0.1119401757
0.3298511787 0.1027961989 0.1322712013
0.338980698 0.1083068968 0.1534173638
0.349646634 0.115190977 0.1756151099
0.3626555607 0.1239945313 0.1985562365
0.377692013 0.134673973 0.2223925495
0.3941393453 0.1473725312 0.2473391443
0.4120795089 0.162661105 0.2738089249
0.01821008687 0.03710586822 0.01231174648
0.0486727995 0.0453479176 0.01381796796
0.1784091617 0.06675924532 0.02408709252
0.2495869926 0.08508919778 0.03540250931
0.2812499207 0.09339585846 0.04042124346
0.2975448885 0.09704235858 0.04504302416
0.3083649992 0.09840156481 0.05157981942
0.3184207022 0.09870414992 0.06248714613
0.3268546323 0.1009353765 0.07895907378
0.3348059375 0.1057892529 0.1003035933
0.3441587979 0.1116951268 0.1229713233
0.3549858997 0.1188817058 0.145816407
0.3669267896 0.1274654542 0.1701183044
0.3802153853 0.1375112974 0.1951564324
0.3960337161 0.150033876 0.2210283588
0.4131201465 0.164662632 0.2475000607
0.4299556496 0.1804730245 0.273949374
0.06938328614 0.1423614893 0.04301422646
0.08104994852 0.1632419261 0.04772383212
0.2188649684 0.2000688942 0.05392993062
0.3340733037 0.2124966447 0.06189777536
0.3801631877 0.2014955126 0.06488586475
0.3910649199 0.1859959394 0.06587191362
0.3928597955 0.1740756563 0.06857199735
0.3946829342 0.1673565081 0.0752556265
0.3992296204 0.1644938445 0.08782440313
0.405698109 0.1649399261 0.1055352138
0.4143468018 0.1690872587 0.1283630206
0.4235219223 0.1774838792 0.1548173088
0.433603923 0.1876139288 0.1807614457
0.4444005818 0.1992319625 0.2080135133
0.4562145952 0.211980143 0.2350225171
0.4688796818 0.2257092242 0.2613831809
0.4813144241 0.2400265245 0.2869704292
0.1031768814 0.2140212451 0.0597840435
0.1114154835 0.2292471353 0.06330271729
0.1907004894 0.2794210592 0.07286985655
0.3692371942 0.3404914513 0.08678965679
0.4644039913 0.3579230918 0.09538978185
0.503005663 0.352589059 0.09939828344
0.5151101605 0.3389757758 0.1024499061
0.5171945854 0.3252920941 0.1075078057
0.5158912285 0.3137616194 0.1171858112
0.5151000384 0.3057978059 0.1314305229
0.5162070575 0.3020446349 0.1515232611
0.5187692264 0.3016429554 0.1754077381
0.5222985435 0.3034842119 0.2001512927
0.5262788795 0.3072382096 0.2254525409
0.5310999506 0.313150645 0.251845518
0.5374719705 0.3207843338 0.2775301436
0.5448009839 0.3298898602 0.3027886947
0.1236945845 0.2573561623 0.07057841062
0.1287752765 0.2657931276 0.07251388233
0.1658688524 0.2996659675 0.07959689325
0.3547459918 0.409705642 0.1025954012
0.4910864957 0.4564755476 0.115681436
0.5630272836 0.472253343 0.1240547982
0.5915445117 0.4704624239 0.12944116
0.6028267208 0.4629505954 0.1354348217
0.6053590137 0.4534839048 0.1446437718
0.6043832082 0.4441717406 0.1574403422
0.6026057756 0.4364787075 0.1750341748
0.6015102556 0.4310602959 0.1965736926
0.601120115 0.4276385381 0.2196550308
0.6016607537 0.4260578889 0.2431537662
0.602495073 0.42622042 0.2683778951
0.6040529973 0.4279029645 0.2935277466
0.607135987 0.4310003762 0.3179910447
0.1346302336 0.2812761788 0.07744971101
0.1384318114 0.2866385764 0.07859668927
0.1609885643 0.3097444318 0.08356497307
0.31042543 0.4216448994 0.1071320112
0.4741637453 0.5035910562 0.1265960057
0.5802275549 0.5426685085 0.1394271025
0.6342601696 0.5598073369 0.1492108087
0.6596163299 0.5654335316 0.1580454615
0.6702965279 0.5644991477 0.1686418962
0.6727049669 0.5591299855 0.1813042415
0.6722397362 0.5528972868 0.197807755
0.6704867082 0.5468716807 0.2179176284
0.668562506 0.5413451368 0.2397224616
0.6668264554 0.5363946526 0.2616019663
0.6658047349 0.5330589927 0.2850180091
0.6646310531 0.5306874863 0.3089093475
0.6646657714 0.5299341001 0.3324206881
0.1413015078 0.2971399608 0.08318797208
0.144823808 0.3012939868 0.08398016508
0.1625022015 0.3198106396 0.08788213496
0.2644838259 0.4068823118 0.1063451149
0.4376480835 0.5138422802 0.1305500002
0.5661754642 0.5754966196 0.1477162794
0.6483316963 0.6111013155 0.161356877
0.6871903683 0.6270891588 0.1728256438
0.7064334003 0.6340421349 0.1852139638
0.7147467071 0.6355058009 0.1988254979
0.7181810396 0.6348838113 0.2157503763
0.7190685212 0.6331415545 0.2355561313
0.7188427553 0.6306552927 0.2566125636
0.7180769811 0.6277968662 0.2778155751
0.7174632656 0.6251148417 0.3006006157
0.7164372455 0.6226067841 0.3239335507
0.7149238993 0.6199019311 0.3465107699
0.1465546043 0.3104464127 0.08919508288
0.1501029684 0.3143215411 0.08986423048
0.1657692818 0.3304322161 0.09304054598
0.2370839314 0.3949657872 0.1067484036
0.3933731602 0.504394088 0.1311398251
0.5340711695 0.5826175146 0.151448196
0.6347074797 0.631149553 0.1675287519
0.6920908451 0.6574490836 0.1809908091
0.7209594391 0.6720077661 0.1953074536
0.7359654414 0.6799970433 0.210307331
0.7431453687 0.6847130447 0.2278767895
0.7469711575 0.6874391102 0.2476181549
0.7485645895 0.6883687327 0.2681390148
0.7490538568 0.6879156024 0.2886592238
0.7490762602 0.6867233877 0.3106293699
0.7488321244 0.6851874777 0.333158291
0.7476001673 0.6829213712 0.355246319
0.1514372194 0.3236913271 0.09642207071
0.1552450129 0.3275727355 0.09699974746
0.1701185725 0.3424517549 0.09967905625
0.2252676765 0.3934572385 0.1103458458
0.355815291 0.4912706536 0.1319036998
0.4934404333 0.5744575401 0.1528311468
0.6094428982 0.6359892464 0.1716634578
0.684739543 0.6732021597 0.1873389268
0.7236375205 0.6930178807 0.2019675729
0.7441911114 0.7049789397 0.2182120625
0.7547222346 0.7122951071 0.2363978968
0.7602602697 0.716844653 0.2559257313
0.7629233285 0.719429376 0.2756905605
0.7643948957 0.7208045042 0.295722303
0.7653205923 0.7217152385 0.317251711
0.7660973416 0.7221350153 0.3389939584
0.7661813507 0.72207543 0.3603533081
0.1563651878 0.3369986492 0.1049037438
0.1604336876 0.3409820644 0.1054148274
0.1750561978 0.3550861604 0.1076049249
0.2211312891 0.3976926514 0.1162324484
0.3295334093 0.4824495002 0.1348586641
0.459534161 0.5659175084 0.1553786782
0.5773541099 0.6321152865 0.1751867274
0.6650923606 0.6772390831 0.1928321339
0.7164720677 0.70233598 0.207615133
0.7441724711 0.7172946451 0.2238330007
0.7587591226 0.7271108185 0.2428531067
0.7662671412 0.733407884 0.262597498
0.770376721 0.7375844826 0.282060887
0.7727353455 0.7405776942 0.3017359982
0.7743816171 0.7430262002 0.3227359791
0.775688219 0.7448017766 0.3438345365
0.7766188336 0.7460719986 0.364466681
0.1616313893 0.3507370077 0.114988778
0.165894618 0.3547940517 0.115440995
0.1810037739 0.3687950803 0.1171480943
0.2218454127 0.406109923 0.1244026176
0.3112181955 0.4774727569 0.1399296978
0.4285322275 0.5564348432 0.1593537657
0.5442706114 0.6247249634 0.1795811197
0.6415442956 0.6765286398 0.1984045628
0.7050203477 0.707738829 0.2143286209
0.739822053 0.7251530414 0.2301200856
0.758896517 0.7362662161 0.248330315
0.7685280134 0.7434831575 0.2682830227
0.773979693 0.7483644366 0.2877049583
0.7769035072 0.7518925744 0.3075120605
0.7789273776 0.7547965971 0.3281208401
0.7804171206 0.7571159982 0.3485612059
0.7817523248 0.7589735828 0.3685159911
0.1679162142 0.3653542981 0.1279320278
0.1722484553 0.3698583505 0.1279392028
0.1880376294 0.3841181024 0.1293083816
0.2260703038 0.4182080954 0.1356908479
0.3019081111 0.478829617 0.1486237287
0.4052501212 0.5501735995 0.166087884
0.512557898 0.6154734133 0.1849620943
0.6142751375 0.6713863369 0.2043023173
0.6884133374 0.7086696282 0.2216419676
0.7311765281 0.7295479477 0.2378329179
0.755746731 0.7421420882 0.2546171793
0.7688053646 0.7502689797 0.2733062301
0.7755844735 0.7558310195 0.2928277092
0.7794072633 0.7599260712 0.3129492612
0.7818445271 0.7632347116 0.3336025376
0.7835148864 0.7658094903 0.3535203895
0.7850014934 0.7679316389 0.3730124543
0.1764133161 0.3802312116 0.1429154868
0.18107763 0.3854211602 0.1428047253
0.1961240646 0.400064328 0.143237671
0.2324273434 0.4317890369 0.1487896975
0.2980241843 0.4835789793 0.1592827577
0.3881886181 0.546414301 0.174351501
0.4878683871 0.6081908692 0.1918446169
0.5868180952 0.6641148809 0.2110906784
0.6671011093 0.7055607213 0.229327242
0.7197282198 0.7309844957 0.2461446682
0.7498121566 0.7455097487 0.2624481679
0.7668350389 0.7544515083 0.2790578889
0.7754525755 0.7603967019 0.2975249989
0.780470774 0.7651028502 0.3180515165
0.7833543574 0.7687133176 0.3386553544
0.785348711 0.7715525093 0.358502162
0.7869368462 0.7739175621 0.3777031122
0.1865817514 0.396319755 0.1591290354
0.1914999767 0.4016776514 0.1591091548
0.2058043009 0.416374247 0.1587106154
0.2403105949 0.4459442739 0.1631372256
0.2982570499 0.4909274475 0.1716705386
0.3781626364 0.5469360629 0.1853210522
0.4690381055 0.6039502614 0.2015236417
0.561697545 0.6571509916 0.2198250651
0.6456423615 0.7010569245 0.2381704593
0.7062127779 0.7300796607 0.2549291878
0.7415402244 0.7465709209 0.2707311241
0.7624574647 0.7566785928 0.2865224642
0.7740621911 0.7632043428 0.3030215681
0.7803596023 0.7681987242 0.3228334941
0.7838872709 0.7720849808 0.343428963
0.786270269 0.7751974746 0.3632869518
0.7879924148 0.7777262412 0.3823778436
0.1978416738 0.4129422371 0.1768490449
0.2027316629 0.4181224453 0.1768727412
0.2180546565 0.4336085661 0.1766900005
0.2496145987 0.4607582975 0.1792988903
0.3024624023 0.5012389657 0.1870470824
0.3727664352 0.5501385698 0.1985484555
0.4541447326 0.6014782305 0.2129711828
0.5391116576 0.6508325087 0.2297712717
0.6235400902 0.6956526983 0.2479147983
0.6894726511 0.727344544 0.2645105705
0.7312797999 0.746163905 0.2795518005
0.7566367453 0.7575755457 0.294449462
0.7714008493 0.7649717195 0.3106547591
0.7792461657 0.7699961724 0.3282227146
0.7837552179 0.7740317198 0.3479809322
0.7864718106 0.7772576824 0.3677825052
0.7884442399 0.7799550627 0.3870447584
0.2102752408 0.4299635989 0.195381547
0.2157980012 0.435635591 0.1955441868
0.2317903598 0.4512913768 0.1956814233
0.2604033048 0.4759418421 0.1966872738
0.3088033796 0.5124325523 0.2038123444
0.3710739114 0.5551969333 0.2133519612
0.4435641972 0.6009290811 0.2259562748
0.5216422224 0.6467791085 0.2418950118
0.6033532807 0.6905152212 0.2586810821
0.6716139757 0.7235707471 0.2743075198
0.7201973457 0.7450865867 0.2886050992
0.749771454 0.7579393943 0.3032401406
0.7675198476 0.766106821 0.3188783974
0.7773911196 0.7715391432 0.3357997073
0.7831752011 0.7754654878 0.3529603818
0.786338877 0.7786866843 0.372101199
0.7885923271 0.7814355818 0.3913321522
0.2247349514 0.4481442392 0.2142942484
0.2305999679 0.4539403476 0.2145981311
0.246035632 0.4685010696 0.2149474835
0.2726992259 0.4914857046 0.2151288037
0.3173127131 0.5244483947 0.221562739
0.3719732933 0.5613536805 0.2290462304
0.4377519575 0.6028690161 0.2407754379
0.5088112321 0.6445109648 0.2546604146
0.5856729637 0.6858466313 0.2696738822
0.6548161975 0.7196866429 0.2846863394
0.7082534331 0.7433540749 0.2984568353
0.7414840137 0.7575112698 0.3125552591
0.762603234 0.7667100123 0.3278566748
0.7750808055 0.7726961136 0.3436407431
0.7819509441 0.7767764282 0.3600555946
0.7860060567 0.7798859355 0.3768274104
0.7885502333 0.7826208556 0.3954136496
0.008216571501 0.008433227196 0.02366875653
0.06826280375 0.02664983528 0.04396461686
0.1890811279 0.05913968581 0.07650361546
0.2538074605 0.07596223344 0.09375655661
0.2829145139 0.08373798674 0.10243808
0.2974944296 0.08797712498 0.1115409515
0.3055156968 0.09074580295 0.1213367161
0.3116473703 0.09332680278 0.1313533462
0.3174227624 0.09612815893 0.143819727
0.3238549874 0.09950926964 0.1577206267
0.3313409634 0.1036077149 0.1720496303
0.3391985596 0.1081809649 0.187189055
0.3488888834 0.1142778954 0.2050057024
0.3620061846 0.1229658825 0.2253098725
0.3771691093 0.1335508758 0.247052235
0.3930850472 0.1455866694 0.2698650404
0.4099918415 0.1596677826 0.293930977
0.01358155254 0.02834110972 0.02887355443
0.04213660566 0.04033388685 0.03804988147
0.1702857369 0.05830965349 0.03997591733
0.2475852514 0.07590395137 0.04994463762
0.2833115212 0.08408437946 0.0595996822
0.2999279154 0.08894292541 0.07163994802
0.3090451153 0.09235238396 0.08542875022
0.3165377538 0.09585168388 0.1015374927
0.3237491709 0.09968847422 0.1190254366
0.3313097702 0.1039577254 0.136402513
0.3405242431 0.109417609 0.1558827553
0.3495964031 0.1150780763 0.1734129881
0.3612208303 0.1229951983 0.1945545679
0.3760681593 0.1337026015 0.2190140626
0.3926021145 0.14633957 0.2438848967
0.4103352081 0.16107976 0.2692811255
0.4272397242 0.176516951 0.294539428
0.06442483197 0.1392008544 0.04886348173
0.07469543103 0.157408184 0.05664262896
0.2134505207 0.185765911 0.05935729441
0.3178882516 0.1911732277 0.06560016886
0.3619324056 0.1776867317 0.06908362592
0.3732007617 0.1619398888 0.07247690787
0.3783863031 0.1523488337 0.08026931661
0.382908649 0.1478092597 0.09229218199
0.3887199111 0.1469443286 0.1092593061
0.3944612279 0.1509614821 0.1316487537
0.4021532958 0.1573302812 0.1547139372
0.412130709 0.1660040005 0.1785858683
0.4230859628 0.1762261364 0.2037627471
0.4349629022 0.1881992554 0.2287035814
0.4482155525 0.2018350893 0.2532759666
0.4623128616 0.2166950501 0.2782352561
0.4759240731 0.2319862741 0.3033254079
0.100264198 0.2151525442 0.06442151544
0.1079244617 0.2299319383 0.0692509168
0.1972390634 0.2795301549 0.07889213173
0.3653221977 0.3317032066 0.09127564625
0.4550189941 0.3466368204 0.100579353
0.4941825797 0.3404790806 0.1065423253
0.5078924796 0.3272437067 0.1129821
0.5108802334 0.3131935644 0.1223969311
0.5099137186 0.3014248908 0.1356168397
0.5097371607 0.2942636077 0.1540878623
0.5109436781 0.2912884176 0.175757391
0.5133374475 0.2914019937 0.1982074294
0.5165865011 0.2932206931 0.2218156993
0.5209749471 0.2977193834 0.2467991729
0.5258289757 0.303959467 0.2713267491
0.5324214466 0.3120951261 0.2955481449
0.5401041245 0.3215562295 0.3192740632
0.1219386258 0.2609429702 0.07545904462
0.1272390928 0.2701893776 0.07826499052
0.1718304078 0.3078713145 0.08669646403
0.3571296872 0.4100290507 0.1083122917
0.4876572775 0.4521396412 0.1213977337
0.5582219631 0.4679174293 0.131623012
0.5878846842 0.4669441959 0.1397824712
0.6001293889 0.4593512665 0.1495538656
0.6029080236 0.4490467359 0.1614492585
0.6022343551 0.4394702752 0.1775639438
0.6004220744 0.4314837794 0.197279371
0.5990802755 0.4257723361 0.2187174898
0.5981593903 0.4216303012 0.2405564507
0.5986435146 0.4199873965 0.2640777069
0.599530254 0.4202755093 0.2879174445
0.6010406305 0.4218147038 0.31123843
0.6042557523 0.4250252622 0.3342638069
0.133379215 0.2863902814 0.08302451341
0.1375044318 0.2925451914 0.08474888596
0.1644938185 0.3196729518 0.0911076112
0.3187668906 0.4312952484 0.114864195
0.4751601739 0.5058926501 0.1335319439
0.5796321039 0.5444698101 0.1476993106
0.6339357617 0.5624231318 0.1600439341
0.6591726921 0.5676236659 0.1720285206
0.6696950598 0.5651144448 0.1845864406
0.672199236 0.5589829549 0.2000256388
0.6716899741 0.5520729879 0.2184530227
0.6695428709 0.5450292107 0.2384829997
0.6670500508 0.5383605507 0.2588647448
0.6653363477 0.5332915462 0.2809941664
0.6642040911 0.5296588946 0.3040148408
0.663013047 0.5271856049 0.3265138151
0.6630695295 0.5263254048 0.3486482732
0.1404165755 0.3035968808 0.08970885973
0.1442064555 0.3083300454 0.09085323166
0.1643587856 0.3295737655 0.09576871178
0.2742439836 0.4209029477 0.1153753543
0.4421195576 0.5217168067 0.1389276277
0.5686234535 0.5819171734 0.1568943585
0.6499290705 0.6167676454 0.1723902218
0.6881817435 0.631988995 0.1866580846
0.7069412466 0.637579626 0.2006134501
0.7154083649 0.6385944491 0.2167377076
0.7188775345 0.6373138114 0.2352361993
0.7194631561 0.6345047654 0.2549418409
0.7189150021 0.6310600444 0.2748637961
0.7180262548 0.6277156503 0.2961665662
0.717267506 0.6245469204 0.3186358494
0.71589551 0.62126093 0.3405695082
0.7142652009 0.6181971943 0.3621021128
0.1456575136 0.3173882028 0.09664034147
0.1494250181 0.3216665644 0.09753396363
0.1666209715 0.3396215417 0.1014509522
0.2439600409 0.4083977872 0.1161774089
0.4003373521 0.5157923346 0.1406594052
0.5385090278 0.5914832987 0.1614259182
0.6375084895 0.6386858114 0.1789647067
0.6940240036 0.6640754142 0.1945033644
0.7224817949 0.6774667975 0.2102997088
0.7372988699 0.6848878441 0.2275479824
0.7442997461 0.6887398575 0.24623946
0.747854945 0.690402091 0.2656566224
0.7491171279 0.6902244926 0.2851851407
0.7495637012 0.6893851089 0.3059557865
0.7493847972 0.687496454 0.3276911956
0.7489622629 0.6853830757 0.3490022395
0.7475860331 0.682662584 0.3700219728
0.1505170698 0.3306358014 0.1046005838
0.1545036895 0.3348032105 0.1053170025
0.1704188528 0.3509475673 0.1084576857
0.2299761035 0.4055520591 0.1201376447
0.3627649428 0.5033961829 0.1421282785
0.4990907657 0.5849643192 0.1637919358
0.6134495027 0.6451604523 0.1840282117
0.6872205 0.6805662908 0.2005743389
0.7255022914 0.6991242186 0.2165157916
0.7456858369 0.710212637 0.234748717
0.7558871013 0.7166067408 0.2537277876
0.7611147346 0.7200741236 0.2728378847
0.7636147869 0.7219097517 0.2917731242
0.7650383688 0.7228860219 0.3120930084
0.7659017783 0.7233681119 0.3332524933
0.7666009789 0.7233655105 0.3539732395
0.7666064359 0.7229655667 0.3744170554
0.1554266385 0.3437465586 0.1138612695
0.1596745518 0.3480670075 0.1145573026
0.1751593794 0.3632272718 0.1170732996
0.2244152611 0.4086773669 0.126583442
0.3358910687 0.4947363115 0.1459743067
0.4653692294 0.5770187716 0.167375217
0.5819876818 0.6417050858 0.1881298406
0.6682113016 0.6846784192 0.2059739052
0.7185642798 0.7085410336 0.2219339039
0.7457757001 0.7226443249 0.2396746598
0.7599698915 0.7314221753 0.2592015829
0.7671736366 0.7367739769 0.2783429689
0.771109283 0.7402984417 0.2972741627
0.7734421445 0.7430056984 0.3173540002
0.7750112071 0.7450041215 0.3377818097
0.7762703636 0.7464101267 0.3579949922
0.7771137786 0.7472949773 0.3777985272
0.1617719693 0.3572969659 0.1263556419
0.1656482402 0.361892624 0.1264598543
0.181196976 0.377265708 0.1282186738
0.2246350696 0.4169201183 0.1362042651
0.3171207655 0.4898549193 0.1523967137
0.4344989408 0.5676248547 0.1720833296
0.5493166585 0.634189199 0.1925391199
0.6451332773 0.6841375409 0.2117871061
0.7072349748 0.7139397994 0.22878231
0.7414899063 0.7302856747 0.2453615707
0.760098381 0.7403813406 0.263850893
0.7694047108 0.7466826708 0.2831020375
0.7746928497 0.7510356091 0.3022713463
0.7775656533 0.7542652378 0.3223950548
0.7795310525 0.7567970696 0.3423640287
0.7809779251 0.7587761779 0.3619429785
0.7822861471 0.7603794412 0.3811910908
0.169156222 0.3708351565 0.1402987677
0.173348941 0.3756784283 0.1403064656
0.1882690813 0.3917765557 0.1408413234
0.2280252526 0.4273681153 0.1476158146
0.306258107 0.4893449821 0.1610585077
0.4104422123 0.5602637923 0.1787079886
0.5176719818 0.624666545 0.1981091962
0.6184721811 0.6792101843 0.2181507484
0.6913580959 0.7149645167 0.2361267375
0.7329960322 0.7344741426 0.2525701288
0.7569802722 0.7460126592 0.2691377611
0.7696479852 0.7533362904 0.2873211702
0.7763144805 0.7584403313 0.3068668629
0.7800405713 0.7622230823 0.3271413293
0.7824125273 0.7651574721 0.3470665677
0.7840388183 0.7674254999 0.3662327592
0.785503161 0.7693145318 0.3850694128
0.1777190948 0.3851070462 0.15513288
0.1824845162 0.3905039646 0.1551906919
0.1971714602 0.4064410867 0.1554446351
0.2338144534 0.4393044724 0.1604063889
0.3014175286 0.4924471656 0.171465816
0.3928896749 0.5556322947 0.1871359656
0.4926353707 0.6168824382 0.2053799894
0.5912693028 0.6718650921 0.22528494
0.670302793 0.7117347586 0.2438010038
0.7216725328 0.7356493048 0.2603367637
0.7510946454 0.7491620452 0.2762677875
0.7677266108 0.7573319276 0.2921902695
0.776177113 0.7629401418 0.3110575252
0.7811039079 0.7673140117 0.3315720091
0.7839085139 0.7705555016 0.3514593045
0.785853657 0.7731164219 0.3705742169
0.7874274524 0.7752827414 0.3892273306
0.1879940568 0.4008748005 0.1716139789
0.1930028857 0.4064023948 0.171726946
0.207714991 0.4219305854 0.1719713669
0.2414803812 0.4525602524 0.1750777364
0.3016424197 0.4993607265 0.1847038013
0.3822485976 0.5553496237 0.1987100163
0.4735462629 0.6120273035 0.2153550445
0.5663370272 0.6645639662 0.234010729
0.64903475 0.7069483479 0.2523187816
0.7083574634 0.7344902694 0.2685148835
0.7429617584 0.7499759039 0.2836938577
0.7634394542 0.7594423861 0.2990946551
0.7748120503 0.7656391023 0.3159887029
0.7809861063 0.7703070337 0.3357186737
0.7844318648 0.773854996 0.3556032844
0.7867732441 0.7767222507 0.3748837174
0.7884659094 0.7790367958 0.3933740408
0.1993069183 0.4170446249 0.1890137649
0.2043114615 0.4223998889 0.1891652928
0.2200157893 0.4384897384 0.1896248735
0.2509259878 0.4666920992 0.1913131681
0.3053417518 0.5084708697 0.1999914687
0.3763725968 0.5575576532 0.2118742773
0.4583857133 0.6087712803 0.2265484496
0.5436330248 0.6576935577 0.2436260809
0.6272397 0.7012546596 0.2615348863
0.6920237002 0.731554836 0.2773889587
0.7328313941 0.7493480913 0.2917936667
0.7577077104 0.7602378558 0.306765951
0.7721705602 0.7672826014 0.3231903352
0.779882172 0.7719716021 0.3403666093
0.7842850045 0.7757084925 0.3595815772
0.7869662737 0.7787106978 0.3788673344
0.7889059624 0.781212184 0.3975209876
0.2117873512 0.4336505545 0.207010331
0.2174497768 0.4395096003 0.2073035688
0.2336982842 0.4555652242 0.2079524137
0.2621184965 0.4812694402 0.2088456533
0.3115407265 0.5186915862 0.2163148162
0.3741914904 0.5615067769 0.2261067071
0.4477333704 0.6076060509 0.2392856587
0.5257967703 0.6528912983 0.255156505
0.6069464222 0.6956217469 0.2714914739
0.6742250114 0.7275027258 0.2864545149
0.7218815885 0.7481346171 0.3004291881
0.7509867602 0.7605087816 0.3152749217
0.7683553076 0.7682822787 0.3308914302
0.7780241718 0.7733596388 0.3472638749
0.7837020418 0.7770372236 0.3639776746
0.786817407 0.7800579603 0.3826964021
0.7890440795 0.7826399693 0.4014877244
0.2262674036 0.4514118083 0.2250413219
0.2322448439 0.4573522824 0.2254744664
0.2478825486 0.4722107841 0.2262682709
0.2752073662 0.4961952431 0.2273741634
0.3196972207 0.529608521 0.2331822201
0.3751011185 0.5669775291 0.2412384203
0.4414170365 0.6085262019 0.2531358983
0.5124023434 0.649698213 0.266808871
0.5891182524 0.690432803 0.2815042184
0.6575886003 0.7234317614 0.2962589796
0.7101011483 0.7463206747 0.3100427831
0.7428030975 0.7599851302 0.3242590081
0.7635403117 0.7687550925 0.3392397508
0.7757466513 0.7743964241 0.3545173436
0.7824991546 0.7782385078 0.3704451134
