app/src/main/assets/spektrafilm/profiles/kodak_vision3_500t_film.cube
# ============================================================================
# spektrafilm LUT
# Bundle:  spektrafilm_v033_vision3500t_8printpack_2lut_prophoto_prophoto  (2lut, 17^3)
# Film:    kodak_vision3_500t
# Print:   fujifilm_crystal_archive_typeii, kodak_2383, kodak_2393, kodak_ektacolor_edge, kodak_endura_premier, kodak_portra_endura, kodak_supra_endura, kodak_ultra_endura
# Input:   ProPhoto RGB  (cctf on)
# Output:  ProPhoto RGB  (cctf on)
# Created: 2026-06-02T06:13:11Z
# spektrafilm: 0.3.3
# Project: https://github.com/andreavolpato/spektrafilm
#
# Copyright (c) 2026 Andrea Volpato. Generated by spektrafilm. Licensed under CC BY-SA 4.0.
#
# License: spektrafilm LUT by Andrea Volpato, licensed under CC BY-SA 4.0.
#          Full text and attribution requirements in SPEKTRAFILM_LICENSE.txt
#          (shipped in this bundle); also at
#          https://github.com/andreavolpato/spektrafilm/blob/main/SPEKTRAFILM_LICENSE.txt.
#
# Citation: If you use this LUT in your work, please cite the spektrafilm
#           project: https://github.com/andreavolpato/spektrafilm, see
#           CITATION.cff for details.
#
# Notes: Generated by the spektrafilm LUT bundle builder. Apply with trilinear
#        or tetrahedral interpolation in your host (DaVinci Resolve, Nuke,
#        OCIO-aware DCC). The input and output color spaces are declared in
#        bundle.json; do NOT apply this LUT to a signal in a different color
#        space.
#
# Role:    film  (domain=input_rgb → range=cmy_film)
# File: lut_v033_vision3500t_film.cube  (see sibling bundle.json for full metadata)
# ============================================================================
TITLE "v033_vision3500t_film"
DOMAIN_MIN 0 0 0
DOMAIN_MAX 1 1 1
LUT_3D_SIZE 17
0.1129369247 0.1175778954 0.09871668312
0.3703526464 0.1179452505 0.1239192217
0.5344275839 0.1204280467 0.1947712418
0.6204917915 0.1242965434 0.2744458909
0.6835677633 0.1294385645 0.3438447051
0.7331184753 0.1355368704 0.3967342355
0.7710066633 0.1410499032 0.4354005319
0.8032311885 0.1479336257 0.4668865998
0.8311880558 0.1548178869 0.4942712294
0.855168937 0.1614839988 0.5169621337
0.8747935303 0.1683100367 0.5381020337
0.8905337898 0.1754432062 0.5550549978
0.9066714495 0.1833553755 0.5717909348
0.9214568675 0.1904837415 0.5887670495
0.9321167229 0.1969558559 0.6037075066
0.9418591254 0.2044131716 0.6177149304
0.9521925782 0.2129387082 0.630829827
0.1185690572 0.376108064 0.09957581244
0.2927090741 0.2946080428 0.1041663744
0.5019613203 0.2069252208 0.1171201211
0.6128660054 0.1748089157 0.1405091412
0.689329091 0.1626206141 0.1734185411
0.7436316347 0.1581155999 0.2228570155
0.7810236014 0.1584326019 0.2881501745
0.8114908525 0.1611745034 0.3562810344
0.8381788693 0.1654958088 0.4136151437
0.8602513873 0.1708873158 0.4544506593
0.8783702376 0.1768739458 0.4881573416
0.8939577495 0.1836568538 0.5143535963
0.9097005885 0.189966483 0.5383413912
0.9237149909 0.1959700633 0.5579789837
0.9338806992 0.2025229242 0.5768155204
0.9436314442 0.2102751584 0.5953283174
0.9537928348 0.2187752797 0.6107822205
0.1449877227 0.5546708412 0.1041427806
0.2451261804 0.5188414236 0.1087516113
0.4519384633 0.4454317698 0.1198392833
0.5693721023 0.3795791974 0.135594138
0.6517258563 0.3267106334 0.1579281086
0.7140361893 0.2852897152 0.1846472495
0.7616448371 0.2605376189 0.2144482722
0.8004834875 0.2438614727 0.2462392369
0.8339504875 0.2327527726 0.278853925
0.8610101601 0.2245660417 0.3176195822
0.8812683057 0.2203581445 0.3576780799
0.8982239111 0.2199940092 0.3985690829
0.9147106634 0.221550043 0.4333711802
0.9277764279 0.2248533002 0.4673237903
0.9373112251 0.2288287487 0.498251784
0.9471703606 0.2332979473 0.5242051374
0.9570964749 0.2385499289 0.5489367222
0.1826876067 0.6498958475 0.1120612241
0.246440553 0.6296905946 0.1161431522
0.416457547 0.5716980713 0.1253154817
0.5392937127 0.5236885889 0.1400544871
0.6208782144 0.4798189807 0.1580724329
0.6850881581 0.4415663415 0.1790955611
0.7377513862 0.4063877953 0.2019867319
0.7783174117 0.3746820906 0.2277006138
0.8137308566 0.3514372901 0.2573882836
0.8445051024 0.3322474266 0.2847460748
0.8691196615 0.3170508336 0.3124938726
0.889027589 0.3058341616 0.3377679668
0.9082153681 0.2959113946 0.3625641386
0.9250767104 0.287590333 0.3885682775
0.9365337432 0.2823369058 0.4161882691
0.9478237872 0.2801771254 0.4421494261
0.9585371137 0.2802403505 0.467772203
0.2241460122 0.7221303341 0.1222551483
0.268289199 0.7056226388 0.1257259158
0.3941545832 0.6600221628 0.1330692533
0.5132752849 0.6145499384 0.1469076328
0.5956231356 0.5757353925 0.1628043214
0.6614583285 0.5431764408 0.1818410826
0.7166521202 0.5115795635 0.2014169346
0.7592097224 0.4842474403 0.2226434892
0.796164598 0.459869992 0.2475687723
0.8280153685 0.4379021566 0.2705999283
0.855013578 0.4168486085 0.2962528484
0.8774185574 0.4023691239 0.3224050122
0.8959578031 0.3885859837 0.3446609759
0.9148132356 0.3755964152 0.3645212316
0.9294768891 0.3655279536 0.3855421107
0.9408205562 0.3579819714 0.4063885867
0.9533870159 0.3516972398 0.4241789556
0.2612255463 0.7697079288 0.1328617343
0.295665422 0.761054713 0.1353925238
0.3891837117 0.7312197634 0.1434619589
0.4923046034 0.6868607691 0.1543420671
0.5763462178 0.6480797081 0.1694101727
0.6422999456 0.6190946996 0.1871980847
0.6976512801 0.5871830114 0.2043024889
0.7427585071 0.5631690593 0.2240230286
0.7798432866 0.5406792841 0.2461064369
0.8125375462 0.5185279467 0.2664603446
0.8417842267 0.4987499506 0.287903421
0.8660790591 0.4823855594 0.3120401898
0.8857809561 0.4669451584 0.3333786367
0.903910719 0.4539557797 0.3534001632
0.9214773554 0.4422360457 0.373676829
0.9338595423 0.4311760154 0.393519225
0.9457785859 0.4218607723 0.410502387
0.2980140682 0.8090403076 0.1450208546
0.3229253531 0.8018565249 0.1467699278
0.3926307344 0.7781267881 0.1544894952
0.4804482859 0.7465727321 0.1630500382
0.5610090545 0.7117805224 0.1759786397
0.6253869254 0.6808968663 0.1927944444
0.6783453877 0.6513748803 0.2101018267
0.7273205582 0.6279230653 0.2286727297
0.7658272112 0.6041226872 0.2487547571
0.7992383684 0.5826929476 0.2670011584
0.8289957427 0.5653748412 0.2865288212
0.8547198731 0.5485055155 0.3084022809
0.8763530249 0.5329440624 0.3277090075
0.8940492144 0.5176471684 0.3457214469
0.9122519059 0.503904764 0.3636011594
0.9274310915 0.4926670223 0.38211264
0.9386445522 0.4831039415 0.4009712224
0.3303525265 0.8380694149 0.1569281574
0.3500810649 0.8332776299 0.1580258576
0.4015945593 0.8172877235 0.1648674637
0.4753472984 0.7907809074 0.1743118193
0.5491018259 0.7613867325 0.1851280006
0.6131749601 0.7352968119 0.199912522
0.6644456661 0.7091835559 0.216286311
0.7131786168 0.684266955 0.2348587287
0.7522821094 0.6599086576 0.2524085884
0.7865395116 0.6374343813 0.2687265074
0.8168913486 0.621832368 0.2875273212
0.8439933146 0.6030672303 0.3079318589
0.8668403448 0.5865706611 0.3260399208
0.8855847018 0.5731763884 0.3430270164
0.903057961 0.5602684342 0.359386682
0.9204105026 0.5483513217 0.3759086167
0.9327391163 0.5373624719 0.3936308206
0.3591955522 0.8610685273 0.1686335504
0.3748419889 0.8580240971 0.1700242949
0.4143939495 0.8465531009 0.1770540957
0.4745956024 0.8272196011 0.1851056735
0.5406836417 0.8020352446 0.1941260057
0.6002371527 0.7762911626 0.2065155892
0.6546630804 0.7535045495 0.2231266603
0.7010564109 0.7341631555 0.2405773655
0.7396408779 0.710831265 0.2572737825
0.7742939915 0.6892904821 0.2729074667
0.8060762098 0.671769196 0.291114787
0.8340024865 0.6525666183 0.3101502843
0.8575943515 0.6363425048 0.3266634649
0.8775867302 0.6235836258 0.3420759319
0.8944124168 0.6087618647 0.3570570261
0.9120129938 0.5937396314 0.3723231609
0.9269556408 0.5827987569 0.388519185
0.3843620189 0.8819150881 0.1816034407
0.395479393 0.8789472905 0.1825467306
0.4288845124 0.8687622865 0.1881123593
0.4770979999 0.8547094926 0.1952383523
0.5357859351 0.8350642147 0.2043872706
0.5903815066 0.8143282632 0.2153580427
0.6444146536 0.7916075498 0.2291056869
0.6902988124 0.770961824 0.2474255814
0.7288756724 0.7527287358 0.2620705252
0.7633628983 0.7356283044 0.2776645557
0.7951610368 0.717378316 0.2950988067
0.8234749329 0.6986278648 0.3121188127
0.8485270955 0.6825373665 0.3275035405
0.8696562142 0.6679294259 0.3424161941
0.887040984 0.6518944041 0.3567950457
0.9039845485 0.6384998135 0.3714152361
0.9207498198 0.6284849203 0.387075778
0.4045164822 0.8986611825 0.1930182572
0.4146991585 0.8966328814 0.1936278937
0.443269615 0.8898765198 0.1977026494
0.4822472257 0.8776185712 0.2056251552
0.5335622722 0.8607993558 0.2141853107
0.5828875632 0.8442170853 0.2250252303
0.6338457383 0.8248030917 0.2377557859
0.6793810238 0.8054115435 0.2519057585
0.7199478786 0.7865658905 0.2671923182
0.754097666 0.7701722582 0.2826252113
0.7849656779 0.7549629235 0.3001019382
0.81350483 0.7406243033 0.316164046
0.8396143508 0.725371046 0.3300299887
0.8618660671 0.7094346319 0.3440096441
0.880331615 0.6942483863 0.3576420282
0.8965588583 0.6815971063 0.3714091623
0.9135705424 0.6696160127 0.3858711151
0.4256200627 0.9113259524 0.2047638826
0.4348708375 0.9099662305 0.2054411488
0.4566906813 0.9059239615 0.209134542
0.4889471797 0.8978720436 0.2177306926
0.5343031638 0.8839561689 0.2254595633
0.5785677716 0.868223437 0.236673075
0.6254166589 0.8519808647 0.2467880076
0.6687991739 0.8349986599 0.2588380832
0.7126648442 0.8179580838 0.2734880833
0.7460469487 0.802829424 0.2879296205
0.7759515752 0.7870697907 0.3045970561
0.8044142019 0.7723226639 0.3197988285
0.8304464009 0.7586219435 0.3330054471
0.8536602266 0.7458667014 0.3458245625
0.8735845765 0.7333787919 0.3588047713
0.8899799306 0.7205070414 0.3722393644
0.9066382923 0.7075359515 0.3863382017
0.4451875094 0.922637421 0.2172715129
0.4521131457 0.9215087955 0.2178963048
0.4696124236 0.9183270353 0.2210241927
0.4967224358 0.9118339595 0.2297936818
0.5370019972 0.9026021836 0.2372243636
0.5761222343 0.890654336 0.2472114715
0.6194580889 0.8748552816 0.2565121417
0.661358276 0.8595493367 0.2666209612
0.704218028 0.8453933421 0.2785754948
0.739330865 0.8305541956 0.2956178631
0.7686277235 0.8174075682 0.3099193039
0.7966940126 0.8038296794 0.3241118176
0.8221079002 0.7894848827 0.3369150085
0.845924715 0.7759522748 0.3491852761
0.8665501963 0.7637658016 0.3611371839
0.8839415285 0.7525796862 0.3736718296
0.8998100838 0.7421154886 0.3870262841
0.4612875062 0.9331492326 0.2301118002
0.4671115585 0.9322400945 0.2307260059
0.4817330177 0.9296244888 0.2333878393
0.5051936373 0.9234251223 0.2421399457
0.5407335554 0.9159373174 0.2483644439
0.5755480617 0.9070099687 0.2573433602
0.6157630968 0.8958293302 0.2661919502
0.6557111582 0.8820286148 0.2745031635
0.6961074773 0.8679062337 0.2870779012
0.7318785337 0.8545529524 0.2999586405
0.7625083822 0.8423284308 0.3162967118
0.7898022557 0.8305654781 0.3285084535
0.814797471 0.818309866 0.3410414519
0.8387052929 0.8059064902 0.3531185934
0.859757204 0.7934897229 0.364882347
0.8780336423 0.7813697534 0.376656428
0.8937878329 0.7703503268 0.3891953025
0.4757487531 0.9426117703 0.2433542681
0.4806087322 0.9418330874 0.243846593
0.4925971936 0.9393276925 0.2458798286
0.5143927658 0.9339692905 0.2524027799
0.5453856816 0.9276799656 0.2588638389
0.5765310534 0.9196909371 0.2664916742
0.613418366 0.9107414848 0.2748732625
0.6515085241 0.9007777862 0.2841456402
0.6891289387 0.8891950081 0.2958464198
0.7242352664 0.8754490155 0.3075088677
0.7566601552 0.8630496213 0.3212458185
0.783742488 0.852742951 0.3336904694
0.808539872 0.8424374129 0.345135674
0.8320705701 0.831362938 0.3569835604
0.8534130034 0.8205466647 0.3688065231
0.8722122627 0.8096883359 0.3804369182
0.8881517643 0.7985691695 0.3922257919
0.4882911596 0.9506889634 0.2552218671
0.4923409887 0.9500097118 0.2553916846
0.5034831399 0.9477067749 0.256948334
0.5246092424 0.9437129117 0.2612070573
0.5503967368 0.9383925007 0.2692484688
0.5785764968 0.9315134803 0.2760147653
0.6126375232 0.9232984762 0.2845947035
0.6486445984 0.9142451485 0.2948981347
0.6829264086 0.9056856817 0.3042722152
0.7179182856 0.8951504681 0.31490767
0.7497221134 0.8835379087 0.3252567656
0.7781629135 0.8717137471 0.3388816644
0.8030070373 0.8621688714 0.3496966266
0.8259768835 0.8528602885 0.3606866275
0.8475843397 0.8435047557 0.3724753665
0.8665337533 0.833475511 0.3841300417
0.8829225162 0.8235361958 0.3953563667
0.5000656443 0.9573159161 0.2654042376
0.5041212807 0.9567828461 0.2653923602
0.5155450151 0.955054892 0.2671649249
0.5348784296 0.9523362262 0.2711782839
0.5559446111 0.9479747547 0.2798783166
0.5818080909 0.9421189779 0.2862839767
0.6127658096 0.9348573821 0.2954729867
0.6464052445 0.9265482297 0.3045952866
0.6783286984 0.9183853959 0.3133402406
0.7126228036 0.9094416602 0.3216919221
0.7433401279 0.90073925 0.3314306101
0.7716765857 0.8911434809 0.3412529816
0.7981226132 0.8808708079 0.354647198
0.820542916 0.8714407327 0.3647464328
0.8421230681 0.8625356282 0.3759384089
0.8610933074 0.8538271786 0.3875372766
0.8778860588 0.8449926533 0.3983344379
0.1129369247 0.1229110186 0.2751654623
0.3151887046 0.1195223623 0.4374460918
0.4979727063 0.1214782138 0.5122687804
0.599031022 0.1253807619 0.5116586674
0.6669171936 0.1299340831 0.5026927306
0.7254066144 0.1367961566 0.4947892067
0.7681576752 0.1437925118 0.4688509599
0.8028679705 0.1523885644 0.4583547518
0.8333243332 0.1591618883 0.4654957125
0.8580565676 0.166605509 0.4791992261
0.8769444824 0.1731286475 0.5064196592
0.8924748176 0.1801469569 0.5300193491
0.908400728 0.1872408025 0.5507024318
0.9228198789 0.1937309909 0.5683971283
0.9331369222 0.2000958801 0.5868368458
0.9428878122 0.2076735227 0.603427119
0.9531401021 0.216379248 0.6178888729
0.1203417955 0.351842509 0.2731067054
0.2832840281 0.2900144481 0.23978217
0.4919729381 0.1970204195 0.2307624525
0.6063452026 0.1645726519 0.2425405881
0.6796377837 0.1585413434 0.2645992008
0.7354113899 0.1599930096 0.2863558311
0.7768215352 0.1642821677 0.3090772226
0.8112035366 0.1687996383 0.3349352284
0.8393523993 0.1768111477 0.3610564653
0.8623386491 0.1812868903 0.4050830518
0.8800650456 0.1854162023 0.446047315
0.8954993071 0.1903114379 0.4824191562
0.9113240236 0.1952724434 0.5106062949
0.9247099308 0.2007287215 0.5361046325
0.9348013555 0.2076474054 0.5572959013
0.9445606202 0.2154971708 0.5769468316
0.9545478271 0.2232888673 0.5958582774
0.1512353008 0.5396601448 0.1991856463
0.2458515094 0.5084856034 0.1890946853
0.4496986554 0.4436478657 0.1728677415
0.5649315624 0.3813482093 0.1745662601
0.6477232385 0.3312539778 0.1866325528
0.7100730315 0.2964846008 0.2033383076
0.75737599 0.2737083782 0.2241916991
0.7957533949 0.2623135575 0.2479795954
0.8289941956 0.2544347048 0.270973366
0.8574473007 0.2442282901 0.3054309239
0.8795038259 0.2368599424 0.3392099355
0.8972346791 0.233801847 0.3775197178
0.9144425447 0.2332353944 0.4140993503
0.9278200983 0.2344427783 0.4455332506
0.937661779 0.2370514989 0.4773001401
0.9476598696 0.2402404275 0.5049259491
0.9575362521 0.2446785992 0.5312440104
0.1853889427 0.6429207528 0.1543480489
0.2447946384 0.6271936072 0.1548286697
0.4103497528 0.5731739249 0.1547611147
0.5351755117 0.5285896568 0.161311137
0.616296952 0.4876787534 0.1725983102
0.6802682106 0.4535495309 0.1876859591
0.7333513831 0.4215842236 0.2039483597
0.7741094653 0.3954785958 0.2252003512
0.8101550905 0.3683158447 0.2544005141
0.841370383 0.3495815868 0.2816779464
0.866596843 0.3327308142 0.3093295131
0.8870145057 0.3202203738 0.3342122829
0.9059602675 0.3106508789 0.3584644074
0.9235134526 0.3020988188 0.3826077793
0.9356343795 0.2951591887 0.4082202449
0.9470480741 0.2908968154 0.4331154527
0.9580877122 0.2895861818 0.4583190445
0.2236027053 0.7225637052 0.1386128197
0.2632712309 0.708843841 0.1406076028
0.3877267547 0.6663020383 0.1460265341
0.5067961063 0.6219402637 0.1543050997
0.5904479678 0.5837127051 0.1666348599
0.6571280869 0.5537035134 0.1816573492
0.7129511827 0.5232447293 0.2009658322
0.7561750302 0.4950395667 0.2219572368
0.7934137471 0.4708910176 0.2466896376
0.8255061234 0.4495978316 0.2693363959
0.8529275631 0.4281599922 0.2942900454
0.8757434793 0.4117488492 0.320156774
0.8942982878 0.3990920341 0.3429985024
0.913192815 0.3865795593 0.3627784723
0.9284512459 0.3754052602 0.3833072604
0.9398227308 0.3664917565 0.4038309337
0.9522319313 0.3601120018 0.4219060449
0.2597105303 0.7727507025 0.1375961147
0.2909057693 0.7673360259 0.1365282214
0.3816139859 0.7391790641 0.1438901894
0.4861330289 0.6955791458 0.1545100278
0.5718238844 0.656754847 0.169527247
0.6384022085 0.6261839669 0.187200445
0.6939342792 0.5944235592 0.2042245021
0.7401174299 0.5704119858 0.2238072329
0.7774861821 0.5480283396 0.245730122
0.810462973 0.5264973092 0.2658752652
0.8399339416 0.506099073 0.2870696345
0.8645022673 0.4894713438 0.3108877173
0.8845089157 0.474131552 0.3321207318
0.9025038048 0.460620506 0.3519978445
0.9204459685 0.4492934806 0.3720207113
0.9330268832 0.4385165116 0.3922839453
0.9448428351 0.4287859071 0.4094335198
0.2971152302 0.8111560627 0.1492130813
0.319140938 0.8068876317 0.1472185775
0.3876222849 0.7840053869 0.1547268107
0.4757653654 0.7520159468 0.1637820597
0.5568427905 0.7185609472 0.1761742564
0.6221252213 0.6862603224 0.1928046846
0.6752057187 0.6579648636 0.2099728031
0.7248432871 0.6327759831 0.2286499775
0.7638168016 0.6105880371 0.2485461191
0.7975093776 0.5878372277 0.2668110006
0.827371019 0.5706556425 0.2862434032
0.8533449671 0.5538245854 0.3079145736
0.8752346911 0.5383261404 0.3271678548
0.8929703422 0.5233364709 0.3450385133
0.9112021129 0.5092593371 0.3627858768
0.9266118789 0.4974304063 0.3811350702
0.9379627109 0.4878929797 0.3998573499
0.3292315643 0.8394266522 0.1600993263
0.3474924239 0.8364569369 0.1586240087
0.3978114038 0.8212624755 0.1653684265
0.4713689727 0.795489004 0.1743958663
0.545890022 0.7657112373 0.1852124364
0.6101131632 0.7399380986 0.1991113362
0.6622982567 0.7142653417 0.2162254878
0.7111163879 0.6885962647 0.2349079759
0.7504179912 0.6652612691 0.2524896007
0.7848911622 0.6415023532 0.26866082
0.8154270527 0.6255525651 0.2873028797
0.8427034117 0.6080264225 0.3075543207
0.8657342551 0.5905026795 0.3255642223
0.8846692991 0.5769854171 0.3425431107
0.9020449236 0.5641805537 0.3588775214
0.9196798235 0.5522534741 0.375345337
0.9321766584 0.5413757344 0.3930167654
0.3583129843 0.8622370906 0.1717380746
0.3728772455 0.8602551528 0.170527306
0.4113811561 0.849357827 0.177483501
0.4715214219 0.8305093286 0.185316806
0.5379145043 0.8056117727 0.194722518
0.5974312135 0.7799559991 0.2067224588
0.6527915972 0.7566484362 0.223254609
0.6990093007 0.737509978 0.2404382858
0.73789006 0.7147969083 0.2571718274
0.7727216502 0.6930051117 0.2727885305
0.804700456 0.6752829177 0.290866617
0.8327979298 0.6566771386 0.3099314774
0.8566143995 0.6392611783 0.3265130194
0.8767951807 0.626597598 0.3419302752
0.8936311651 0.6125872348 0.3568409385
0.9112344917 0.5973693986 0.3720508943
0.9263269902 0.585759596 0.3881024282
0.3835764866 0.8829131074 0.1839803747
0.394123042 0.8809051233 0.1829097381
0.4263120303 0.871148181 0.1878884495
0.4746596483 0.8569927865 0.1953457903
0.5328081309 0.8377969319 0.2045300262
0.5878247785 0.8171478921 0.2154208581
0.642105796 0.7946320072 0.2291976525
0.6884221912 0.7735198927 0.2474265335
0.7273983957 0.7553576449 0.2620243366
0.7620385418 0.7384231189 0.2776381383
0.7939184271 0.7205488334 0.2950658874
0.8223247401 0.7017243247 0.3120238918
0.8475888655 0.6852574403 0.3273531828
0.8688460974 0.6708084392 0.3422203021
0.8863458721 0.655110734 0.3565313433
0.9032027098 0.6410340359 0.3711126733
0.9201614593 0.6308232257 0.3866897022
0.4038289892 0.8993570941 0.1950016066
0.4133927795 0.897936656 0.1940554891
0.4414432425 0.8917205824 0.1977531005
0.4803343767 0.8796633911 0.2058525167
0.5311100877 0.8628292039 0.2144664157
0.5808062248 0.8462037194 0.2255779091
0.6316927446 0.827075833 0.2378167075
0.6772353607 0.807850662 0.251590307
0.7186790316 0.7889435545 0.2672167087
0.7529093402 0.7723447044 0.2825170239
0.7837870291 0.7571017942 0.300004312
0.8124531114 0.7427890372 0.3160945628
0.8386742996 0.7279646919 0.3299425928
0.8610615885 0.7121455609 0.3438776459
0.8796981947 0.6968059338 0.357516537
0.8959355391 0.6838691333 0.3712695058
0.9129530349 0.6720550866 0.3857028989
0.4249558233 0.9118800049 0.2066926086
0.4337912395 0.91094323 0.2059120018
0.4553924055 0.9070529983 0.2093188653
0.4874846884 0.8992137504 0.2180411776
0.5322895426 0.8857340483 0.2256026618
0.5766237425 0.8700555605 0.2368755904
0.6235199927 0.8538120273 0.2469383146
0.6670972091 0.8368631941 0.2588982668
0.711395765 0.8199305023 0.2732782093
0.7449714307 0.8047850848 0.2879873505
0.7749118451 0.7891305401 0.3045400768
0.8034669311 0.7742315347 0.3197508614
0.8295272805 0.76046537 0.3329687214
0.8528755581 0.747691053 0.3457455823
0.8729151447 0.7353124371 0.3586865509
0.8894260322 0.7226645346 0.3720689838
0.9060272885 0.7097967902 0.3861571731
0.4446919738 0.9231272502 0.2190029554
0.4512739051 0.9223529507 0.2182948315
0.4685657252 0.9192448004 0.2210759043
0.4954617305 0.9128445389 0.230085878
0.5353497751 0.9038305641 0.2373810701
0.5745123975 0.8921677874 0.2473369792
0.617954458 0.8763809747 0.2569282318
0.6599966933 0.8610260122 0.2666857013
0.7028903657 0.8469340726 0.2786924019
0.738299053 0.8320942123 0.2956837886
0.7677318379 0.8190090336 0.3099296284
0.795845222 0.805557738 0.3240752689
0.8212837091 0.7912868297 0.3369117291
0.8451741305 0.7776775138 0.3491752487
0.8659256549 0.7654083699 0.3611337064
0.8834173183 0.7541674965 0.3735979093
0.8992900844 0.743696106 0.3869183849
0.4608569635 0.9335695435 0.2317263631
0.4664030886 0.9329651475 0.2310125877
0.4809172124 0.9303768053 0.23370049
0.5039866672 0.924336576 0.242252066
0.5395039398 0.9168344838 0.2484595301
0.5741097621 0.9079886591 0.2575313919
0.614363625 0.8969493478 0.2663207736
0.6544708754 0.8834723853 0.2745922974
0.6947984422 0.8692639723 0.2871986654
0.7307105284 0.8558113428 0.3000161642
0.7616930812 0.8436236812 0.3163319674
0.7889963198 0.8319288155 0.3284822238
0.8140687792 0.8197292023 0.3410156721
0.8380188856 0.8074154636 0.3531060468
0.8591389093 0.7950559297 0.3648789726
0.8775226539 0.7828735534 0.376662341
0.8932852286 0.7717652666 0.3891378541
0.4753737615 0.9429533323 0.2448512222
0.4800058507 0.9424713968 0.2440022361
0.4919042126 0.9399628629 0.2462664998
0.5132012861 0.9348021051 0.2521400303
0.5443418211 0.9284340642 0.2590894178
0.5752973604 0.9205458807 0.2666289647
0.6122518146 0.9116094763 0.274927352
0.6505044577 0.9016832999 0.2845251151
0.6878540852 0.8903650672 0.2959216635
0.7232146691 0.876663597 0.3075201254
0.7557732535 0.8642095831 0.3209208428
0.7829948821 0.8538074869 0.3337027507
0.8078690246 0.8436002334 0.3450947548
0.8314097388 0.832573424 0.3569503559
0.8528362653 0.8217835844 0.3687970691
0.8716949717 0.810952134 0.3804282538
0.8877091324 0.7999001194 0.392221754
0.4879647512 0.9509638533 0.2564233719
0.4918021372 0.9505233469 0.2554632122
0.502802586 0.9482566598 0.2572653192
0.5236171298 0.9443516514 0.261184456
0.5496206097 0.9390411031 0.2693821919
0.5775117101 0.9322612436 0.2761508975
0.6116093812 0.9240559712 0.2847605772
0.6476685278 0.915007758 0.2950211952
0.6817481637 0.9064759628 0.3043225114
0.716981542 0.8960296657 0.3149494404
0.7488297979 0.8846050404 0.3252915039
0.7774125881 0.8726886576 0.3388067575
0.8023911626 0.8630868501 0.349710822
0.8253617768 0.8538206326 0.3606406645
0.8470454401 0.8444807849 0.3724337655
0.8660496759 0.834527349 0.3841084085
0.8824910591 0.8246115524 0.3953310791
0.4997641368 0.9575462935 0.266525897
0.503581354 0.9571975137 0.2654505946
0.5148976354 0.9554941458 0.2674449612
0.5340857746 0.9528232982 0.2712680486
0.555241313 0.948536497 0.2800705246
0.5808910451 0.9427541925 0.2863640805
0.6118617919 0.935510301 0.2956174589
0.6454356289 0.9272403797 0.3046663437
0.6773267396 0.919030748 0.3136837417
0.7117654682 0.9101336195 0.3217396721
0.7424992951 0.9015025925 0.3315126544
0.7708910378 0.8920295097 0.3413156685
0.7975319296 0.8817696339 0.3546743371
