app/src/main/assets/spektrafilm/profiles/kodak_portra_800_push1_film.cube
# ============================================================================
# spektrafilm LUT
# Bundle:  spektrafilm_v033_portra800_8printpack_2lut_prophoto_prophoto  (2lut, 17^3)
# Film:    kodak_portra_800_push1
# Print:   fujifilm_crystal_archive_typeii, kodak_2383, kodak_2393, kodak_ektacolor_edge, kodak_endura_premier, kodak_portra_endura, kodak_supra_endura, kodak_ultra_endura
# Input:   ProPhoto RGB  (cctf on)
# Output:  ProPhoto RGB  (cctf on)
# Created: 2026-06-02T06:13:08Z
# spektrafilm: 0.3.3
# Project: https://github.com/andreavolpato/spektrafilm
#
# Copyright (c) 2026 Andrea Volpato. Generated by spektrafilm. Licensed under CC BY-SA 4.0.
#
# License: spektrafilm LUT by Andrea Volpato, licensed under CC BY-SA 4.0.
#          Full text and attribution requirements in SPEKTRAFILM_LICENSE.txt
#          (shipped in this bundle); also at
#          https://github.com/andreavolpato/spektrafilm/blob/main/SPEKTRAFILM_LICENSE.txt.
#
# Citation: If you use this LUT in your work, please cite the spektrafilm
#           project: https://github.com/andreavolpato/spektrafilm, see
#           CITATION.cff for details.
#
# Notes: Generated by the spektrafilm LUT bundle builder. Apply with trilinear
#        or tetrahedral interpolation in your host (DaVinci Resolve, Nuke,
#        OCIO-aware DCC). The input and output color spaces are declared in
#        bundle.json; do NOT apply this LUT to a signal in a different color
#        space.
#
# Role:    film  (domain=input_rgb → range=cmy_film)
# File: lut_v033_portra800_film.cube  (see sibling bundle.json for full metadata)
# ============================================================================
TITLE "v033_portra800_film"
DOMAIN_MIN 0 0 0
DOMAIN_MAX 1 1 1
LUT_3D_SIZE 5
0.08449871139 0.09294976065 0.08262755629
0.6834914661 0.09454588301 0.09886003984
0.8507224109 0.09946852398 0.1524810026
0.9185137086 0.1064408574 0.2158959249
0.9564044795 0.1131004841 0.2763823918
0.1062386287 0.7106751533 0.08321866546
0.4663121188 0.5449372823 0.08703229429
0.7375209708 0.3749391765 0.1002357784
0.8598562363 0.2571543717 0.1224903736
0.9233996671 0.2106697569 0.1594482832
0.1991459187 0.8828797748 0.08517543838
0.3462857947 0.844730023 0.08954191522
0.6213627212 0.6981682604 0.09957787327
0.7875142261 0.5880674718 0.113596113
0.8781779404 0.5138754906 0.1348024036
0.295267776 0.9341967342 0.08819331717
0.3470874591 0.9282449231 0.092874105
0.5335716191 0.8654515343 0.1028990063
0.7137777277 0.7774519032 0.114668291
0.828528273 0.7011455333 0.1309793138
0.3590360277 0.9567838213 0.09278309819
0.383395137 0.9549949626 0.09642846339
0.488733088 0.9350218838 0.10677859
0.6499261372 0.8860640406 0.1187303356
0.7754163666 0.8312066015 0.1339172763
0.08507024936 0.197621732 0.6692372391
0.5433552783 0.107875219 0.5531835892
0.7664194778 0.1096764537 0.6011190472
0.8718040916 0.1134896094 0.5966723737
0.9304126262 0.1199070392 0.5745986931
0.1032821955 0.6276065963 0.5339697652
0.4326970992 0.4766291298 0.4072560066
0.7022772523 0.2970870304 0.3830436963
0.8425729467 0.1928708716 0.3972713716
0.9163328821 0.1645244786 0.4101215361
0.1849753747 0.8250610636 0.3628667385
0.3421931597 0.7696798689 0.3447213553
0.6155118817 0.6464667941 0.270017184
0.7794701988 0.5536961921 0.2460235747
0.8731058872 0.4834401848 0.2570771325
0.2803665466 0.9065981384 0.2152002984
0.3428776022 0.8948698835 0.2477847075
0.530875044 0.832533488 0.2364841871
0.7130972025 0.7478619704 0.2170557241
0.8279966878 0.6815326302 0.2191251231
0.3506228631 0.9435291721 0.1563438151
0.377880832 0.9405549615 0.1809754901
0.4897830046 0.9167001209 0.2054699182
0.6484413818 0.8680278502 0.207441073
0.7758889849 0.8126708045 0.2113210551
0.08826526184 0.415015312 0.8657014161
0.3957764739 0.1985469744 0.7802523252
0.6970811205 0.1366231252 0.7121811161
0.8252223068 0.1339600047 0.7330497164
0.89908204 0.1391443812 0.7480864704
0.1013618033 0.6112201796 0.8226865814
0.3046932094 0.506421608 0.7318448953
0.6438729609 0.3276612264 0.63077374
0.7949027333 0.2194821705 0.6453647699
0.8804583727 0.1842863518 0.6659009772
0.1642032397 0.7754775736 0.7090460955
0.2857009334 0.7387689042 0.6487960191
0.5760196137 0.6155774634 0.5525198256
0.7469654978 0.5228242212 0.5197817337
0.8496244759 0.4516215174 0.5181514433
0.2574253087 0.8683557696 0.5973884606
0.3257602434 0.8546255951 0.5822221101
0.5118940231 0.7904998638 0.5205949302
0.696014844 0.7100096633 0.4647715787
0.8150971645 0.6486848268 0.4404420146
0.3345302885 0.9186163684 0.5035302067
0.3671785875 0.9142794312 0.5115066729
0.4821561124 0.888853909 0.4895819634
0.6371535771 0.8389417172 0.4478255144
0.7693359044 0.7815529963 0.4158519946
0.09527121224 0.516898877 0.9281805165
0.1263026659 0.4713340197 0.9231065565
0.6412891186 0.2098426848 0.8095455353
0.7824893735 0.1669217239 0.7909571702
0.8690045354 0.1620058713 0.8062955559
0.1076871724 0.6248740602 0.9137319248
0.1500384732 0.5848874967 0.8899084143
0.5952692878 0.3940486064 0.7837442593
0.7557762739 0.2789755961 0.7510805338
0.8537792062 0.2251354656 0.7634880206
0.1549113859 0.757620293 0.8608565242
0.2097712049 0.73818674 0.8269241027
0.5186687864 0.6189446584 0.7478167353
0.7128286229 0.5238010075 0.6906143428
0.820674837 0.4570821236 0.6839308478
0.238694147 0.8456261726 0.7934032322
0.2902327364 0.8374855969 0.7708047069
0.4725142258 0.7780864932 0.7059833585
0.6638573663 0.6949440837 0.6474530496
0.7879776209 0.6306409144 0.6169615947
0.3186701605 0.899461945 0.7270885444
0.3500293644 0.8958920364 0.7209674651
0.4610950847 0.8695438564 0.6760482846
0.6150674164 0.8169816341 0.6231417866
0.7520689449 0.7592408454 0.5750580704
0.1058509818 0.5820049747 0.9549036704
0.1098753349 0.5669995679 0.9517602423
0.5276559443 0.3475531572 0.8964108395
0.7488725457 0.2407379288 0.8484141303
0.8411915367 0.2055124797 0.8441049541
0.1172988414 0.6468791963 0.9487967872
0.1251487759 0.6379991843 0.9392753437
0.485387248 0.4728664544 0.8893285733
0.7286786471 0.3598510807 0.833734591
0.8259420557 0.2847423113 0.8237284678
0.1554027351 0.7532379929 0.9228505125
0.1752023547 0.7434387916 0.908482281
0.4443409935 0.646104947 0.865728074
0.6802236036 0.5410958587 0.8069644321
0.7958240171 0.4746156878 0.7778982888
0.2261713762 0.8347606777 0.8876144103
0.2568833223 0.8290978017 0.8741468396
0.4279115312 0.7796309057 0.8322242791
0.6273813432 0.6949378492 0.7784964053
0.763316836 0.6285325876 0.7425310114
0.3043158182 0.8866995408 0.8491124587
0.3305449933 0.8840616621 0.8408383356
0.4298651797 0.8630033785 0.8041219427
0.5843554894 0.8090397861 0.7538142134
0.7285825138 0.7498531542 0.7119476316
