app/src/main/assets/spektrafilm/profiles/kodak_gold_200_film.cube
# ============================================================================
# spektrafilm LUT
# Bundle:  spektrafilm_v033_gold200_8printpack_2lut_prophoto_prophoto  (2lut, 17^3)
# Film:    kodak_gold_200
# Print:   fujifilm_crystal_archive_typeii, kodak_2383, kodak_2393, kodak_ektacolor_edge, kodak_endura_premier, kodak_portra_endura, kodak_supra_endura, kodak_ultra_endura
# Input:   ProPhoto RGB  (cctf on)
# Output:  ProPhoto RGB  (cctf on)
# Created: 2026-06-02T06:13:06Z
# spektrafilm: 0.3.3
# Project: https://github.com/andreavolpato/spektrafilm
#
# Copyright (c) 2026 Andrea Volpato. Generated by spektrafilm. Licensed under CC BY-SA 4.0.
#
# License: spektrafilm LUT by Andrea Volpato, licensed under CC BY-SA 4.0.
#          Full text and attribution requirements in SPEKTRAFILM_LICENSE.txt
#          (shipped in this bundle); also at
#          https://github.com/andreavolpato/spektrafilm/blob/main/SPEKTRAFILM_LICENSE.txt.
#
# Citation: If you use this LUT in your work, please cite the spektrafilm
#           project: https://github.com/andreavolpato/spektrafilm, see
#           CITATION.cff for details.
#
# Notes: Generated by the spektrafilm LUT bundle builder. Apply with trilinear
#        or tetrahedral interpolation in your host (DaVinci Resolve, Nuke,
#        OCIO-aware DCC). The input and output color spaces are declared in
#        bundle.json; do NOT apply this LUT to a signal in a different color
#        space.
#
# Role:    film  (domain=input_rgb → range=cmy_film)
# File: lut_v033_gold200_film.cube  (see sibling bundle.json for full metadata)
# ============================================================================
TITLE "v033_gold200_film"
DOMAIN_MIN 0 0 0
DOMAIN_MAX 1 1 1
LUT_3D_SIZE 5
0.1078865034 0.1158077591 0.1063038163
0.8010387858 0.1222523952 0.1544754202
0.9067020866 0.1430633031 0.2723625015
0.9411072669 0.1737151065 0.3883129949
0.957499152 0.2166775855 0.4700849764
0.2288678547 0.7752711818 0.106710817
0.5391516248 0.6308027724 0.1200736655
0.8231754842 0.4664105283 0.160724794
0.9080266238 0.3882212173 0.2323492393
0.9425605587 0.3624043536 0.3334964835
0.4110149108 0.9031211075 0.1084559243
0.4888433361 0.8871739948 0.1196561125
0.7046924925 0.7941546203 0.1582007321
0.859312181 0.6862660812 0.2096757215
0.9172867669 0.6200715392 0.2838367222
0.5061766923 0.9410804065 0.1118715507
0.5316130023 0.9391060384 0.1213540399
0.6435564632 0.9084546107 0.1578138284
0.7914499915 0.8607213091 0.2080807518
0.8853704834 0.8093108643 0.271384278
0.5720188709 0.957728769 0.1167615904
0.5852994919 0.9571395227 0.1260135908
0.6449539372 0.9469307906 0.1583815554
0.7493345527 0.9263053092 0.2115948937
0.8461394155 0.8995050637 0.2733843517
0.1247733834 0.3009679713 0.7734422297
0.6548272126 0.1985160325 0.6325361659
0.8594320228 0.255576704 0.6849366515
0.9223628699 0.3078883513 0.7138846417
0.9498056967 0.3476431106 0.7271107814
0.2271136343 0.661865512 0.6332002834
0.5274245668 0.5686050384 0.561228855
0.8023090913 0.435776458 0.5388726503
0.9034537055 0.3653624758 0.5607735327
0.9413216336 0.3558864396 0.5904497027
0.3959780438 0.8566784248 0.4382993197
0.4722932193 0.8364158381 0.4841692924
0.7142791573 0.7464682594 0.4511885012
0.8603638028 0.6602421231 0.4415935839
0.9168024051 0.5980643252 0.4612085976
0.495218007 0.9234920196 0.2588323339
0.5195778358 0.9193562014 0.352997999
0.6400916478 0.8906092321 0.4033472065
0.7996822844 0.8419346593 0.40907528
0.8898964207 0.7959842146 0.4272443932
0.5631860096 0.9493078776 0.1930392213
0.5758884831 0.9483452 0.2522514483
0.6397980583 0.9390921554 0.3403038881
0.7499419308 0.9174842581 0.3849610778
0.8510123157 0.8916236747 0.4139060888
0.1903005192 0.4788596628 0.8975753403
0.5356427965 0.4032701949 0.8387679372
0.8092476551 0.3353263798 0.7965211253
0.9014899329 0.3900398359 0.8207474029
0.9379208233 0.4413496992 0.8487904219
0.2645917637 0.6369968748 0.8682560527
0.4466850926 0.6070251287 0.8282866137
0.7613183553 0.4867794571 0.7689047364
0.8775712697 0.4455650506 0.7804687069
0.9284625409 0.4517857558 0.8091312368
0.39132289 0.8151669451 0.7971356896
0.4478113525 0.8122982852 0.7773283155
0.6905618951 0.7277641695 0.7223066989
0.8437127655 0.6486839724 0.7004188788
0.9084629708 0.5927563587 0.7083170634
0.4813277316 0.8963072405 0.6993917317
0.5081194862 0.895257273 0.7156591807
0.6282547292 0.8688211226 0.6940193947
0.797748948 0.8197702688 0.6549437808
0.8862776744 0.7765606856 0.6376358714
0.5490688734 0.9348336636 0.6012744599
0.5633815783 0.9341600855 0.6319351857
0.6302232125 0.9249606997 0.6493304267
0.7467244215 0.9028917994 0.6331412967
0.8547797618 0.8769690481 0.6125687587
0.2740000429 0.5663476949 0.9372709541
0.3995862565 0.5683914158 0.9218425623
0.7828206944 0.4509424765 0.8765938272
0.8766074809 0.4392645207 0.8696656812
0.9263888656 0.4761084231 0.8853165105
0.3205856824 0.6590761052 0.9297469096
0.3941775905 0.6610130348 0.9128892705
0.7400687604 0.5534529166 0.8749188112
0.8576703797 0.49771258 0.8599660033
0.9155039612 0.4981035711 0.8700385242
0.4065387864 0.8006040071 0.9019547589
0.4347827269 0.8059318564 0.8895106561
0.650646854 0.7426059193 0.8633358854
0.8261226795 0.6670474379 0.8359718371
0.8972875627 0.6181129019 0.8370242095
0.4817059442 0.880391165 0.8686408713
0.5012031022 0.8830619082 0.865937252
0.6089091602 0.8636551627 0.8422623539
0.7818853848 0.8157700232 0.8145074864
0.8760731286 0.7749865052 0.802974355
0.5427719938 0.9221970734 0.8234365318
0.556152459 0.9229596163 0.830115879
0.6197953893 0.9156158525 0.8225915406
0.7372021816 0.8950183306 0.8026966596
0.849806338 0.8685328348 0.7776872878
0.3442921364 0.6325830937 0.9568957826
0.3774450984 0.6280612452 0.9504162082
0.7019418357 0.557260676 0.9282575824
0.8641776781 0.5051295681 0.9090164301
0.9131361835 0.5085161296 0.9089533959
0.373782434 0.6906487518 0.9552347929
0.3966021266 0.6942796927 0.9465319443
0.6508897323 0.6326813991 0.9299368153
0.8516621295 0.5626810233 0.9074016721
0.9049557613 0.5394171726 0.9046769031
0.4302205702 0.8013474492 0.9426166975
0.4422543953 0.8048601915 0.9357768238
0.6052420914 0.7754367848 0.9229319616
0.8150295143 0.6961989497 0.9012838635
0.886030514 0.6500239977 0.8946359354
0.4922887614 0.8730674667 0.9267343379
0.5025067062 0.8761998515 0.9227641754
0.591135487 0.866657234 0.9092278526
0.7624539667 0.8237304807 0.8939230621
0.8675864955 0.7859590916 0.8816512007
0.5454433177 0.9144646294 0.9074650918
0.5551440505 0.916144375 0.9075073301
0.6089710331 0.9131020386 0.8990566161
0.7230680965 0.8946557789 0.8845742545
0.8405486344 0.8687565393 0.8699180903
