app/src/main/assets/spektrafilm/profiles/kodak_vision3_500t_film.cube
# ============================================================================
# spektrafilm LUT
# Bundle:  spektrafilm_v033_vision3500t_8printpack_2lut_prophoto_prophoto  (2lut, 17^3)
# Film:    kodak_vision3_500t
# Print:   fujifilm_crystal_archive_typeii, kodak_2383, kodak_2393, kodak_ektacolor_edge, kodak_endura_premier, kodak_portra_endura, kodak_supra_endura, kodak_ultra_endura
# Input:   ProPhoto RGB  (cctf on)
# Output:  ProPhoto RGB  (cctf on)
# Created: 2026-06-02T06:13:11Z
# spektrafilm: 0.3.3
# Project: https://github.com/andreavolpato/spektrafilm
#
# Copyright (c) 2026 Andrea Volpato. Generated by spektrafilm. Licensed under CC BY-SA 4.0.
#
# License: spektrafilm LUT by Andrea Volpato, licensed under CC BY-SA 4.0.
#          Full text and attribution requirements in SPEKTRAFILM_LICENSE.txt
#          (shipped in this bundle); also at
#          https://github.com/andreavolpato/spektrafilm/blob/main/SPEKTRAFILM_LICENSE.txt.
#
# Citation: If you use this LUT in your work, please cite the spektrafilm
#           project: https://github.com/andreavolpato/spektrafilm, see
#           CITATION.cff for details.
#
# Notes: Generated by the spektrafilm LUT bundle builder. Apply with trilinear
#        or tetrahedral interpolation in your host (DaVinci Resolve, Nuke,
#        OCIO-aware DCC). The input and output color spaces are declared in
#        bundle.json; do NOT apply this LUT to a signal in a different color
#        space.
#
# Role:    film  (domain=input_rgb → range=cmy_film)
# File: lut_v033_vision3500t_film.cube  (see sibling bundle.json for full metadata)
# ============================================================================
TITLE "v033_vision3500t_film"
DOMAIN_MIN 0 0 0
DOMAIN_MAX 1 1 1
LUT_3D_SIZE 5
0.1129369247 0.1175778954 0.09871668312
0.6835677633 0.1294385645 0.3438447051
0.8311880558 0.1548178869 0.4942712294
0.9066714495 0.1833553755 0.5717909348
0.9521925782 0.2129387082 0.630829827
0.2241460122 0.7221303341 0.1222551483
0.5956231356 0.5757353925 0.1628043214
0.796164598 0.459869992 0.2475687723
0.8959578031 0.3885859837 0.3446609759
0.9533870159 0.3516972398 0.4241789556
0.3591955522 0.8610685273 0.1686335504
0.5406836417 0.8020352446 0.1941260057
0.7396408779 0.710831265 0.2572737825
0.8575943515 0.6363425048 0.3266634649
0.9269556408 0.5827987569 0.388519185
0.4451875094 0.922637421 0.2172715129
0.5370019972 0.9026021836 0.2372243636
0.704218028 0.8453933421 0.2785754948
0.8221079002 0.7894848827 0.3369150085
0.8998100838 0.7421154886 0.3870262841
0.5000656443 0.9573159161 0.2654042376
0.5559446111 0.9479747547 0.2798783166
0.6783286984 0.9183853959 0.3133402406
0.7981226132 0.8808708079 0.354647198
0.8778860588 0.8449926533 0.3983344379
0.1167720305 0.2192061241 0.657343752
0.6163554796 0.1476778981 0.7508181077
0.7948418873 0.1618357902 0.8143824877
0.8861612979 0.1883617144 0.8022124212
0.940058045 0.21476666 0.7870944654
0.2170746771 0.6416447656 0.5853186841
0.5677226914 0.5491361845 0.5156997261
0.7780593108 0.4316844588 0.5071842216
0.8880174591 0.3561785649 0.5197997276
0.9469379347 0.3375482969 0.5457487796
0.3601619494 0.8195553939 0.4760887617
0.5302255714 0.7733457719 0.4484724896
0.7327628869 0.7006700372 0.4210420089
0.8520553287 0.636087867 0.4254115596
0.9234773059 0.5865863162 0.4446942496
0.4426499783 0.9105058758 0.3814141944
0.5286869281 0.8941084107 0.3778533597
0.6954858742 0.8433027524 0.3770866057
0.8172272296 0.7940569466 0.395487279
0.8956584695 0.7499108851 0.4187625206
0.4970492972 0.9555758938 0.3334871329
0.5503625922 0.9480937095 0.3387333294
0.6699495626 0.9208613152 0.3529440594
0.7921712484 0.8875389636 0.3746498496
0.8735672277 0.8532557558 0.4066636572
0.131585286 0.3622377423 0.8231800521
0.5288787928 0.2640286059 0.8051728334
0.761777624 0.1960116866 0.8773144294
0.8654313507 0.2045960822 0.9104886939
0.9267944375 0.2307586352 0.9185609515
0.1991276296 0.6184187129 0.797965193
0.495694357 0.5578425156 0.746120726
0.735842466 0.4447114484 0.764336121
0.8556935869 0.3581368916 0.8196184444
0.923133689 0.3276747849 0.8484924877
0.3442774613 0.7827283813 0.7276272818
0.5003207833 0.7485940413 0.6881980896
0.7120771376 0.6790530263 0.6509972892
0.8347146897 0.6167702332 0.6430486396
0.9129428935 0.5584310512 0.6440459195
0.4460469132 0.874925472 0.6635461576
0.5287089334 0.858336447 0.6472435946
0.6860527042 0.8143795944 0.6158609746
0.8104090152 0.7703544102 0.593644863
0.8901379796 0.730288652 0.5821369871
0.5013148319 0.929612592 0.6079015245
0.553597583 0.9224834714 0.6012686545
0.6677159071 0.9000139665 0.5808244575
0.788187654 0.8663220614 0.5615292552
0.8723003467 0.8370181753 0.5532410918
0.1539593918 0.4512511528 0.8944118496
0.310824122 0.4467704466 0.9042183343
0.7207396064 0.2767455665 0.8863912207
0.8457123946 0.2496346396 0.9281121994
0.9134665386 0.2586509365 0.948921615
0.2137671207 0.6187069836 0.8855866917
0.3660422174 0.5971706946 0.8694155019
0.696685174 0.4863090079 0.8425151594
0.8319188489 0.3998803027 0.8836329257
0.9071865363 0.3565287873 0.9147677002
0.3187599632 0.7662559823 0.844223253
0.444821541 0.7519271648 0.8190109513
0.678175014 0.6783890369 0.7890006361
0.8095186126 0.6159738359 0.794195603
0.891621189 0.5572742707 0.816160578
0.4299364818 0.8582004482 0.8036693865
0.5024417984 0.8460753198 0.7863615987
0.6642718648 0.8027224807 0.7519804826
0.7946894639 0.7595857717 0.7342554979
0.8780147748 0.7183328893 0.7274203753
0.4983926706 0.9137658742 0.7631618339
0.5488336085 0.9075124783 0.752694844
0.6594775817 0.8832465718 0.7322799668
0.778665215 0.8513393667 0.7077763529
0.8643444993 0.8228190381 0.6906176218
0.1783720517 0.5057210105 0.9303456571
0.1995840001 0.5495331943 0.9342557082
0.6675182477 0.395828717 0.9127191355
0.8199994836 0.3167068342 0.9329461716
0.8984945848 0.2990254137 0.9570398557
0.2296063015 0.6229855657 0.9253483843
0.2575653489 0.636932386 0.920590189
0.6526969063 0.5342088245 0.8999409372
0.8054822921 0.4499497704 0.9087845405
0.8912113374 0.3971296972 0.9349803452
0.3155718962 0.7559147561 0.9075046712
0.3748925821 0.7597614302 0.8935628726
0.638412772 0.6891855096 0.8721785219
0.785412318 0.627263336 0.8690697652
0.8762904002 0.5700022057 0.8872857982
0.4100553353 0.8484425667 0.880437416
0.469688556 0.8434378846 0.867223438
0.6352457188 0.8037492817 0.8400436716
0.7748966179 0.7581634853 0.8257091677
0.8634111085 0.7166629688 0.8253158279
0.4870834476 0.9056416513 0.85152445
0.5326163625 0.9011510322 0.8427219685
0.6425795007 0.8772307589 0.8233435926
0.7640458292 0.845538299 0.8023240811
0.8531542423 0.8163269435 0.7898757264
