app/src/main/assets/spektrafilm/profiles/kodak_vision3_250d_film.cube
# ============================================================================
# spektrafilm LUT
# Bundle:  spektrafilm_v033_vision3250d_8printpack_2lut_prophoto_prophoto  (2lut, 17^3)
# Film:    kodak_vision3_250d
# Print:   fujifilm_crystal_archive_typeii, kodak_2383, kodak_2393, kodak_ektacolor_edge, kodak_endura_premier, kodak_portra_endura, kodak_supra_endura, kodak_ultra_endura
# Input:   ProPhoto RGB  (cctf on)
# Output:  ProPhoto RGB  (cctf on)
# Created: 2026-06-02T06:13:11Z
# spektrafilm: 0.3.3
# Project: https://github.com/andreavolpato/spektrafilm
#
# Copyright (c) 2026 Andrea Volpato. Generated by spektrafilm. Licensed under CC BY-SA 4.0.
#
# License: spektrafilm LUT by Andrea Volpato, licensed under CC BY-SA 4.0.
#          Full text and attribution requirements in SPEKTRAFILM_LICENSE.txt
#          (shipped in this bundle); also at
#          https://github.com/andreavolpato/spektrafilm/blob/main/SPEKTRAFILM_LICENSE.txt.
#
# Citation: If you use this LUT in your work, please cite the spektrafilm
#           project: https://github.com/andreavolpato/spektrafilm, see
#           CITATION.cff for details.
#
# Notes: Generated by the spektrafilm LUT bundle builder. Apply with trilinear
#        or tetrahedral interpolation in your host (DaVinci Resolve, Nuke,
#        OCIO-aware DCC). The input and output color spaces are declared in
#        bundle.json; do NOT apply this LUT to a signal in a different color
#        space.
#
# Role:    film  (domain=input_rgb → range=cmy_film)
# File: lut_v033_vision3250d_film.cube  (see sibling bundle.json for full metadata)
# ============================================================================
TITLE "v033_vision3250d_film"
DOMAIN_MIN 0 0 0
DOMAIN_MAX 1 1 1
LUT_3D_SIZE 5
0.11313497 0.1090928926 0.09984025559
0.7155987755 0.1232523698 0.2576299017
0.8530779224 0.1510103762 0.4112271527
0.9203397956 0.1821899272 0.4932160002
0.9577683208 0.2186161432 0.5498463328
0.1655528602 0.7054558977 0.1080897078
0.5669895262 0.5743306104 0.1409231837
0.7928210826 0.4728687575 0.2080086545
0.8928704761 0.4170212446 0.288928921
0.943712105 0.3925649978 0.3730633898
0.2680018206 0.8613571939 0.1297492064
0.4296060383 0.8240331131 0.1550282853
0.7072513658 0.7165361838 0.2063194311
0.8431694432 0.6460887827 0.2710296379
0.9147123994 0.6019420272 0.3361607912
0.3511054215 0.9241518146 0.1539993081
0.4155596344 0.916736689 0.1725406959
0.6198153055 0.858417212 0.2172995334
0.7878984568 0.795527216 0.2709627479
0.8822001079 0.7474412538 0.3283134878
0.4112401463 0.9574218094 0.1788316368
0.4431975666 0.956166441 0.1944505191
0.5660114533 0.9327653929 0.2322421445
0.72746031 0.8909979149 0.27952182
0.842610949 0.8487933185 0.3289822347
0.1154411511 0.2496093412 0.6941406418
0.6303721815 0.1618212031 0.6202822628
0.8149835347 0.176302764 0.6909988512
0.8978210229 0.2024992824 0.7296029856
0.9440806126 0.232252225 0.7478281404
0.1558417545 0.6192817087 0.6029821351
0.5401595989 0.5309880736 0.530189637
0.773266039 0.4320187795 0.5315147033
0.8850325866 0.3624702296 0.5679342771
0.9388523813 0.3381835476 0.6063011374
0.259520378 0.8099994097 0.4780486818
0.4423671727 0.7662322393 0.4833081062
0.7080718573 0.6810353335 0.4506199332
0.8414085034 0.6218621429 0.449451823
0.9134374669 0.5779959415 0.4670513179
0.343767266 0.9020200294 0.3785404586
0.4243371272 0.8895765697 0.4150614486
0.626582944 0.8334813771 0.4223915387
0.7912940318 0.7763365637 0.4245873423
0.8832634056 0.7355127337 0.4392075139
0.4058334423 0.9472706446 0.3305487439
0.4451181434 0.9432724584 0.3615196928
0.5752554853 0.9173883185 0.3931917695
0.7322100431 0.8782199889 0.4110133318
0.8450494037 0.8388765111 0.4280889006
0.1247942351 0.4125650492 0.8549932257
0.4975203325 0.3042686311 0.7941499757
0.7718377004 0.2385908021 0.7605863759
0.8763178504 0.2454907848 0.7987381732
0.9305056901 0.2689636481 0.8307765824
0.1497408656 0.5948314992 0.8224231932
0.4300006631 0.5475130247 0.7624182208
0.7344169918 0.4504339462 0.7136348478
0.8563874846 0.3882830507 0.7393273739
0.9227715872 0.3619555802 0.77123256
0.2366849324 0.7667081885 0.7505838943
0.3954105278 0.7431236846 0.7160147979
0.6805002147 0.6621279567 0.6669684806
0.8220868902 0.6073255041 0.6589541299
0.9004692727 0.5597314184 0.6703218174
0.3319848359 0.8655123854 0.6741362866
0.4186988575 0.8532031035 0.6732747063
0.6180341042 0.805082633 0.6426506261
0.7823211448 0.7530587358 0.6168001554
0.8757998732 0.7172508121 0.6079187888
0.3990813569 0.923056656 0.611221717
0.4455512085 0.9169502147 0.6213150125
0.5785898576 0.8941712002 0.6162149718
0.7310391239 0.8544357424 0.5972063465
0.8438596939 0.8207117096 0.5828842269
0.1405266515 0.4994765894 0.922715195
0.2320814302 0.4867575701 0.9095480874
0.726224594 0.3464489282 0.8423742618
0.8494578153 0.3091359459 0.8386817895
0.9162541011 0.3136483346 0.8591853871
0.1590705188 0.59895202 0.9111794889
0.2599023084 0.5952930511 0.8850704283
0.6932835189 0.4895074173 0.8287831568
0.8326981956 0.4303192666 0.8136370453
0.9063230393 0.3988170335 0.832241432
0.2217845933 0.7480578393 0.8702471709
0.3170402095 0.7427838327 0.8462378034
0.633630242 0.6642467517 0.8037755914
0.7994799719 0.608912536 0.7788961948
0.886001525 0.5646177271 0.784476249
0.3128335501 0.8441682065 0.8257465072
0.3829653145 0.8382945531 0.8146691636
0.5843972178 0.796190116 0.7739344743
0.7609644958 0.7438779143 0.7507668328
0.8594530436 0.7071895686 0.7433419905
0.3864041492 0.90475774 0.7782146756
0.4336537738 0.9004957614 0.7767785715
0.563789205 0.8798211062 0.7576458423
0.7176763536 0.84106993 0.7321612342
0.8339997528 0.8071775532 0.7111933162
0.1586743804 0.5567377687 0.9557671308
0.1772460583 0.5590756929 0.9482224192
0.6332422559 0.4418754975 0.9102339502
0.8243414441 0.3901408465 0.8855118121
0.8993728523 0.3686722186 0.8875194062
0.1744027117 0.6163633977 0.9517461154
0.2036058505 0.62788838 0.9384611867
0.6038114607 0.53782062 0.9044595862
0.8098995032 0.4798678201 0.8759247082
0.8912860343 0.4409880013 0.8722982054
0.2219328835 0.7398274939 0.9296856226
0.2660744397 0.7439038656 0.9179890577
0.5672330529 0.6803817156 0.8874289348
0.7741740757 0.6190002442 0.8581118105
0.8687292874 0.5758527513 0.8485412527
0.2964784602 0.8326249309 0.9034751195
0.347441442 0.8308762019 0.8944087747
0.5419120847 0.7979553971 0.8620811716
0.7336701351 0.7441220529 0.8409438159
0.8450842458 0.7066421017 0.8272801918
0.3712764297 0.8939974588 0.8731708252
0.4131465883 0.8919480367 0.868499172
0.534298483 0.8751074771 0.8474380727
0.6943265512 0.8372065383 0.8224074116
0.8186095888 0.8018683798 0.80610417
