app/src/main/assets/spektrafilm/profiles/kodak_portra_160_film.cube
# ============================================================================
# spektrafilm LUT
# Bundle:  spektrafilm_v033_portra160_8printpack_2lut_prophoto_prophoto  (2lut, 17^3)
# Film:    kodak_portra_160
# Print:   fujifilm_crystal_archive_typeii, kodak_2383, kodak_2393, kodak_ektacolor_edge, kodak_endura_premier, kodak_portra_endura, kodak_supra_endura, kodak_ultra_endura
# Input:   ProPhoto RGB  (cctf on)
# Output:  ProPhoto RGB  (cctf on)
# Created: 2026-06-02T06:13:07Z
# spektrafilm: 0.3.3
# Project: https://github.com/andreavolpato/spektrafilm
#
# Copyright (c) 2026 Andrea Volpato. Generated by spektrafilm. Licensed under CC BY-SA 4.0.
#
# License: spektrafilm LUT by Andrea Volpato, licensed under CC BY-SA 4.0.
#          Full text and attribution requirements in SPEKTRAFILM_LICENSE.txt
#          (shipped in this bundle); also at
#          https://github.com/andreavolpato/spektrafilm/blob/main/SPEKTRAFILM_LICENSE.txt.
#
# Citation: If you use this LUT in your work, please cite the spektrafilm
#           project: https://github.com/andreavolpato/spektrafilm, see
#           CITATION.cff for details.
#
# Notes: Generated by the spektrafilm LUT bundle builder. Apply with trilinear
#        or tetrahedral interpolation in your host (DaVinci Resolve, Nuke,
#        OCIO-aware DCC). The input and output color spaces are declared in
#        bundle.json; do NOT apply this LUT to a signal in a different color
#        space.
#
# Role:    film  (domain=input_rgb → range=cmy_film)
# File: lut_v033_portra160_film.cube  (see sibling bundle.json for full metadata)
# ============================================================================
TITLE "v033_portra160_film"
DOMAIN_MIN 0 0 0
DOMAIN_MAX 1 1 1
LUT_3D_SIZE 5
0.1094032055 0.1069976461 0.09157089877
0.640474134 0.1118737835 0.1881635207
0.8031087767 0.1323487777 0.3320017654
0.8864899614 0.1715273594 0.4008058031
0.9355520546 0.2213090312 0.4471912
0.1777956149 0.6923862498 0.09312380974
0.5773918277 0.5395619427 0.1145951285
0.8024109176 0.4190853976 0.1795375078
0.9087529629 0.3665057843 0.2746439337
0.9575548084 0.3507452891 0.35487491
0.3425091769 0.8460663207 0.1009239923
0.4636228434 0.8103725552 0.1194142142
0.7416129311 0.6939674262 0.1690269946
0.8689719243 0.6175150397 0.2448695084
0.9363226171 0.5619677603 0.3177641143
0.430118807 0.9179555388 0.1125677336
0.4738620771 0.9132133819 0.1292688657
0.6671452993 0.8470407833 0.1758333021
0.8323410852 0.775403878 0.2358138314
0.915604682 0.7290236045 0.3029035675
0.4938315599 0.9568357597 0.1283223518
0.5142177481 0.9571839501 0.1434332344
0.6276025934 0.9338642537 0.1859470849
0.7820493464 0.8861954328 0.2431248748
0.8894097091 0.835750836 0.2982484591
0.1119172027 0.3401968153 0.6883355316
0.5791559549 0.2028792399 0.5928206298
0.76667761 0.2805594054 0.6471212408
0.8590950417 0.327490267 0.6731203927
0.9154623434 0.3543357022 0.6814129878
0.1802721368 0.6116221439 0.5851525375
0.5237747878 0.5026815109 0.5108248318
0.7771868435 0.4045957852 0.4951533785
0.8922088955 0.3559261859 0.5168474585
0.9468843657 0.3483779828 0.5433719675
0.341174443 0.7882290135 0.4249368499
0.4641413794 0.7526400426 0.4446461346
0.7309604582 0.6626311897 0.4179548253
0.8604936205 0.5960950413 0.4168644532
0.9329072219 0.5387074587 0.4286881455
0.432961797 0.8936980328 0.3311785567
0.480176699 0.8830785699 0.3737093842
0.6693874635 0.8200415896 0.3869655441
0.8283037649 0.756303217 0.3897174379
0.9101612101 0.7165361362 0.4040541776
0.4979048817 0.9457996867 0.2721849621
0.5183192256 0.943580709 0.319192493
0.6322360908 0.9173938199 0.3575339339
0.7829119065 0.8690250329 0.3738470655
0.8872905564 0.8231932693 0.3898837
0.1341008894 0.4932574157 0.850407365
0.3975124793 0.4207935706 0.7996706377
0.7439162551 0.3549873713 0.7383382849
0.8523455808 0.3905701705 0.76244842
0.9109308683 0.4217833521 0.7915258664
0.1951585787 0.6184991681 0.8067838395
0.4132970945 0.5571749912 0.7651207096
0.7275200891 0.4502582431 0.708370712
0.8589236677 0.4202778835 0.7188370847
0.9256792836 0.42293046 0.7420179366
0.3310720253 0.7527719415 0.7283402183
0.4224931544 0.735293769 0.7111248301
0.6896206164 0.6519328278 0.6586866293
0.8321462156 0.5896840902 0.6446859923
0.9177386155 0.5354581029 0.6489551727
0.4245697213 0.8503649644 0.646029458
0.4671068576 0.8416530047 0.6566058345
0.646114101 0.7893138772 0.625610179
0.8067843597 0.7362857608 0.5945093357
0.8946912069 0.6992643145 0.5815657135
0.4924228462 0.9175775598 0.560350676
0.5135897665 0.912781382 0.5843081411
0.6255603485 0.888434804 0.5862264083
0.7729980754 0.8407518598 0.5632296904
0.8776519524 0.8026826212 0.5491804491
0.176998843 0.5851600518 0.9228984457
0.2233233422 0.5769935654 0.9194691292
0.6636087903 0.4513829802 0.8413351743
0.8336478633 0.4286023821 0.8198082428
0.9047979539 0.4486480417 0.8356151391
0.2312029018 0.6534204842 0.9057782621
0.28378485 0.6377904631 0.8940973024
0.6496472322 0.5265765235 0.8322991351
0.8285859167 0.4669152582 0.8018759085
0.9092904812 0.4628021393 0.8116351761
0.3358827581 0.7517686734 0.856871388
0.3737636282 0.7444002078 0.8458861572
0.6348430144 0.6736948754 0.8013590568
0.8022327007 0.6097603315 0.7713933552
0.8950760606 0.5651303332 0.7688477749
0.4199347787 0.8352329038 0.8075171973
0.4453563724 0.8307015325 0.8063614338
0.60999172 0.7884698938 0.7685600929
0.7803007433 0.7357643223 0.7418456998
0.8767547707 0.7005188471 0.7322996329
0.485856732 0.899958108 0.7537141836
0.5046881787 0.8965624743 0.7597667108
0.6066502825 0.8739581278 0.746140441
0.7545066317 0.829726655 0.7207008934
0.8624435084 0.7932069747 0.7002177172
0.2314921329 0.6487913649 0.95475237
0.2220064954 0.6427036564 0.9529531413
0.5459479396 0.5553706281 0.9248298418
0.7899311066 0.4905200213 0.8834099477
0.8893953075 0.4812520543 0.8745175484
0.2748929504 0.6894449886 0.9490124982
0.2721012406 0.6850243875 0.9435018292
0.5597533495 0.6067874958 0.9173359652
0.7816287832 0.5355044268 0.8789158448
0.8883052637 0.5032318827 0.8628848184
0.3516189323 0.7620414703 0.9281534764
0.3574819419 0.7569216516 0.9232909709
0.563021294 0.7106536142 0.8977575064
0.7631272493 0.6481015981 0.861639237
0.8752958801 0.5973906709 0.8438987181
0.4214938893 0.8331357725 0.9004608755
0.4325184076 0.8297530952 0.898105673
0.562985532 0.7992776266 0.8692066992
0.7496425407 0.7464249839 0.8408867963
0.8579916532 0.7119129611 0.8237785741
0.4820063613 0.8921653635 0.8635073071
0.4951550848 0.8897684895 0.8647909405
0.5759565007 0.8725665472 0.846663555
0.7290690361 0.8307680458 0.8187197853
0.8434656503 0.7940956282 0.7997580431
