app/src/main/assets/spektrafilm/profiles/kodak_portra_800_film.cube
# ============================================================================
# spektrafilm LUT
# Bundle:  spektrafilm_v033_portra800_8printpack_2lut_prophoto_prophoto  (2lut, 17^3)
# Film:    kodak_portra_800
# Print:   fujifilm_crystal_archive_typeii, kodak_2383, kodak_2393, kodak_ektacolor_edge, kodak_endura_premier, kodak_portra_endura, kodak_supra_endura, kodak_ultra_endura
# Input:   ProPhoto RGB  (cctf on)
# Output:  ProPhoto RGB  (cctf on)
# Created: 2026-06-02T06:13:08Z
# spektrafilm: 0.3.3
# Project: https://github.com/andreavolpato/spektrafilm
#
# Copyright (c) 2026 Andrea Volpato. Generated by spektrafilm. Licensed under CC BY-SA 4.0.
#
# License: spektrafilm LUT by Andrea Volpato, licensed under CC BY-SA 4.0.
#          Full text and attribution requirements in SPEKTRAFILM_LICENSE.txt
#          (shipped in this bundle); also at
#          https://github.com/andreavolpato/spektrafilm/blob/main/SPEKTRAFILM_LICENSE.txt.
#
# Citation: If you use this LUT in your work, please cite the spektrafilm
#           project: https://github.com/andreavolpato/spektrafilm, see
#           CITATION.cff for details.
#
# Notes: Generated by the spektrafilm LUT bundle builder. Apply with trilinear
#        or tetrahedral interpolation in your host (DaVinci Resolve, Nuke,
#        OCIO-aware DCC). The input and output color spaces are declared in
#        bundle.json; do NOT apply this LUT to a signal in a different color
#        space.
#
# Role:    film  (domain=input_rgb → range=cmy_film)
# File: lut_v033_portra800_film.cube  (see sibling bundle.json for full metadata)
# ============================================================================
TITLE "v033_portra800_film"
DOMAIN_MIN 0 0 0
DOMAIN_MAX 1 1 1
LUT_3D_SIZE 5
0.09810654371 0.1045259747 0.09588647042
0.7115778543 0.1099223101 0.1407390125
0.8580843678 0.1262317366 0.2480794283
0.9220401258 0.1486249406 0.3331687231
0.9570262326 0.1770905721 0.3901898082
0.1549378551 0.7176203068 0.09738656938
0.5199620188 0.574869916 0.1102727582
0.7624896805 0.4536021305 0.1482662514
0.8719605508 0.3870172765 0.2136065492
0.9320480739 0.3576319086 0.2933904468
0.2880048303 0.8733361821 0.1038525084
0.4141510608 0.8404117576 0.1171976511
0.6662482381 0.7257846499 0.1489689411
0.8133206212 0.6398741224 0.1954670301
0.8955513044 0.5835964478 0.2551606636
0.3745473116 0.9305403181 0.1135269573
0.4159034822 0.9265341007 0.1264585629
0.5883015602 0.8736038197 0.1576993778
0.7507088817 0.8054591922 0.1996333572
0.8558935591 0.749917044 0.2484026281
0.4266896873 0.9571434541 0.1268797199
0.4484845051 0.9563119714 0.1383648344
0.5474771999 0.9402510737 0.169154956
0.6970632697 0.9015008106 0.2111513246
0.8096813862 0.8583727575 0.2550240395
0.09982172129 0.2975860684 0.6573508974
0.5912653621 0.1466042015 0.5763623375
0.7945260885 0.1573783703 0.6299614507
0.8891494845 0.1793721698 0.6414407396
0.9398369653 0.2035087124 0.6359046231
0.1483098845 0.6397094277 0.5627566932
0.4947113216 0.5291943536 0.4733661065
0.7399492049 0.414989398 0.4623587438
0.8644885183 0.3344173632 0.4805173414
0.9287887261 0.3050267372 0.4986757187
0.2786439824 0.8218566387 0.4320799183
0.4174816957 0.7838881996 0.4285720317
0.6679174063 0.6877206604 0.3877488551
0.8118229786 0.6162332609 0.3799648511
0.8938393081 0.5612694501 0.3922489147
0.3692969159 0.9085535085 0.3318336034
0.418315018 0.9008694386 0.3654727586
0.5914560104 0.8484534385 0.365452624
0.7545063207 0.7851071483 0.3587063328
0.8576630268 0.7366249699 0.3674039673
0.4238222657 0.9479135594 0.273695109
0.4493095125 0.9462738976 0.3082750538
0.5531708387 0.9273337774 0.3377674609
0.6992122451 0.8903312986 0.3482416239
0.8122144097 0.8476340177 0.3603509929
0.1112396767 0.472561719 0.8345514892
0.462768009 0.3175358284 0.765575891
0.737340459 0.2271172803 0.7215183541
0.8554837604 0.2338248902 0.7552172387
0.9170208299 0.2595236764 0.7783374026
0.1458284109 0.6313611498 0.7964568825
0.3913337388 0.5564509412 0.732220475
0.695626017 0.4413883979 0.6698395534
0.8268807409 0.3739206166 0.6919814784
0.9036708106 0.3423352199 0.7154783098
0.2585019687 0.7856894182 0.711350924
0.3797276336 0.7621983734 0.6753398919
0.638133016 0.6686674849 0.6137584704
0.7888660726 0.5987441459 0.5965925766
0.8762481859 0.5423291652 0.6015439122
0.3571507398 0.8800189177 0.6362956093
0.4103579618 0.8694785538 0.6289886699
0.5784790935 0.8210250657 0.5880042232
0.7447388472 0.7601108226 0.5514082944
0.8486952533 0.7150982149 0.5341028331
0.41680707 0.9292616059 0.567179309
0.4461667879 0.9266110471 0.5759585534
0.5511089141 0.9063457721 0.5627093837
0.694251185 0.8672175191 0.53347565
0.8105187904 0.8276408345 0.5125961195
0.1316090248 0.5578197739 0.9139334854
0.1974896411 0.5179677068 0.9072556949
0.6957761876 0.3565272462 0.8110242744
0.8194149198 0.312270696 0.8063067092
0.89654768 0.3146889825 0.8263392833
0.1616902406 0.6511264877 0.8995625578
0.2375652664 0.62016062 0.8736450432
0.6576961398 0.4875338799 0.7969754063
0.7987083411 0.423473274 0.7770096165
0.8822096249 0.38983859 0.7956047997
0.2473250989 0.7749595704 0.847331136
0.3162884345 0.7630250431 0.8164667682
0.5878487888 0.6754436238 0.7682470723
0.7629920061 0.6048472783 0.7334433464
0.8577236934 0.5510423691 0.7357708511
0.3433053363 0.8614406431 0.7961314487
0.387713978 0.8558983497 0.7808978287
0.5444896955 0.8137644846 0.7349943808
0.7213586769 0.751673381 0.70149837
0.8286363083 0.7052008689 0.6872917001
0.4088382322 0.9149252781 0.7476937676
0.4339117073 0.9127333191 0.7443232961
0.5339858273 0.8949212005 0.7153409103
0.6789756534 0.8535562084 0.6832946159
0.7992655852 0.8136207861 0.6538200845
0.1587582523 0.6181636645 0.9552079807
0.1670124612 0.6046231814 0.9504715385
0.5971011386 0.4570896277 0.8995681703
0.7947140567 0.3972537407 0.8615392418
0.8739061107 0.3745165346 0.8639332557
0.1817610128 0.675218134 0.9485372255
0.1988901752 0.6687040319 0.934512373
0.5585739081 0.5477579037 0.8938441504
0.7782865196 0.4759374338 0.8500897827
0.8631716028 0.4360643648 0.8456997797
0.2515919991 0.7760821368 0.9190503597
0.2817149252 0.7691631866 0.9040016005
0.5197907894 0.7008359804 0.8717024622
0.7377961214 0.6200882455 0.8263606266
0.8370703015 0.5670590581 0.8110744083
0.3349552367 0.8543345457 0.8877428918
0.364446026 0.851141084 0.8754011663
0.5041281017 0.8175442457 0.8397140332
0.6921134741 0.7542201586 0.8057119314
0.8113490476 0.7069361158 0.7843648521
0.4008462062 0.9067621757 0.8539227149
0.4199981689 0.9054167648 0.8469188677
0.5069437504 0.8914875822 0.8165238791
0.6546067347 0.8504941705 0.7850835847
0.781800723 0.8088695783 0.7608137929
