app/src/main/assets/spektrafilm/profiles/kodak_verita_200d_film.cube
# ============================================================================
# spektrafilm LUT
# Bundle:  spektrafilm_v033_verita200d_8printpack_2lut_prophoto_prophoto  (2lut, 17^3)
# Film:    kodak_verita_200d
# Print:   fujifilm_crystal_archive_typeii, kodak_2383, kodak_2393, kodak_ektacolor_edge, kodak_endura_premier, kodak_portra_endura, kodak_supra_endura, kodak_ultra_endura
# Input:   ProPhoto RGB  (cctf on)
# Output:  ProPhoto RGB  (cctf on)
# Created: 2026-06-02T06:13:10Z
# spektrafilm: 0.3.3
# Project: https://github.com/andreavolpato/spektrafilm
#
# Copyright (c) 2026 Andrea Volpato. Generated by spektrafilm. Licensed under CC BY-SA 4.0.
#
# License: spektrafilm LUT by Andrea Volpato, licensed under CC BY-SA 4.0.
#          Full text and attribution requirements in SPEKTRAFILM_LICENSE.txt
#          (shipped in this bundle); also at
#          https://github.com/andreavolpato/spektrafilm/blob/main/SPEKTRAFILM_LICENSE.txt.
#
# Citation: If you use this LUT in your work, please cite the spektrafilm
#           project: https://github.com/andreavolpato/spektrafilm, see
#           CITATION.cff for details.
#
# Notes: Generated by the spektrafilm LUT bundle builder. Apply with trilinear
#        or tetrahedral interpolation in your host (DaVinci Resolve, Nuke,
#        OCIO-aware DCC). The input and output color spaces are declared in
#        bundle.json; do NOT apply this LUT to a signal in a different color
#        space.
#
# Role:    film  (domain=input_rgb → range=cmy_film)
# File: lut_v033_verita200d_film.cube  (see sibling bundle.json for full metadata)
# ============================================================================
TITLE "v033_verita200d_film"
DOMAIN_MIN 0 0 0
DOMAIN_MAX 1 1 1
LUT_3D_SIZE 17
0.1068433143 0.1091762651 0.09708737864
0.37812638 0.1096621567 0.09843211394
0.5375901675 0.1095608501 0.1099683487
0.6245873568 0.1104064502 0.1367754429
0.6884842091 0.1116277854 0.1740212559
0.7350477343 0.1142373518 0.2191394508
0.773079875 0.1170075701 0.2621134464
0.8062487601 0.1203092993 0.3061710075
0.8329312258 0.1245480675 0.3379720408
0.855909447 0.1294318208 0.3634752672
0.8788906134 0.1342178114 0.3874519277
0.8949085469 0.1389049041 0.4048536838
0.910743473 0.1453075431 0.4198241342
0.9252110424 0.1528773623 0.4338381799
0.9363581945 0.1606985482 0.4468845909
0.94710184 0.1683833398 0.4596112909
0.9574445691 0.1761960263 0.4714671852
0.1075852437 0.2909105498 0.09708737864
0.2474908585 0.2317303861 0.09759998442
0.4996969654 0.1521154169 0.1002619363
0.6030641256 0.1345329995 0.1082567039
0.6756997048 0.1302449215 0.1234072919
0.7272237457 0.1292926396 0.1463257717
0.7681305313 0.1303062614 0.1773599683
0.8024944547 0.1322873752 0.2157794876
0.8306738656 0.1349829856 0.2572700068
0.8543049853 0.1382239116 0.2991744506
0.877930358 0.1425062101 0.3316294178
0.8946718244 0.1482653927 0.3594020065
0.9108378334 0.1550172056 0.3848218104
0.9253094504 0.1616475326 0.4038457226
0.9364945511 0.1685278731 0.4197506934
0.947497095 0.1761111927 0.4353752264
0.9579201495 0.1838415726 0.4495088865
0.1106726895 0.5090435503 0.0974329124
0.14452635 0.5089087764 0.09790215896
0.431222787 0.420141494 0.1000579751
0.5529569293 0.3553406743 0.1054318552
0.6335965047 0.2988270211 0.1140271576
0.6961135338 0.2543244511 0.1275027121
0.7422555146 0.2243348848 0.1433284347
0.7818079877 0.2068928014 0.1641091987
0.8148887426 0.1982129019 0.1882659267
0.841108233 0.19368516 0.2190059236
0.8664999555 0.1921041607 0.2511798994
0.8871513026 0.1923187006 0.2863192296
0.903569658 0.1948037354 0.3196734821
0.9205134053 0.1984508854 0.3473845804
0.9332404507 0.203181716 0.3726555853
0.9443038479 0.2080596525 0.3946299401
0.955419641 0.2142279966 0.4109930751
0.1228991519 0.6158818626 0.09756913211
0.1424483139 0.6225286364 0.09826547053
0.3471937534 0.5586452493 0.1006122195
0.512041995 0.5034178119 0.1053448312
0.5990713718 0.4640157591 0.1126047804
0.664349455 0.4310249861 0.122691113
0.7146727739 0.3998718685 0.1351330082
0.7564815288 0.3699954418 0.1504684518
0.7935107113 0.3463824891 0.1682188268
0.8243317994 0.3252283625 0.1889847087
0.8495034164 0.3102733644 0.2141788468
0.8751652205 0.299271615 0.2415104966
0.8933981306 0.2912918846 0.2687639136
0.9108598387 0.2865662786 0.3005986941
0.9266097538 0.2843189561 0.3264427288
0.9385686955 0.2839134967 0.3496301318
0.9501237157 0.2841908992 0.3711922965
0.1456412077 0.7020038113 0.09824275612
0.1623750307 0.7067102016 0.09918564629
0.287284813 0.6665748928 0.1016474688
0.4621524314 0.6018553093 0.1062377296
0.563875108 0.5579783612 0.1126126025
0.6344216009 0.5274298737 0.1222575802
0.6912032701 0.5016692089 0.133496563
0.734177513 0.4762209392 0.1461078662
0.7725982172 0.4560058058 0.1617622156
0.8066312975 0.4381844314 0.1792887968
0.8343199304 0.4224397799 0.1995230221
0.8591985732 0.4085634962 0.2229181606
0.8827365709 0.3957605257 0.2465775516
0.8997553911 0.3855696069 0.2716376905
0.9174990217 0.3778649432 0.2993269854
0.9316812274 0.3724246977 0.3223676393
0.9432972362 0.3677154253 0.3429655529
0.1786404489 0.7584369369 0.09940782579
0.1905890873 0.7617284185 0.1001853209
0.2694064534 0.7420669507 0.1030218177
0.4238838034 0.6903091781 0.1076074769
0.5275100725 0.6409904808 0.1134915474
0.6068625602 0.6041344566 0.1222961019
0.6677046968 0.5754548059 0.1334160366
0.7136756937 0.5501260992 0.1448932557
0.7530454102 0.530758468 0.1591439568
0.7889538848 0.5134358991 0.1747325593
0.8192179323 0.4970238572 0.1923389632
0.8440515792 0.4817245331 0.2126975641
0.8692443564 0.4687742268 0.2355210828
0.8894904186 0.4586037346 0.2570755427
0.9064968926 0.449632163 0.2811160529
0.9234356348 0.44199018 0.3050614719
0.9359009738 0.435312286 0.3251443055
0.2124239484 0.8025915565 0.1005458945
0.224745551 0.8047368659 0.1014663899
0.2773170077 0.7936914416 0.1045174474
0.3930462509 0.7555974497 0.1090271176
0.4982224784 0.714796575 0.1150057672
0.575971663 0.673964016 0.1233504455
0.6422131385 0.6433832007 0.133232031
0.6938158595 0.6144704704 0.1451476317
0.7354149192 0.5953592515 0.15882497
0.7717779141 0.5749412791 0.1733462676
0.8039899174 0.5571330877 0.1896091396
0.8310729221 0.5429491844 0.2077453553
0.8548542568 0.5297380983 0.2290629409
0.8790880732 0.5181148755 0.2493892139
0.896338201 0.5076664299 0.2707689354
0.9137048859 0.4982157783 0.2943408643
0.9287413044 0.4896948623 0.3145890678
0.2506002423 0.836499141 0.1021938018
0.2586938377 0.8375407538 0.1033343933
0.2973086826 0.8316390284 0.1062740259
0.3783194726 0.8078747432 0.110693874
0.4697554569 0.7703746636 0.1167679413
0.5485074347 0.7351881774 0.1252368385
0.6156413718 0.7050585504 0.1342150577
0.6732357749 0.6757805026 0.1450906629
0.7166519527 0.6522482634 0.1586951408
0.7550432487 0.6307585894 0.1725932652
0.7890927474 0.6120486304 0.187739518
0.8175828147 0.5979424522 0.2045143176
0.8417564392 0.583342551 0.2244406984
0.866181743 0.567935034 0.2441129136
0.887013951 0.5563517058 0.2630438804
0.9032817216 0.5468681656 0.2853331234
0.9205527789 0.5380427677 0.3062613354
0.2850175865 0.8617667368 0.1041131164
0.292439891 0.8624961826 0.1052974877
0.3194003738 0.8591286857 0.1080174338
0.3760325178 0.8440343715 0.1122993507
0.452691661 0.8167541214 0.1182708558
0.5249285528 0.7844000688 0.1267010335
0.5913076038 0.752980121 0.1355112901
0.6506282067 0.727703458 0.1456058301
0.6987339223 0.705322186 0.1581541477
0.7381908202 0.6836541682 0.1724727752
0.7736439822 0.6645439815 0.1875225857
0.8045456428 0.6484080845 0.203872398
0.83073189 0.6324677776 0.2229899341
0.8534070718 0.617008261 0.2419449913
0.8771976939 0.6056210197 0.2598235136
0.8942732521 0.5958328885 0.2802684932
0.9111560204 0.5847853363 0.300790762
0.3176047335 0.8844367366 0.1062573741
0.3229414109 0.8849362533 0.1073926128
0.3423137931 0.8836225685 0.1098427582
0.3814184119 0.8734244938 0.1140450368
0.4429624525 0.8515671875 0.1204238811
0.5087304576 0.8266532232 0.1285663044
0.5689667503 0.7991463889 0.1371551597
0.6259157803 0.7714631624 0.1473652616
0.6794198588 0.7479787714 0.1589432951
0.72139804 0.7291032461 0.1718646712
0.757513584 0.7121286168 0.1869352821
0.7906646137 0.6946866414 0.2031778832
0.8189536478 0.6781182372 0.2214771387
0.8420343288 0.6637238963 0.2396632054
0.8653002786 0.6511734373 0.2564664747
0.8857520504 0.6384768259 0.2753742436
0.9013385584 0.6258777489 0.2953261726
0.3453887775 0.9003189519 0.1083943522
0.3494393812 0.9006271605 0.1094673192
0.3622843286 0.9001206245 0.111699395
0.3908928303 0.894124448 0.115829564
0.4388956147 0.8812611204 0.122299686
0.4945288592 0.8596714223 0.1302844954
0.5505923761 0.8362045842 0.1389133514
0.6072278016 0.8121433865 0.1493047296
0.6601394829 0.7894887547 0.1607546016
0.7043593515 0.767251382 0.1721183245
0.7423752963 0.7491483441 0.1859741349
0.7760532973 0.7341966184 0.2029281537
0.8062687529 0.7204419059 0.2211757782
0.8318057814 0.707050993 0.2392031285
0.8538704925 0.6931756461 0.2553218615
0.8767249938 0.6798746294 0.2731654555
0.8932484678 0.6678211189 0.2922397847
0.3675637543 0.9135883094 0.1106029524
0.37040109 0.9137197111 0.1116732524
0.3801018089 0.9133455366 0.1138380184
0.4036190305 0.9091873547 0.1183033877
0.439863815 0.9011811705 0.1249080887
0.4847465941 0.8878802213 0.1325151687
0.5356363836 0.8677356829 0.140996411
0.5893477659 0.8456449319 0.1515863144
0.6401555267 0.8252147641 0.162796746
0.6864742328 0.8043954278 0.173753277
0.7261772189 0.7857218404 0.1859800567
0.7615999464 0.7691147784 0.2018399429
0.7930815662 0.7541128561 0.2203006715
0.8204827532 0.7409911008 0.2383831107
0.843048306 0.7289028558 0.2541221252
0.8660577887 0.7177668629 0.2711993482
0.8857357966 0.7067417957 0.2894926223
0.38736291 0.9251133887 0.1129542508
0.3898810057 0.92517526 0.1141082673
0.3985803844 0.9250661577 0.1164315863
0.4166832081 0.9227266939 0.1210921224
0.4437255299 0.9171307022 0.1273638558
0.4798424784 0.9067837186 0.1345277013
0.5255127826 0.8933799818 0.1432103919
0.573877791 0.87623492 0.1538647093
0.6219953492 0.8554465178 0.1648573863
0.6699523387 0.8367147859 0.1761837816
0.7102721702 0.8190514892 0.1883367397
0.7473769058 0.8031629128 0.2023087023
0.7801762655 0.7885837594 0.2198266247
0.8086078573 0.7742425244 0.2381702196
0.8329816152 0.7606178938 0.2539802843
0.8549220576 0.7486225823 0.2705462994
0.8772940068 0.7379133603 0.288338319
0.4067710971 0.9353242315 0.1156484911
0.4089028161 0.9354566325 0.1168991719
0.4157956238 0.9356418328 0.1194886993
0.4285307006 0.934374782 0.1240690556
0.4491757688 0.9304709933 0.1297185432
0.4787537341 0.922276086 0.1369197662
0.5192939424 0.9112962586 0.1460561113
0.562506895 0.8985993705 0.1566410965
0.6087731854 0.8836681548 0.1672775762
0.6549285543 0.8656691785 0.1788393384
0.6953123794 0.8476091677 0.1908476137
0.7321542899 0.8328378236 0.2048036114
0.7666180535 0.8189753938 0.2204410732
0.7970066828 0.8055315886 0.2378103818
0.8227951477 0.7928673313 0.2540846198
0.8445637246 0.7801877626 0.2707172159
0.8673632608 0.7681703703 0.2883006593
0.4231499662 0.9442706578 0.1188019598
0.4248319232 0.944422176 0.1201068866
0.4297859479 0.9445916514 0.1228691141
0.4394740363 0.9438526537 0.1269799209
0.4557134322 0.9411608347 0.132597094
0.4801175191 0.9350999885 0.1394665224
0.5156049152 0.9266247992 0.1485955711
0.5533324822 0.9161022712 0.1589919748
0.5967967814 0.903578094 0.1697867806
0.6393883171 0.8906231425 0.1815577262
0.6808032493 0.8748330409 0.1935007847
0.7178019906 0.8590672229 0.207407911
0.7525551718 0.8453330526 0.2231324321
0.7848295766 0.8326765452 0.238049064
0.812244498 0.8207803817 0.2537243327
0.8350978011 0.8089425069 0.270641814
0.8567021243 0.7977635841 0.2884258219
0.4367429291 0.9514282115 0.1222268762
0.4380409954 0.9515181599 0.1235143023
0.4420390097 0.9515943551 0.126270961
0.4497276063 0.9512506353 0.1297942644
0.4624178113 0.9493452401 0.1354001346
0.4833230899 0.945258913 0.1419471664
0.5139848362 0.9393102137 0.151154384
0.5466286757 0.9307431229 0.1618961541
0.5858930801 0.920024377 0.1724331107
0.6256291007 0.9081767398 0.1837305877
0.6676911328 0.8960232488 0.195895807
0.7048025202 0.8838190274 0.2103803333
0.7391415945 0.8702770266 0.2256263618
0.7711670236 0.8567400749 0.2402411496
0.8011665518 0.844860523 0.2536634134
0.8258480493 0.8340451595 0.2699996647
0.8467045859 0.823545276 0.2881416077
0.4486967378 0.9574228616 0.1257371557
0.4497538224 0.9574790985 0.1269574381
0.452988546 0.9575300717 0.1295685177
0.4590713517 0.9573725847 0.1326661308
0.4696357454 0.9558388252 0.1383365577
0.4881608486 0.9531143454 0.1446476075
0.5142119734 0.9490302848 0.1544812817
0.5423032077 0.942847483 0.1645947771
0.5774842246 0.9342472491 0.1747396172
0.6153219911 0.9237482787 0.1862625019
0.655976991 0.9128541041 0.1991285014
0.6923195868 0.9019437231 0.2131366848
0.7259772475 0.8914877575 0.2283849483
0.758282413 0.8803833744 0.2424980117
0.7887863757 0.8679350851 0.2555372737
0.8158823465 0.8561781559 0.2696470924
0.8377931326 0.8458424426 0.2872150025
0.1068433143 0.1115749484 0.278181668
0.3139790304 0.1100853322 0.2760199037
0.5086435354 0.1112244118 0.3652882427
0.5974417364 0.1125482048 0.4041110275
0.664444697 0.1151809832 0.415991529
0.7148602204 0.1174857679 0.4236488551
0.7562348724 0.1201278133 0.4296884841
0.7930748128 0.1238296028 0.4336628067
0.8228738547 0.1281696357 0.4387212494
0.8469006279 0.1324717161 0.4457784555
0.8721003281 0.1365457431 0.4514125635
0.8906650678 0.1410622355 0.4583155381
0.9066630706 0.1473811915 0.4672478675
0.9221726789 0.1552390184 0.4750572244
0.9337984087 0.1629532958 0.4829233917
0.9445254746 0.1702622567 0.4905057646
0.9554129108 0.1776295833 0.4980073953
0.1073187047 0.2830232704 0.2462889469
0.2361679571 0.2225362822 0.2210087078
0.4883780687 0.1421570898 0.209623216
0.5939625886 0.1258948105 0.241273238
0.6665391129 0.1224615748 0.2739988977
0.7186894926 0.1231521093 0.3087486496
0.7608807029 0.1252341826 0.332577147
0.7968145233 0.1287296011 0.3541268302
0.8259492969 0.1326870716 0.3747686928
0.8497299556 0.1366639993 0.3927321572
0.8741806467 0.1414654165 0.4071755988
0.8923525815 0.1463555303 0.4178456408
0.9082913824 0.1531314126 0.4304983967
0.9230413511 0.1611063855 0.4440766744
0.9345541617 0.1690999541 0.4574447566
0.9452251859 0.1768775747 0.4693482186
0.9558628941 0.1842649595 0.4791959479
0.1131606868 0.5068016295 0.1560255507
0.1608540883 0.4882400325 0.1702544919
0.4346652974 0.4003970577 0.1479936515
0.5510579729 0.3307565642 0.1475314306
0.6312538947 0.2698601397 0.1577179301
0.694209283 0.2279191438 0.1726422403
0.7403108417 0.2020473592 0.1924977492
0.7802701423 0.1911420705 0.2202631382
0.8138646487 0.1856154583 0.250967571
0.8399213801 0.1827032922 0.284089545
0.8651058221 0.182516809 0.3156838823
0.8864375259 0.1845414063 0.3431731408
0.9024959581 0.1879057103 0.3678800012
0.9194334769 0.1924271159 0.3907621701
0.9325585856 0.1976079496 0.4074455321
0.9437395328 0.2036129183 0.4221718488
0.9548331916 0.2100894019 0.436359599
0.128623493 0.6148373424 0.1210797996
0.1553460753 0.6078967595 0.1345872329
0.3588563872 0.5423380696 0.1354578828
0.5138167346 0.4892835415 0.1357986089
0.5979008288 0.4528274307 0.1425530021
0.6631906164 0.4192051152 0.1530195224
0.7132408278 0.384451605 0.1658716166
0.7555036332 0.3566336493 0.1820370937
0.7930396589 0.3310987961 0.2026446098
0.8239144882 0.3111646402 0.2278048466
0.8489605774 0.2972140726 0.2520014643
0.8748900913 0.2871674683 0.2793402678
0.8932942566 0.2797428846 0.308691071
0.9105716727 0.2754528435 0.3333017361
0.9263118935 0.2739787134 0.3557332255
0.9381589259 0.2743394207 0.3777164164
0.9496744128 0.2756507078 0.3964475223
0.1527202346 0.6985899682 0.1114097144
0.1733759168 0.6960700717 0.1189974166
0.3031823848 0.6493326735 0.1274484197
0.4656195591 0.5891222452 0.1311845627
0.5648812431 0.5483813339 0.1375862307
0.6340686221 0.5193408174 0.1471672137
0.6899070864 0.4935510209 0.1588523443
0.7334902124 0.4691055985 0.1719352213
0.7722233543 0.4494066016 0.1880937088
0.8063045875 0.4314243086 0.2073581688
0.8339400912 0.4153978907 0.229733207
0.8589158195 0.4010882199 0.2514571004
0.8827542511 0.3886024222 0.2759904948
0.8997240441 0.378623783 0.3016695521
0.9174318806 0.3717110919 0.3232486243
0.9315921135 0.3663805114 0.3437126572
0.9431238595 0.3618296557 0.3624097579
0.1848347269 0.7535775338 0.1095739426
0.1974572283 0.752410572 0.1136829773
0.2814499803 0.7286648246 0.1220684768
0.4285630037 0.6751549009 0.1284380712
0.5288245262 0.6288703348 0.1352134456
0.6074101051 0.5971974354 0.1441971779
0.6675730184 0.5674054139 0.155794953
0.7131813347 0.5453416825 0.1676377719
0.752803134 0.5262720562 0.1819117414
0.7887198693 0.508963205 0.1985036424
0.8188214788 0.4921623703 0.2176161697
0.8438612137 0.4772143739 0.238563609
0.8692924929 0.4648972019 0.2585681157
0.8894949938 0.454685688 0.2819407745
0.9064499221 0.4457273368 0.3047269783
0.9234077854 0.4380502243 0.3242857478
0.9358340481 0.4314355961 0.3421620781
0.2183956933 0.797020924 0.1092774738
0.2312943835 0.7971756119 0.1121566205
0.2852757783 0.7818651717 0.1190358176
0.3984515711 0.7433853348 0.1265021495
0.5004205147 0.7043355318 0.1342089355
0.5767266727 0.6654642435 0.1426205876
0.6423253723 0.6353840944 0.1533301328
0.6940539567 0.6097407482 0.1659305084
0.7353822382 0.5911403994 0.1794033216
0.7714937335 0.5705494198 0.1946020589
0.8036566331 0.5537914543 0.2119271235
0.8309889287 0.539830505 0.2317323867
0.8549181621 0.5268519977 0.2503565013
0.8790937596 0.5152194842 0.2704109385
0.8963128638 0.5046906746 0.2926235145
0.9136872509 0.4951397565 0.3125322458
0.9286888389 0.4865730793 0.330134604
0.2539155337 0.8312866924 0.1099638321
0.2623686966 0.8311433751 0.1122817216
0.3022009796 0.8226997607 0.1180884209
0.3822486362 0.7972259157 0.1256060746
0.4722509004 0.7610881018 0.1338679475
0.5496761087 0.7280821663 0.1426182527
0.6160012391 0.6981442628 0.1526951922
0.673627582 0.6704080621 0.1644742449
0.7171093759 0.6484858945 0.1776046247
0.7550542602 0.6268118483 0.1920112328
0.7887823633 0.6091704395 0.2078520473
0.8175460973 0.5957434441 0.2264138646
0.8418093581 0.5805373882 0.2447606531
0.8662018039 0.5655184773 0.2624109441
0.8870054946 0.5541641768 0.2833229924
0.9032703767 0.5446428973 0.3035227818
0.9205129845 0.5357784345 0.3210019493
0.2879076752 0.8566647215 0.1109601367
0.2953220386 0.8566478705 0.1129532196
0.3221835282 0.8517629168 0.1178556876
0.3787139061 0.8357194798 0.1254127297
0.4551394475 0.8091735769 0.1334414083
0.5260967367 0.7769110758 0.1421061895
0.5921669135 0.7473135698 0.1526399846
0.6512845202 0.7235559775 0.1635598616
0.6991490825 0.7014237903 0.1756280101
0.738433782 0.6797638289 0.1904425181
0.7737133581 0.6615780042 0.2063503048
0.8046298942 0.6462435447 0.2243441239
0.8307476154 0.6301128701 0.2422935605
0.8533800581 0.6151082141 0.2590361962
0.8771802787 0.6038743056 0.2783246918
0.8942621098 0.5937355605 0.2979652338
0.9111265659 0.5825832358 0.3149827585
0.3193312919 0.8804301345 0.1124192379
0.3245645874 0.8803631237 0.1143450642
0.3439340183 0.8780343182 0.118684747
0.383215522 0.8659600651 0.1256310489
0.4450931997 0.8456149525 0.1337507794
0.5098931252 0.8200906194 0.1423960477
0.5698945352 0.7937503124 0.1532630401
0.6267572826 0.7670283299 0.1640904616
0.6798339535 0.7445314781 0.1752390264
0.721606521 0.7260248024 0.1886520031
0.7578419334 0.7093427869 0.2047222663
0.7910035943 0.6923233634 0.2223850404
0.8191217553 0.6760403354 0.2398350323
0.841996563 0.6618599948 0.2556749572
0.8652475253 0.6494595816 0.2732826842
0.885716968 0.6364290503 0.29222595
0.9013085636 0.6238525521 0.3093951409
0.3464058606 0.8971801658 0.1142249182
0.3503098042 0.8970995156 0.1160416976
0.3630217218 0.8956933095 0.1201282531
0.392595178 0.8895160592 0.1266170995
0.4406323335 0.8758444792 0.1342839125
0.4957909119 0.8536065029 0.1428241553
0.5517300863 0.8318395581 0.1537816362
0.608019665 0.8082143713 0.1647377221
0.6606045981 0.7858857339 0.1760935073
0.704616972 0.7638683895 0.1877500378
0.7426762935 0.7467224224 0.2028207908
0.7765336719 0.7323482067 0.2211246132
0.8065698824 0.7187339424 0.2386650561
0.8319012748 0.7052634401 0.2542892438
0.8538546799 0.6913859401 0.2710222493
0.8766532691 0.6781392936 0.289235079
0.8931999181 0.6662853786 0.3060886448
0.3679239994 0.9105252044 0.1163649966
0.370679242 0.9104368053 0.1180350941
0.380599016 0.9095820096 0.1219546981
0.404940693 0.9057573865 0.128148127
0.440999819 0.8974137165 0.1354319013
0.4859667394 0.8833839381 0.1442442008
0.536820147 0.8636306879 0.1550526429
0.590474775 0.842400549 0.1658956904
0.6409724017 0.8221381888 0.1771959451
0.6868002181 0.8014155401 0.1886156859
0.7265971853 0.7832560894 0.2018798277
0.7620240651 0.7671089955 0.2191284907
0.7934325421 0.7523307215 0.2370778435
0.8207112978 0.7394236582 0.2527267189
0.8431600705 0.7274810664 0.2687292453
0.8660453993 0.716428579 0.2865287933
0.8856838942 0.7053408701 0.3031673906
0.3876055632 0.9224700742 0.1188196455
0.39022177 0.9225223295 0.1205061198
0.3992977412 0.9222352961 0.1243476587
0.4174492995 0.9198872118 0.1299270162
0.4444358574 0.9138540192 0.1366050028
0.4808568656 0.9036146133 0.145579748
0.5265855752 0.8907208883 0.1562988116
0.5748829303 0.8730159179 0.1671955886
0.6226580595 0.8525048551 0.1785999616
0.6703515137 0.8340958716 0.1904690276
0.7107225026 0.816991195 0.2036108795
0.7478503267 0.8013859549 0.2187416575
0.7804705817 0.7867680788 0.2360035464
0.8088852408 0.772553005 0.251912462
0.8331617174 0.759148491 0.2678868851
0.8550338891 0.7473175718 0.2852334877
0.8773371004 0.7367629107 0.3016251039
0.4072179991 0.9334416701 0.1217156175
0.4094174364 0.9335564906 0.1233879413
0.4162869151 0.9334642534 0.1270281342
0.4288757946 0.9319231242 0.1318246247
0.4498179701 0.9275839659 0.1386321077
0.4796880842 0.9195852519 0.1476784537
0.5202696499 0.9090118104 0.1583189588
0.563471465 0.8963983688 0.1689838247
0.6093910695 0.8811714285 0.1803052116
0.6554815369 0.8630506424 0.1925285245
0.6958851102 0.8458236105 0.205581632
0.7326573477 0.8312821411 0.2206102206
0.7669581073 0.8173640576 0.2358381488
0.7972393464 0.8040263847 0.2510423179
0.8229970794 0.7914412622 0.2674143836
0.8447254234 0.7787924927 0.2848714692
0.8674968412 0.7669022747 0.3011718645
0.4234954529 0.9428086029 0.1248597179
0.4251431497 0.9428685477 0.1264181033
0.4299506021 0.94277473 0.1296793558
0.4396800828 0.9419505025 0.1340087123
0.4562098254 0.9389361842 0.1409845235
0.4809120866 0.9329649155 0.149749945
0.5164667632 0.9247339344 0.1599058993
0.5542689683 0.9140929517 0.1705297618
0.5974848533 0.9015872396 0.1821300675
0.6401482438 0.8888379947 0.1946204829
0.681428254 0.8730109467 0.2076612868
0.7182941197 0.8574375238 0.2227758812
0.7529026584 0.8438937973 0.2376855257
0.7851220476 0.8313389096 0.2506481685
0.8124130506 0.819445566 0.2665028166
0.8352524458 0.8076729167 0.2843191142
0.85690598 0.79663015 0.3009130328
0.4368469804 0.9501729805 0.1279869617
0.4381251629 0.9501980481 0.1293810584
0.4420747592 0.9501750067 0.1323605786
0.4498838406 0.9497717829 0.1364572732
0.4628554398 0.947874179 0.1435735686
0.4840337308 0.9436920282 0.1516089381
0.5147897071 0.9376554422 0.1618666304
0.5474669902 0.9289829181 0.1728612815
0.5866097811 0.9182593512 0.1840700127
0.6263587629 0.9067098048 0.1963519329
0.6683137543 0.8947428699 0.2098052295
0.7053038023 0.8824323834 0.2250475064
0.739470344 0.8687985268 0.2394034725
0.7714484545 0.8553493042 0.2523529264
0.8013879487 0.8436516702 0.2657762849
0.8259672563 0.8329048208 0.2832855966
0.8468880017 0.8225055843 0.3003522967
0.4487102797 0.9562762128 0.1310882385
0.4497893248 0.9563140962 0.1323581051
0.4530565093 0.956349298 0.1352940012
0.4592747341 0.9560875782 0.1395292688
0.4699668603 0.9546588173 0.1462085503
0.4889024036 0.9518815997 0.1539207894
0.5148776243 0.9478560369 0.1644380015
0.5429972347 0.9415011882 0.1748093526
0.57816237 0.9327397745 0.1857395029
0.6160127509 0.9224366192 0.1986039
0.6566166856 0.9116630838 0.2125294992
0.6928672446 0.9008412908 0.2270222967
0.7264008877 0.8904247178 0.241241962
