app/src/main/assets/spektrafilm/profiles/kodak_vision3_50d_film.cube
# ============================================================================
# spektrafilm LUT
# Bundle:  spektrafilm_v033_vision350d_8printpack_2lut_prophoto_prophoto  (2lut, 17^3)
# Film:    kodak_vision3_50d
# Print:   fujifilm_crystal_archive_typeii, kodak_2383, kodak_2393, kodak_ektacolor_edge, kodak_endura_premier, kodak_portra_endura, kodak_supra_endura, kodak_ultra_endura
# Input:   ProPhoto RGB  (cctf on)
# Output:  ProPhoto RGB  (cctf on)
# Created: 2026-06-02T06:13:12Z
# spektrafilm: 0.3.3
# Project: https://github.com/andreavolpato/spektrafilm
#
# Copyright (c) 2026 Andrea Volpato. Generated by spektrafilm. Licensed under CC BY-SA 4.0.
#
# License: spektrafilm LUT by Andrea Volpato, licensed under CC BY-SA 4.0.
#          Full text and attribution requirements in SPEKTRAFILM_LICENSE.txt
#          (shipped in this bundle); also at
#          https://github.com/andreavolpato/spektrafilm/blob/main/SPEKTRAFILM_LICENSE.txt.
#
# Citation: If you use this LUT in your work, please cite the spektrafilm
#           project: https://github.com/andreavolpato/spektrafilm, see
#           CITATION.cff for details.
#
# Notes: Generated by the spektrafilm LUT bundle builder. Apply with trilinear
#        or tetrahedral interpolation in your host (DaVinci Resolve, Nuke,
#        OCIO-aware DCC). The input and output color spaces are declared in
#        bundle.json; do NOT apply this LUT to a signal in a different color
#        space.
#
# Role:    film  (domain=input_rgb → range=cmy_film)
# File: lut_v033_vision350d_film.cube  (see sibling bundle.json for full metadata)
# ============================================================================
TITLE "v033_vision350d_film"
DOMAIN_MIN 0 0 0
DOMAIN_MAX 1 1 1
LUT_3D_SIZE 17
0.1123469273 0.1056859015 0.0949622525
0.4051110965 0.1059967722 0.09659356
0.5635880397 0.106339259 0.1112019501
0.6590426258 0.1073693825 0.1433941477
0.723680207 0.1094377051 0.1866204104
0.7692970851 0.1117699482 0.2353708956
0.8060450985 0.1154982281 0.2774810497
0.8358771823 0.1198211041 0.3159184015
0.8587117665 0.124144904 0.34305956
0.8799919475 0.1293497254 0.3662282174
0.897618099 0.1352875277 0.3867191523
0.9103484933 0.1419595328 0.4033562343
0.9233937179 0.1484072276 0.417400392
0.9337926875 0.1548331037 0.4310847823
0.9422037245 0.1633209318 0.4445766117
0.9504689918 0.1727295622 0.4571412851
0.957722398 0.1820330276 0.4687261193
0.1123469273 0.3308989031 0.0949622525
0.2779499663 0.27426154 0.09551995004
0.5151517893 0.1819866938 0.09916175809
0.6285758651 0.1517955135 0.1091680318
0.7049323252 0.1431873553 0.1267666394
0.7567968424 0.1400146892 0.1530829231
0.7970724815 0.1401086977 0.1884958255
0.8294062829 0.1419485734 0.2308826919
0.8545072829 0.1449529119 0.2716324497
0.8761616985 0.1485286251 0.3100994945
0.8956393314 0.15272922 0.3385917201
0.9089649238 0.158135239 0.3630537254
0.9224813484 0.1649786611 0.3856986872
0.9333326562 0.1731752857 0.4040224759
0.9417462437 0.1814633522 0.4190920296
0.9500422989 0.1893185678 0.4333380009
0.9576005648 0.1976164494 0.447340027
0.1127655464 0.5151084282 0.09533313586
0.1472439831 0.5153262709 0.09560552086
0.4430996535 0.427896623 0.09867247097
0.5730159221 0.3756253068 0.1057580036
0.6614352777 0.3303111878 0.1165037379
0.724907263 0.2924909986 0.1326752699
0.7705047185 0.2646443878 0.1518791286
0.8083423684 0.245426329 0.1765934644
0.8387795987 0.2340619251 0.2051705068
0.8622052098 0.2279311249 0.2396478611
0.8847183198 0.2254988387 0.2712094964
0.9013637959 0.2250372941 0.3048393532
0.9150144811 0.2269362562 0.3325934315
0.9284796574 0.230457336 0.3564209916
0.938070067 0.2349504931 0.3788331296
0.9466829882 0.2395190905 0.3980998717
0.9549892698 0.245226015 0.4130492942
0.1131530894 0.6391072603 0.09540477965
0.127710288 0.6488082585 0.09600594039
0.3561999242 0.5700567978 0.09905767
0.5256058007 0.5085993107 0.1053561262
0.6234563906 0.4658667935 0.1151042827
0.6932035308 0.4340544754 0.1279715236
0.7442600274 0.4075548379 0.143694246
0.7853231768 0.3834453609 0.1634225497
0.8201116846 0.3664805031 0.1855898866
0.8477017133 0.3513718304 0.210783366
0.8699970397 0.3394579996 0.2404158885
0.8914708084 0.3305721559 0.2664931142
0.9060833177 0.3248394934 0.2954120157
0.9203628757 0.3212926536 0.3211318688
0.9324191337 0.3194533778 0.3427435126
0.941460106 0.3186713061 0.3621625397
0.95029415 0.3184591329 0.3811108425
0.1147233276 0.7265058931 0.09555092986
0.1264186971 0.7324044903 0.09650867458
0.272945913 0.6890701211 0.09977715698
0.4681015581 0.6140516959 0.1056685038
0.5823758973 0.5661129766 0.1142868608
0.661166703 0.5296833339 0.1268587233
0.7202397315 0.5010676045 0.1412671014
0.7636431811 0.4748911464 0.1582276659
0.8009947425 0.4553419456 0.1780490499
0.8322168816 0.4394401434 0.2003887901
0.8566109051 0.4259736578 0.2257427322
0.8784930337 0.4149667052 0.2514043722
0.8975309075 0.4055829617 0.2746710379
0.9113000477 0.3980627704 0.3006530363
0.9252967193 0.3920857883 0.3226565534
0.9359167555 0.3876858659 0.3415631477
0.9446438431 0.3838688231 0.3585605341
0.1179592584 0.7882041285 0.0962974915
0.1294925784 0.7914739587 0.09739639293
0.2232610033 0.764076079 0.1007493727
0.4171427696 0.707576794 0.1065892962
0.5383922408 0.6543527406 0.1143854086
0.6288637396 0.6121743332 0.1256189996
0.6948392372 0.582419544 0.1402198185
0.7423168073 0.5517693385 0.155500959
0.781509204 0.5309347331 0.1739160793
0.8157630631 0.512442056 0.1941411183
0.8432503324 0.4957510351 0.2164766725
0.8650397865 0.4806722491 0.2410759819
0.8868423885 0.4682058215 0.2631648913
0.9028650657 0.4587145927 0.2867360168
0.9165467408 0.4510086714 0.309468896
0.9296465346 0.4445965003 0.3280456856
0.9388853264 0.4389031546 0.3446450768
0.1224717788 0.8315031023 0.09727751539
0.1343282657 0.8326339827 0.09857743052
0.2049960434 0.8165909626 0.102050225
0.3698272725 0.7706310545 0.1076137174
0.4963806198 0.7255234945 0.1152293079
0.5917271661 0.6857426628 0.125380789
0.6662921163 0.6516786623 0.1383170397
0.7208979683 0.6212626057 0.1539994959
0.7633941492 0.5989647215 0.1718498316
0.7991172058 0.5796020525 0.1907453025
0.8291137964 0.5591966455 0.2114345381
0.8533231022 0.5437979875 0.2346970006
0.8744478542 0.530130888 0.2565778019
0.8946489536 0.5181349282 0.2775911942
0.9081861212 0.5076488142 0.3002189147
0.9222015568 0.4985690953 0.3195036775
0.9333833332 0.4902809362 0.335861176
0.1294718656 0.866677445 0.09870747661
0.1405848783 0.865955138 0.09994471718
0.1977981026 0.8534100514 0.1036192493
0.3328851282 0.819400663 0.1089977222
0.4595389131 0.7801614442 0.1161859197
0.5552254319 0.7419498767 0.1264326679
0.6356155091 0.7123619808 0.138287468
0.6984851615 0.6844421335 0.1524102672
0.7438256034 0.6589449801 0.1703875512
0.7823020426 0.6385787112 0.1885627041
0.8149117464 0.6174844673 0.2080467576
0.8412109903 0.6016993689 0.2293295616
0.8625777167 0.5880084088 0.251062987
0.8839172403 0.5727411836 0.2705955233
0.900555747 0.559240407 0.2919525271
0.9136657142 0.5488028949 0.3117743758
0.9270249668 0.5399846493 0.3283379003
0.1367805769 0.8879357945 0.1001938281
0.1487996075 0.8868385869 0.1016902103
0.1974927778 0.8791215638 0.1054916801
0.3061931936 0.8562411514 0.110553759
0.4291581925 0.822981483 0.1172956112
0.524380631 0.789940048 0.1273001787
0.6042348773 0.7581064087 0.138868407
0.6727570834 0.7316929449 0.1513079859
0.7243673691 0.7106004013 0.1676217255
0.764780466 0.6905967229 0.1863758507
0.7996938923 0.6707876317 0.2057923094
0.8287750445 0.6542456664 0.2263700553
0.8523442604 0.6397124003 0.2479699857
0.8726033685 0.6243192747 0.2667934426
0.892696896 0.61083472 0.2871433313
0.9062218451 0.6003173162 0.3068898598
0.9198465322 0.5909026479 0.3234637946
0.1457662253 0.9051943404 0.1021673522
0.1576434814 0.9035261882 0.1037820975
0.2004788222 0.8970411062 0.1073438496
0.2894853216 0.8811593277 0.1120878183
0.4013243681 0.8572750949 0.1189968372
0.4929624588 0.828644786 0.1288834077
0.5746702305 0.8009382845 0.1398702446
0.6435097742 0.7739744207 0.1522042026
0.7031057722 0.7505798314 0.1670003831
0.7472093418 0.7321027481 0.1840340934
0.7836014658 0.716293553 0.2038281043
0.815509556 0.701029492 0.2242216696
0.8417080995 0.6856725468 0.2455813365
0.8623034854 0.6706406029 0.2635385716
0.8826888966 0.6578675162 0.2823383051
0.8992176642 0.6466873434 0.3017367235
0.9120021083 0.6350209001 0.318398487
0.1557774239 0.9183776392 0.1044225547
0.1668771442 0.9167185608 0.1060469951
0.2055614509 0.9117778457 0.1092216297
0.2810724932 0.899433511 0.1138674896
0.3815833127 0.8817353314 0.1206185168
0.468812964 0.860857681 0.1303296772
0.5464988418 0.8343841202 0.1409444369
0.6190494693 0.8107931988 0.1533446433
0.6806921085 0.78890955 0.1678577699
0.7287834659 0.7686172476 0.1824887823
0.7678972174 0.7511440476 0.2005297063
0.8011038953 0.7365982482 0.2218926233
0.8296893393 0.723769672 0.2434962975
0.8527915467 0.7119101881 0.2617121389
0.8725603824 0.7001220571 0.2796341622
0.8919148475 0.688007795 0.2987692999
0.9052496012 0.6762306111 0.3153435171
0.1660557707 0.9280740156 0.1068594309
0.1778136705 0.9270244519 0.1084787775
0.2119195485 0.9232294553 0.1112937157
0.2782901519 0.9141326549 0.1162501573
0.3681659326 0.8999273004 0.1230537297
0.4502757239 0.8832490968 0.1325007285
0.5249899442 0.8642225834 0.1424676715
0.5927527706 0.8414576605 0.1550734275
0.6550535132 0.821092835 0.1693117041
0.7087851449 0.8020606542 0.1834486741
0.750980712 0.7851766719 0.199075469
0.7866178953 0.7702829285 0.2189988798
0.8170411988 0.7560620313 0.2412544125
0.8424325645 0.7434614611 0.259910825
0.8627432391 0.7321861257 0.2773746606
0.8829188657 0.7220601981 0.2961572772
0.8989880048 0.7126595774 0.3124778031
0.177913202 0.9360295832 0.1094539097
0.1898384939 0.9349189454 0.1109575675
0.2193760941 0.9316436846 0.1136940563
0.2782631181 0.9252494825 0.1187094063
0.35772981 0.9149727486 0.1253583844
0.4345667271 0.9011547524 0.1343657397
0.5032915374 0.8852348667 0.1442866655
0.5703622204 0.8691516155 0.1571169146
0.6331609303 0.8493996685 0.170803215
0.6891719219 0.8308775848 0.1853758149
0.7336181339 0.8148293782 0.2003635915
0.7719813397 0.8004711645 0.2177194889
0.8043648565 0.7875849621 0.2390609698
0.8313619335 0.775191076 0.2585638221
0.8535448158 0.7629189544 0.2762340127
0.8731577718 0.7516583068 0.2948094504
0.8922538354 0.7415921574 0.3110757697
0.1907758714 0.9431570085 0.1119963877
0.201420086 0.9418507693 0.1134264361
0.2280180869 0.9389205439 0.116388685
0.2801155 0.9333820018 0.121243242
0.350485972 0.9262754418 0.1276620399
0.4216050502 0.9156649778 0.1367132047
0.4846539735 0.9025986236 0.1469341756
0.5495144228 0.8882284141 0.1596106724
0.612655944 0.8737331758 0.1730372565
0.6688632859 0.8578586562 0.1872347512
0.7160433291 0.8402563837 0.2019228609
0.7556513942 0.8264103446 0.2190311539
0.7906757692 0.8144866858 0.2377373409
0.8201357166 0.8027687129 0.2565961717
0.8440872508 0.7916538523 0.2748771708
0.8637427083 0.7810369125 0.2936561152
0.8837879164 0.7706283524 0.310164428
0.2028735715 0.9490253943 0.1145762797
0.2119644938 0.9479861893 0.1160684293
0.2378309125 0.9455669718 0.1192780699
0.2834538672 0.9406757461 0.1238063521
0.3470310938 0.9344276166 0.1308566802
0.4106661942 0.9265499022 0.13894933
0.4713570744 0.9169143676 0.1491771464
0.5330245788 0.9045224699 0.1614194602
0.5918270343 0.8911867419 0.1749814766
0.6470756081 0.8780941412 0.1889432034
0.6981775677 0.8644954452 0.2036877142
0.7395863254 0.8503155391 0.2205095274
0.7760004926 0.8375155306 0.2389754557
0.8080552596 0.8262938206 0.2551127519
0.8341031066 0.8162759619 0.2727873737
0.8550359204 0.8061796432 0.2920074696
0.874255469 0.7965732947 0.3090972577
0.2138477534 0.9536673264 0.1174024505
0.2222066175 0.9529373991 0.1189625699
0.248298082 0.9509654218 0.1222850377
0.2880498388 0.9473794245 0.1266488041
0.3455527212 0.9419163779 0.1338714708
0.4025519558 0.9348881301 0.1412121971
0.4608283218 0.9275966717 0.1514739179
0.5191599316 0.9178687273 0.1640735406
0.574439176 0.9065599606 0.1771556678
0.6298007853 0.8941543664 0.1905386857
0.6811312174 0.8823314567 0.2054885982
0.7240423378 0.8712048076 0.2222125213
0.7612624338 0.8598737966 0.2399379461
0.794080938 0.8480007476 0.2559073765
0.8233365536 0.8372395776 0.2708730016
0.846401893 0.827807385 0.2894925255
0.8651633945 0.8190359608 0.3073854977
0.2247855225 0.9573987852 0.1205071023
0.2335351851 0.9568020348 0.122074652
0.2589232329 0.955204662 0.125426884
0.2936748803 0.9527626489 0.1296873884
0.3458245012 0.948609336 0.1367885371
0.3966420433 0.9427022156 0.14352516
0.4524317879 0.9358212689 0.1545946402
0.5051029303 0.9281038816 0.1665821778
0.5580295355 0.9197126865 0.1792677804
0.6127873933 0.9088286327 0.1930274855
0.6628072234 0.8978506484 0.2080145974
0.7080570685 0.8869457699 0.2238656599
0.7462593187 0.8773601494 0.2415601157
0.780476525 0.8681246733 0.2570101061
0.8110120294 0.8580644774 0.2715401479
0.836902873 0.8478815775 0.2873698836
0.8570361958 0.8386574312 0.3050657963
0.1123469273 0.1073782376 0.3198663688
0.3469535232 0.1063466194 0.2855105002
0.5300648968 0.1063719554 0.3677697019
0.6304976261 0.1072302678 0.4038076872
0.7022233787 0.1087529196 0.4150556046
0.7530227809 0.1108617335 0.4217582405
0.7936017589 0.1133770888 0.427137427
0.8271870006 0.1177196776 0.4299162283
0.8527761305 0.1219748975 0.4349723672
0.8743365715 0.1265386786 0.4421118105
0.894616487 0.1319209202 0.4470126346
0.908109245 0.1377303827 0.4537947795
0.9216727982 0.1444030421 0.4626777247
0.9325683508 0.1515884839 0.4714066964
0.9409598352 0.1592853545 0.4801767387
0.9491981378 0.1678027765 0.4878389797
0.9567525317 0.1768461097 0.4954653159
0.1125991879 0.2880924914 0.2664556631
0.265151653 0.2492118861 0.2348830767
0.5028494783 0.1582407483 0.2251450304
0.6199256416 0.131532274 0.2562560493
0.6977653559 0.1249876527 0.2865252704
0.7513914781 0.12444096 0.3163114499
0.7933773159 0.1260250462 0.3367928137
0.8273184124 0.1294856248 0.356196684
0.8529155877 0.1342352215 0.3742995521
0.8743551282 0.1397022009 0.3903466372
0.8943797617 0.1455437142 0.4044557067
0.9083222149 0.1500313659 0.4147212096
0.9217433454 0.1559217641 0.4269030658
0.9324671265 0.164931049 0.441014267
0.9408253614 0.1748378953 0.4542648692
0.9490050526 0.1835328543 0.4656363069
0.956615478 0.1917324611 0.4761121898
0.1132428858 0.5010269103 0.1540573734
0.1655889892 0.4846241584 0.1826369256
0.4457218547 0.4075741998 0.1594259617
0.5703784462 0.3560196888 0.1591005073
0.6584843484 0.305970591 0.169710312
0.723161316 0.2665839167 0.18646791
0.7690931852 0.2372523473 0.2088568235
0.8075868514 0.2234666246 0.2390705979
0.8385583526 0.2160774845 0.2685987157
0.861923348 0.2117412713 0.3004804162
0.8843976793 0.2104313846 0.3271855331
0.9013866335 0.2117027464 0.3509237518
0.9148605585 0.2143851848 0.372276599
0.9282746972 0.2184745623 0.3924679379
0.9379779843 0.2235272073 0.4079768616
0.9466913224 0.2292008695 0.4219551713
0.9550011288 0.2356449786 0.4359272411
0.1142002081 0.6334061437 0.1148001513
0.1389795596 0.6258252567 0.1360968648
0.368377932 0.5462324488 0.141215862
0.5270293649 0.4914833795 0.1444503723
0.6219594339 0.4540036407 0.1537579526
0.6920614242 0.423161028 0.1667824715
0.7430145845 0.394947649 0.1823487523
0.7846524401 0.3730397271 0.2021392248
0.8199350632 0.3551959144 0.2267161801
0.8475743739 0.3392144772 0.2527801862
0.86978459 0.3281042291 0.2765557257
0.8915239835 0.3206767234 0.3031582571
0.9062018594 0.3149087341 0.326718836
0.9204174812 0.3114452129 0.3473934166
0.9324184755 0.3099577875 0.3665549492
0.9413901917 0.3094491361 0.3855704053
0.950222439 0.3098126563 0.4012572873
0.11609137 0.7237166146 0.1061827607
0.1337590036 0.721403549 0.1162069481
0.2904598566 0.6656622079 0.1288720378
0.4716334062 0.5987376952 0.1362603685
0.5832477791 0.5526588667 0.1458397753
0.6607815174 0.5201281925 0.1589461757
0.7190430415 0.4924596237 0.173675517
0.7632189194 0.4677636331 0.190551942
0.8008814171 0.449233733 0.2108944047
0.8321080783 0.4332252658 0.2347022916
0.8564655674 0.4200149535 0.2570804154
0.8784837381 0.4090717175 0.2790446343
0.8976746597 0.3997752286 0.303587371
0.911405962 0.3919706357 0.3238037711
0.9253859575 0.3865486261 0.3417291962
0.9359568993 0.3822365852 0.3586348152
0.9446487985 0.3786978429 0.3748383689
0.1196270274 0.7845926043 0.1045702448
0.1346362641 0.7829924907 0.1106208302
0.2395166635 0.7473200124 0.1213009154
0.4236623662 0.6918172798 0.1307697537
0.5396966929 0.6419328334 0.140767349
0.6294548268 0.6031584559 0.1531637044
0.6948091483 0.5730418611 0.1686090672
0.7420086183 0.5465327958 0.1841653514
0.7814538632 0.526016818 0.2024444706
0.8156944407 0.5076538 0.2233636939
0.8430784373 0.4907308076 0.2454397545
0.8650432589 0.4760167582 0.2654844804
0.8870053221 0.4641593001 0.2876800862
0.9029454634 0.4549915774 0.3094409386
0.9166116967 0.4472923598 0.3272060095
0.9296965487 0.4409076589 0.3435051978
0.9389061198 0.4352078431 0.358309235
0.1245612209 0.8280648182 0.1045941138
0.1381104495 0.8263702251 0.1089401135
0.2150069378 0.8046357919 0.1176439382
0.3775637266 0.7574995575 0.1269898829
0.4996327948 0.7154859156 0.1378491865
0.5926203703 0.6758107104 0.148942144
0.6665307565 0.6441611138 0.1631657969
0.7213416235 0.6151473326 0.1796925171
0.7635156364 0.5953472163 0.1973899348
0.7989985002 0.5747749671 0.216963547
0.8289752929 0.5550305555 0.2382873457
0.8533894351 0.5404768558 0.2582547461
0.8745979956 0.5269540577 0.2778370381
0.8947217749 0.5149811443 0.2991962065
0.9082435537 0.5044683623 0.3175694046
0.9222537611 0.4953422974 0.3337621491
0.933391303 0.4870244432 0.3485061782
0.1313608926 0.8628794561 0.1055820926
0.1439460827 0.8604390974 0.1090535923
0.2057301489 0.8435861638 0.1162852446
0.3406006087 0.8093594152 0.1246639923
0.4628937365 0.7703349263 0.1355945152
0.5570695697 0.7347425338 0.1472145317
0.6360378673 0.7057383599 0.1604384888
0.6989697892 0.6785586716 0.1760909215
0.7444190356 0.6550077106 0.1938008449
0.7824610512 0.6346641546 0.2122531408
0.8147844434 0.6142557847 0.232492263
0.8412998054 0.5994152533 0.2523226294
0.862698393 0.5853081843 0.2705064962
0.8840162135 0.5694880352 0.290470329
0.9006054475 0.5564296344 0.3095552786
0.913718086 0.5464455135 0.3255828591
0.9270506949 0.537489606 0.340335166
0.1384040659 0.8850502444 0.1070086916
0.1515531583 0.8829493978 0.109865804
0.2029674823 0.8734865913 0.1159755399
0.3137390601 0.8471520394 0.1241664407
0.4330672006 0.8154552633 0.1342789343
0.5262808493 0.7830248903 0.1455531448
0.6053566954 0.7520378946 0.1587894241
0.6735303921 0.7275517421 0.1729157335
0.7249213461 0.706879846 0.1888101064
0.7651720185 0.6868272724 0.2080308983
0.7999007839 0.6677301914 0.2282328921
0.8289577235 0.6520594217 0.2483377812
0.8524285977 0.6373748169 0.2661456763
0.8726592531 0.6216795131 0.2851673075
0.8927500254 0.6086570283 0.3042859652
0.906258316 0.5984774081 0.3204677326
0.919871492 0.5886395204 0.3349892113
0.1472645144 0.902393963 0.1086826651
0.1597283716 0.8999859193 0.1111826575
0.2044954001 0.8923948212 0.1164411813
0.2949181551 0.8757221845 0.1239650666
0.4054356865 0.8502442519 0.1338229467
0.4956744441 0.8228111497 0.1450268953
0.5760443237 0.7955633123 0.1581175304
0.6444207447 0.769675061 0.1719715654
0.7036500756 0.7470411354 0.186539944
0.747546727 0.729145464 0.2041089012
0.7840270388 0.7138491845 0.2246578362
0.8159180692 0.6989655642 0.245275883
0.8419197187 0.6835380393 0.262834661
0.8623381993 0.6686994301 0.2803965411
0.882714994 0.6561291687 0.2990853814
0.8992355665 0.6447080464 0.3153374624
0.912019786 0.6330127376 0.3296307081
0.1569213728 0.9159149888 0.1105008257
0.1688030583 0.9140021364 0.1128112792
0.2088198301 0.9077354282 0.1177066087
0.2856897406 0.8944915492 0.1248906266
0.3852162207 0.8772929416 0.1342418763
0.4711027304 0.8557286497 0.144769082
0.5481769369 0.8301159544 0.157655599
0.6203259548 0.8070775149 0.1715651326
0.6813519975 0.7857358946 0.1860704076
0.7291724069 0.7654795791 0.2009018702
0.7682679104 0.7486482868 0.2200488918
0.8016361415 0.7347559109 0.2419495626
0.8300409057 0.722139176 0.260120441
0.8529390425 0.7102919138 0.2773784647
0.8726081144 0.6985120103 0.2958869938
0.8919045933 0.686318012 0.3121624555
0.9052559982 0.6745006776 0.3262706769
0.1672002489 0.9263651605 0.1126603653
0.1795373577 0.9251169969 0.1148687435
0.2145018381 0.9202261912 0.1194224607
0.2815544206 0.9102939968 0.1263558519
0.3715930805 0.8963322772 0.1353950743
0.4525778202 0.8797072612 0.1454358692
0.5266871831 0.8604349772 0.158021245
0.5943206101 0.8381590953 0.172000457
0.6561624057 0.818415498 0.1862322536
0.7092547415 0.7993392626 0.2006838884
0.7514257215 0.7829163288 0.2172309382
0.7870978208 0.7684115729 0.2382719251
0.8174444297 0.7543564069 0.257377791
0.8426938174 0.7419684614 0.2747384546
0.8628932127 0.7308318786 0.2927540183
0.8829659882 0.7207855196 0.309258037
0.8989842536 0.7114483699 0.3231359587
0.1790512425 0.9344336508 0.1151217182
0.1912194489 0.9331236271 0.1171340569
0.2215127832 0.9293701363 0.1216086296
0.2806614319 0.9225359103 0.127964282
0.3608798263 0.9122692507 0.1364507033
0.4367792051 0.8980215271 0.1461193704
0.5054816321 0.8824662099 0.1585920184
0.5720262136 0.8666593825 0.1727151782
0.6341510548 0.8465783796 0.186695843
0.6897695105 0.8284716554 0.2015969723
0.7341073983 0.812834827 0.2176571744
0.772501647 0.7988200983 0.2358839294
0.8047174025 0.785993151 0.2548154516
0.8316726224 0.7736444237 0.2726722389
0.853754697 0.7614582788 0.2909049939
0.8733027798 0.7503511059 0.3074257543
0.8923438306 0.7404795337 0.3213093067
0.1916208465 0.9414951876 0.1176978653
0.2023824761 0.9400570474 0.119587869
0.2298854968 0.9368412103 0.123973987
0.2820847443 0.9314954125 0.1299319727
0.3538230086 0.9241141597 0.138126877
0.4239141921 0.9130765497 0.1477079813
0.4865891249 0.9001243576 0.1605126717
0.551108663 0.8861625496 0.1740852787
0.6139737201 0.8716719456 0.1877802145
0.6696815194 0.8555040819 0.2026839005
0.7166921165 0.8384088985 0.2183592233
0.7562323275 0.824986894 0.2362347048
0.7910709484 0.8130020954 0.2529151957
0.8204060895 0.8013730051 0.2700288584
0.8443220247 0.7903393256 0.288874057
0.8639246437 0.7797504688 0.3059404805
0.883953478 0.7694827396 0.3200622154
0.2034445801 0.9475948916 0.1203136067
0.2126964096 0.9464776188 0.1222415398
0.2393130196 0.9437175432 0.1265072087
0.2853140309 0.9390238077 0.1321523491
0.3496141169 0.9326747465 0.1401516663
0.4128729447 0.9247003964 0.14934611
0.4729624112 0.9149933312 0.1618730464
0.5345213269 0.9027028439 0.1748398112
0.593108237 0.8894271226 0.18876578
0.6480990922 0.8764758937 0.2035959531
0.6988955395 0.8628281203 0.2192565759
0.7401689641 0.8487977135 0.2369212346
0.7764051715 0.836135302 0.2532751545
0.808380932 0.8250733232 0.2677206284
0.8343044925 0.8151194243 0.2861478035
0.8552127837 0.8050363661 0.3040408242
0.8744616263 0.7955378341 0.3187878057
0.2142667056 0.9525540016 0.1231867637
0.2228262469 0.9517827868 0.1251142625
0.2495465458 0.9496303641 0.129215641
0.2897846065 0.945977484 0.1346620906
0.3476475174 0.9402385992 0.1421938184
0.404400386 0.9333990198 0.1510467931
0.4625745131 0.9262062765 0.1636585778
0.5208156336 0.9163624172 0.1766334371
0.5757183034 0.9049853143 0.1901404559
0.6306435248 0.8926346492 0.2044310646
0.6819278829 0.8810895596 0.2203940839
0.7247067575 0.8700626253 0.2378200561
0.7616660776 0.8586404533 0.2536156372
0.794401325 0.846710872 0.2679475861
0.8235857309 0.8360859212 0.283420451
0.8465476773 0.8267718576 0.301418394
0.8653466393 0.8181215229 0.3170219147
0.225244978 0.9565485748 0.1263794388
0.2342944834 0.9559344555 0.1281901297
0.2600062943 0.9542875543 0.1321809558
0.2956598074 0.9515796475 0.1373701196
0.3473819661 0.9472438679 0.144612329
0.3986172754 0.941227107 0.1532331917
0.4540825974 0.9346248037 0.166097525
0.5068396599 0.9269976034 0.1781107804
0.5593173721 0.9183899703 0.1915555368
0.6138789382 0.9074366143 0.2061171813
0.6638674042 0.8967010589 0.2222269367
0.708821154 0.8859449079 0.2386974324
0.7467760134 0.8764130743 0.2543793608
0.7808023549 0.8671711064 0.2686171871
