app/src/main/assets/spektrafilm/profiles/kodak_vision3_50d_film.cube
# ============================================================================
# spektrafilm LUT
# Bundle:  spektrafilm_v033_vision350d_8printpack_2lut_prophoto_prophoto  (2lut, 17^3)
# Film:    kodak_vision3_50d
# Print:   fujifilm_crystal_archive_typeii, kodak_2383, kodak_2393, kodak_ektacolor_edge, kodak_endura_premier, kodak_portra_endura, kodak_supra_endura, kodak_ultra_endura
# Input:   ProPhoto RGB  (cctf on)
# Output:  ProPhoto RGB  (cctf on)
# Created: 2026-06-02T06:13:12Z
# spektrafilm: 0.3.3
# Project: https://github.com/andreavolpato/spektrafilm
#
# Copyright (c) 2026 Andrea Volpato. Generated by spektrafilm. Licensed under CC BY-SA 4.0.
#
# License: spektrafilm LUT by Andrea Volpato, licensed under CC BY-SA 4.0.
#          Full text and attribution requirements in SPEKTRAFILM_LICENSE.txt
#          (shipped in this bundle); also at
#          https://github.com/andreavolpato/spektrafilm/blob/main/SPEKTRAFILM_LICENSE.txt.
#
# Citation: If you use this LUT in your work, please cite the spektrafilm
#           project: https://github.com/andreavolpato/spektrafilm, see
#           CITATION.cff for details.
#
# Notes: Generated by the spektrafilm LUT bundle builder. Apply with trilinear
#        or tetrahedral interpolation in your host (DaVinci Resolve, Nuke,
#        OCIO-aware DCC). The input and output color spaces are declared in
#        bundle.json; do NOT apply this LUT to a signal in a different color
#        space.
#
# Role:    film  (domain=input_rgb → range=cmy_film)
# File: lut_v033_vision350d_film.cube  (see sibling bundle.json for full metadata)
# ============================================================================
TITLE "v033_vision350d_film"
DOMAIN_MIN 0 0 0
DOMAIN_MAX 1 1 1
LUT_3D_SIZE 5
0.1123469273 0.1056859015 0.0949622525
0.723680207 0.1094377051 0.1866204104
0.8587117665 0.124144904 0.34305956
0.9233937179 0.1484072276 0.417400392
0.957722398 0.1820330276 0.4687261193
0.1147233276 0.7265058931 0.09555092986
0.5823758973 0.5661129766 0.1142868608
0.8009947425 0.4553419456 0.1780490499
0.8975309075 0.4055829617 0.2746710379
0.9446438431 0.3838688231 0.3585605341
0.1367805769 0.8879357945 0.1001938281
0.4291581925 0.822981483 0.1172956112
0.7243673691 0.7106004013 0.1676217255
0.8523442604 0.6397124003 0.2479699857
0.9198465322 0.5909026479 0.3234637946
0.177913202 0.9360295832 0.1094539097
0.35772981 0.9149727486 0.1253583844
0.6331609303 0.8493996685 0.170803215
0.8043648565 0.7875849621 0.2390609698
0.8922538354 0.7415921574 0.3110757697
0.2247855225 0.9573987852 0.1205071023
0.3458245012 0.948609336 0.1367885371
0.5580295355 0.9197126865 0.1792677804
0.7462593187 0.8773601494 0.2415601157
0.8570361958 0.8386574312 0.3050657963
0.1123469273 0.210903934 0.7066709473
0.6382300357 0.1247470567 0.6040323876
0.8217410505 0.1280752584 0.6745213728
0.9024078348 0.1437918349 0.7007793417
0.9447223684 0.1693630803 0.7062291133
0.116078699 0.6223244638 0.6036823579
0.5483462561 0.5124445142 0.5020116906
0.7826232094 0.4167365309 0.4956179787
0.8903537466 0.3508614354 0.5240260511
0.9408682101 0.3238169841 0.5522150247
0.1537638468 0.8259962546 0.4533623328
0.444807499 0.7612265475 0.450662267
0.7221266862 0.6749398881 0.4237215757
0.849504938 0.6126608983 0.4239102603
0.9181939155 0.5643259342 0.4391812997
0.1950534258 0.9094804685 0.3430272399
0.3843492325 0.8832033175 0.379767454
0.6397329084 0.8233573204 0.3925458549
0.8056040385 0.7690644944 0.3987418325
0.8915001195 0.7290805585 0.4135800042
0.2351958585 0.9450759576 0.2714698918
0.3664562417 0.9336484287 0.3194654212
0.571183305 0.9046671328 0.358657255
0.7499429652 0.8657371449 0.3803415068
0.8580070862 0.8281271629 0.4002930256
0.1129109289 0.3871924864 0.8647138257
0.4867009137 0.2612775932 0.7860731565
0.7775389623 0.1799302845 0.7468571956
0.879595489 0.1764438829 0.78507662
0.9327467772 0.1939208524 0.8143245052
0.1131541684 0.5873944865 0.8360569422
0.4401964493 0.5219154993 0.7478350398
0.7427498113 0.4266950707 0.696944279
0.8614799154 0.3655779027 0.7188785543
0.9249285024 0.3305838475 0.748884687
0.1391350277 0.7789693613 0.7642928232
0.3867324288 0.7336539303 0.7052294892
0.6906538738 0.6499292018 0.6442238768
0.8288688327 0.5914828958 0.632402591
0.9052615531 0.5387118574 0.6408996006
0.2051305818 0.8702280393 0.6721877133
0.3823697198 0.8447307258 0.6579894336
0.6267084433 0.7920203206 0.6172332612
0.7926492476 0.7422039648 0.5880617396
0.8816673433 0.708011949 0.5777789294
0.2651840495 0.9192181805 0.5859927185
0.3851712075 0.9075969381 0.5948498036
0.5746444673 0.8789976488 0.5852250466
0.7449655561 0.8397503025 0.5631352223
0.8537971869 0.8081334229 0.5494774397
0.1128099659 0.4755888467 0.9270816417
0.2086928528 0.4493254853 0.9019689321
0.7288816849 0.3058783217 0.8303053714
0.853676175 0.251176529 0.8256823562
0.918406775 0.2444043887 0.8473364623
0.1131526716 0.59544344 0.9197890924
0.223017094 0.5712004019 0.879921306
0.6954061443 0.4586880428 0.8147919042
0.8376905683 0.4003968274 0.7978568927
0.9093360754 0.3671408782 0.8157823697
0.1248130354 0.7605606257 0.8894800322
0.2638561969 0.7338420582 0.8411373515
0.6407616307 0.6484777204 0.785717477
0.8052758182 0.5892977345 0.7598326359
0.8904111513 0.5399900133 0.7629074359
0.1774140253 0.8477953192 0.8359956597
0.3280423157 0.8287570627 0.8114423159
0.5871194035 0.7815107386 0.7585569378
0.770033329 0.7307047635 0.7302500908
0.8649340053 0.6954252022 0.7214243826
0.2548630141 0.8984639034 0.7813654596
0.3696527048 0.8890136066 0.7734706979
0.5545335075 0.8641394909 0.7417982785
0.7291616673 0.8244956636 0.7131228093
0.8422793435 0.7930375804 0.6912766234
0.1131912818 0.5441292227 0.9560927422
0.1269190041 0.5384653399 0.9461530822
0.6260328956 0.4023693671 0.9003580479
0.8271003581 0.3493352917 0.8744563455
0.9027280138 0.3178596645 0.8758524007
0.1134622141 0.6189870962 0.954108649
0.1361659418 0.621092968 0.9388265511
0.6017531472 0.5022408988 0.8914791805
0.8119242676 0.4447626284 0.8628708956
0.8947742309 0.4046682679 0.8582568875
0.1203054754 0.7538976494 0.939358728
0.1715818668 0.741311713 0.9182222772
0.5689079759 0.6617095234 0.8723457552
0.7773093002 0.5982177911 0.8410494529
0.8723086518 0.5491505026 0.8301604262
0.1532348787 0.8379040482 0.9132834269
0.2497750542 0.8233847225 0.8949462928
0.5381100879 0.7816881552 0.8492802201
0.7419881652 0.728599939 0.8225876008
0.850240449 0.6919896463 0.8082118239
0.2227522338 0.8877243693 0.8813410292
0.326877664 0.8801651952 0.8701265924
0.5209665504 0.8588524223 0.8358001812
0.7035852047 0.8192642676 0.8054502302
0.8261747776 0.7860955073 0.7876244626
