app/src/main/assets/spektrafilm/profiles/kodak_ultramax_400_film.cube
# ============================================================================
# spektrafilm LUT
# Bundle:  spektrafilm_v033_ultramax400_8printpack_2lut_prophoto_prophoto  (2lut, 17^3)
# Film:    kodak_ultramax_400
# Print:   fujifilm_crystal_archive_typeii, kodak_2383, kodak_2393, kodak_ektacolor_edge, kodak_endura_premier, kodak_portra_endura, kodak_supra_endura, kodak_ultra_endura
# Input:   ProPhoto RGB  (cctf on)
# Output:  ProPhoto RGB  (cctf on)
# Created: 2026-06-02T06:13:09Z
# spektrafilm: 0.3.3
# Project: https://github.com/andreavolpato/spektrafilm
#
# Copyright (c) 2026 Andrea Volpato. Generated by spektrafilm. Licensed under CC BY-SA 4.0.
#
# License: spektrafilm LUT by Andrea Volpato, licensed under CC BY-SA 4.0.
#          Full text and attribution requirements in SPEKTRAFILM_LICENSE.txt
#          (shipped in this bundle); also at
#          https://github.com/andreavolpato/spektrafilm/blob/main/SPEKTRAFILM_LICENSE.txt.
#
# Citation: If you use this LUT in your work, please cite the spektrafilm
#           project: https://github.com/andreavolpato/spektrafilm, see
#           CITATION.cff for details.
#
# Notes: Generated by the spektrafilm LUT bundle builder. Apply with trilinear
#        or tetrahedral interpolation in your host (DaVinci Resolve, Nuke,
#        OCIO-aware DCC). The input and output color spaces are declared in
#        bundle.json; do NOT apply this LUT to a signal in a different color
#        space.
#
# Role:    film  (domain=input_rgb → range=cmy_film)
# File: lut_v033_ultramax400_film.cube  (see sibling bundle.json for full metadata)
# ============================================================================
TITLE "v033_ultramax400_film"
DOMAIN_MIN 0 0 0
DOMAIN_MAX 1 1 1
LUT_3D_SIZE 5
0.1006643849 0.105764146 0.09493070059
0.7306861379 0.1116666122 0.1472538214
0.8694033223 0.1290437847 0.2663208164
0.9279202568 0.1531961302 0.3515446871
0.9571641011 0.183672642 0.4070769596
0.1990081379 0.7184395578 0.09592067711
0.514269935 0.5950786083 0.1091092163
0.7667332642 0.4644352531 0.1497733066
0.8753572997 0.3969975008 0.2192961837
0.9315229121 0.3685306908 0.3012796343
0.3537667118 0.8712256319 0.09983151038
0.4429674691 0.849313692 0.1123083676
0.6625580539 0.7443727991 0.1479857804
0.8141922977 0.657856552 0.1980828213
0.8947691217 0.5995062592 0.2615366676
0.4338751617 0.9308294638 0.1068936741
0.4680854291 0.9281223646 0.1180643861
0.5997608905 0.8851950216 0.1526705884
0.7470398344 0.8224368818 0.1995325507
0.8538104951 0.7665883123 0.2525478553
0.4902859477 0.9569603112 0.1164033708
0.5059314072 0.9570161695 0.1266657082
0.5819603683 0.9437243279 0.1580938031
0.7014493107 0.9114805877 0.2062585839
0.8065155416 0.8732575561 0.2559550733
0.1048700244 0.2565735876 0.6678350687
0.6031609743 0.1461598559 0.5814256022
0.8098029062 0.1583614818 0.6305205885
0.8993500437 0.1813686676 0.646152266
0.9414893158 0.2086127543 0.645878131
0.1845420233 0.6239774968 0.5464624088
0.4947582936 0.5382528961 0.47860076
0.7451180672 0.422390529 0.4676306071
0.8688055301 0.3427669626 0.487151393
0.9299373367 0.3144535986 0.5081414245
0.3377862693 0.8135183283 0.4047048069
0.434978289 0.7895938055 0.4205607466
0.6682078109 0.7032910848 0.3908930325
0.814370837 0.6303503806 0.3848861724
0.8935169338 0.5740147998 0.398177804
0.4247668628 0.9068310337 0.2930874972
0.463507688 0.9025475434 0.3407262623
0.5993399129 0.8590856246 0.3604829518
0.7532931194 0.801074135 0.3609714689
0.8573233557 0.7521532754 0.3721156546
0.4856740665 0.9471191941 0.2295548183
0.5017114952 0.9463029113 0.2756491118
0.5821340691 0.931428147 0.3222569411
0.7026640936 0.9007877492 0.3449472808
0.8102869254 0.8615142772 0.3623217276
0.128031531 0.429483783 0.8356899258
0.4751053278 0.3055809437 0.7718136271
0.7499350466 0.2236724244 0.7263669963
0.8655310713 0.2316878515 0.7558042444
0.9236986893 0.2581046091 0.7804505584
0.1857258291 0.5948453933 0.7853176811
0.3944360773 0.5582767482 0.7372395832
0.701209162 0.4437818225 0.676906802
0.8333051009 0.3771583083 0.6959149384
0.9067231201 0.345749798 0.7190878784
0.3207563908 0.7667333336 0.6972664552
0.40176529 0.7623107376 0.6717352254
0.6405808895 0.679413824 0.6198198591
0.7923734366 0.6099799646 0.6030796003
0.8773568281 0.5521051221 0.6085765494
0.4111874864 0.8683090575 0.613039949
0.4487743335 0.8666907696 0.6176572084
0.5849366621 0.8290297006 0.5896620543
0.7463825808 0.7724884296 0.5569154399
0.8501334771 0.7294036817 0.5406322802
0.4750987869 0.9249325076 0.537267467
0.4921357338 0.9238658328 0.5544082469
0.5753848915 0.9099631481 0.554999565
0.6974142687 0.8768803646 0.5347990375
0.8108391838 0.8402390376 0.5171326529
0.1660965391 0.5080250103 0.9137116969
0.2183965925 0.4993012077 0.9111372864
0.7125897056 0.3437292555 0.8169135441
0.8297626005 0.3033011792 0.8109244955
0.902735643 0.3086932866 0.8284480346
0.2117163614 0.6021901367 0.8925257705
0.2706326359 0.6057012337 0.8744307997
0.6698594141 0.4845471994 0.8016454671
0.8051451567 0.4215462544 0.7829385511
0.8871949424 0.3895579432 0.7986836351
0.3153171764 0.7476215096 0.8328194404
0.357415331 0.7543503226 0.8137912174
0.5917525926 0.6822763811 0.7730650707
0.7679065574 0.6126103383 0.7392505104
0.8597973788 0.5588929478 0.7411908742
0.4012491919 0.8450102359 0.780056269
0.4263077272 0.8483490103 0.7722534232
0.5552693835 0.8187152581 0.7374811626
0.7245260734 0.761678539 0.7074593616
0.8313783175 0.7172330404 0.6940635758
0.465170605 0.9072247339 0.7264946748
0.4811477296 0.9076900044 0.7279895041
0.5584426518 0.8963722006 0.7129994494
0.6832324251 0.8614664303 0.6875677933
0.8011427284 0.82446908 0.6606974248
0.2078997506 0.5630870275 0.954442748
0.2062926928 0.5647913536 0.9513472549
0.6159300288 0.444824406 0.904556672
0.8073540086 0.3875492316 0.8681125638
0.8808732365 0.3656814706 0.8688412558
0.2432095781 0.6239158705 0.9464107797
0.2511478251 0.6336466208 0.9339107115
0.5682956774 0.5438873087 0.8995167907
0.7900061265 0.471994333 0.8558120117
0.8676845892 0.4328958909 0.8514103544
0.3223068485 0.741944589 0.9135960596
0.3367569803 0.7490586012 0.9020514483
0.5256329442 0.7016520836 0.8763792671
0.7465673228 0.6252478444 0.8312432382
0.84109912 0.5727145159 0.8173346533
0.3965764781 0.8310371803 0.8769899211
0.4116659744 0.8359693101 0.8688280371
0.5196210577 0.817617564 0.8405617194
0.6965083728 0.7617243736 0.8110533562
0.8153650737 0.7162338754 0.7903576972
0.4573890258 0.8947044548 0.8381064331
0.4710188491 0.8967884813 0.8343346246
0.5344350094 0.8897452307 0.8149009396
0.6610448902 0.8565615936 0.7894664022
0.7847468227 0.8180857377 0.7669756495
