app/src/main/assets/spektrafilm/profiles/kodak_portra_800_push2_film.cube
# ============================================================================
# spektrafilm LUT
# Bundle:  spektrafilm_v033_portra800_8printpack_2lut_prophoto_prophoto  (2lut, 17^3)
# Film:    kodak_portra_800_push2
# Print:   fujifilm_crystal_archive_typeii, kodak_2383, kodak_2393, kodak_ektacolor_edge, kodak_endura_premier, kodak_portra_endura, kodak_supra_endura, kodak_ultra_endura
# Input:   ProPhoto RGB  (cctf on)
# Output:  ProPhoto RGB  (cctf on)
# Created: 2026-06-02T06:13:09Z
# spektrafilm: 0.3.3
# Project: https://github.com/andreavolpato/spektrafilm
#
# Copyright (c) 2026 Andrea Volpato. Generated by spektrafilm. Licensed under CC BY-SA 4.0.
#
# License: spektrafilm LUT by Andrea Volpato, licensed under CC BY-SA 4.0.
#          Full text and attribution requirements in SPEKTRAFILM_LICENSE.txt
#          (shipped in this bundle); also at
#          https://github.com/andreavolpato/spektrafilm/blob/main/SPEKTRAFILM_LICENSE.txt.
#
# Citation: If you use this LUT in your work, please cite the spektrafilm
#           project: https://github.com/andreavolpato/spektrafilm, see
#           CITATION.cff for details.
#
# Notes: Generated by the spektrafilm LUT bundle builder. Apply with trilinear
#        or tetrahedral interpolation in your host (DaVinci Resolve, Nuke,
#        OCIO-aware DCC). The input and output color spaces are declared in
#        bundle.json; do NOT apply this LUT to a signal in a different color
#        space.
#
# Role:    film  (domain=input_rgb → range=cmy_film)
# File: lut_v033_portra800_film.cube  (see sibling bundle.json for full metadata)
# ============================================================================
TITLE "v033_portra800_film"
DOMAIN_MIN 0 0 0
DOMAIN_MAX 1 1 1
LUT_3D_SIZE 5
0.07834227741 0.08951349416 0.07559436066
0.6783275779 0.09084058525 0.08784271583
0.855099911 0.09426096965 0.1250786416
0.922011062 0.09879580025 0.1653469061
0.9560913373 0.1029009031 0.2057164853
0.09478309457 0.7469363209 0.07619777863
0.4464833391 0.5517269304 0.07925746538
0.7354494994 0.325203484 0.08878566901
0.8606754824 0.2019347176 0.103069989
0.9241266193 0.1646389147 0.1246810956
0.1659155389 0.9063809425 0.07784716687
0.3090352429 0.8760599811 0.08118721516
0.6062056566 0.7168962586 0.08777447054
0.7871760068 0.5831888933 0.09640254635
0.8763981524 0.4892443068 0.1075218802
0.2516746171 0.9424255977 0.08007874653
0.3086988056 0.9373522839 0.08359212244
0.514075165 0.887030079 0.0898295604
0.7034708725 0.7984749545 0.09673641293
0.8241485377 0.7042687289 0.1048581022
0.3212506801 0.956637355 0.08337432394
0.3477181178 0.9549740877 0.08582103287
0.4657903197 0.9391315717 0.0923441251
0.6325638625 0.8987972567 0.09886940862
0.767937598 0.8457454175 0.1060162749
0.07886705171 0.169168415 0.6884996513
0.5281681889 0.1005311225 0.5468614791
0.7640114037 0.1011457005 0.5921469024
0.8703347361 0.1030184017 0.5766963005
0.9274478005 0.1056565082 0.543865472
0.09260469057 0.6499733967 0.5248906969
0.4057574916 0.4625793057 0.3718258999
0.6926313712 0.2306107423 0.3311139895
0.8411836722 0.1518371237 0.3448502451
0.9128796865 0.1343883563 0.3559096288
0.1542107277 0.8598034968 0.3188969826
0.3002634251 0.802499081 0.2883677766
0.5958804738 0.6506486217 0.1964254914
0.7740119814 0.535905134 0.1751716835
0.8685534663 0.444162659 0.1793454021
0.2351158793 0.92320802 0.1654295093
0.3001569887 0.9108676713 0.1860723738
0.5071930123 0.8529095291 0.1711239625
0.6990404274 0.7615595279 0.1535900201
0.8210505284 0.6767550383 0.1515666506
0.3095722923 0.9476158778 0.1247843357
0.3378855261 0.9445807295 0.1378121554
0.4636193135 0.9251432999 0.1481475875
0.6279755623 0.8820986064 0.146463988
0.7659216846 0.8272348543 0.1458886801
0.08136779851 0.3871541071 0.8739535112
0.3628079483 0.1658328885 0.7966415052
0.6864812884 0.1190542358 0.710992832
0.8201424781 0.1152360153 0.7219915276
0.8919901898 0.1172199768 0.7293973677
0.09089969914 0.6227698408 0.8287759777
0.257043918 0.4995299542 0.7348787601
0.6248575128 0.256686864 0.6094689903
0.7884807206 0.1677989154 0.617990834
0.8745922048 0.1427108168 0.6355325147
0.1370780133 0.8101251809 0.7108581502
0.2352293917 0.7667113565 0.6350994458
0.5511681276 0.6089798395 0.5184232457
0.7330674522 0.4967427171 0.4778902101
0.8414946774 0.392427339 0.4715888643
0.2103270489 0.8899543693 0.579297779
0.2758377115 0.8755554711 0.5571526345
0.4843670247 0.809661379 0.4818914057
0.6768551417 0.7119188656 0.4146363138
0.8035069359 0.6328242741 0.3791165496
0.2849204985 0.9269912821 0.4688845442
0.3210424435 0.9231107319 0.4755364996
0.4517135782 0.8986608965 0.4443063318
0.6126342494 0.8511955649 0.3941105523
0.7546292987 0.7886647961 0.3478451563
0.08641173114 0.5124814544 0.9280405454
0.1094068359 0.4606593776 0.9252060593
0.6215900149 0.1646172781 0.8061963279
0.7747186621 0.1358346952 0.7844358583
0.8605456183 0.1308129255 0.7909038176
0.09530364654 0.6383337355 0.9145071304
0.1262580473 0.5955994243 0.8917514312
0.5709322668 0.3293733299 0.7780729172
0.742500841 0.2057274844 0.7334849465
0.844622381 0.1665034175 0.7414471446
0.1294292966 0.7884170714 0.861568043
0.1697910196 0.7663766698 0.8275413442
0.4909271468 0.6110628888 0.7315998975
0.6940940508 0.4959729585 0.6628775869
0.8086201322 0.3971334263 0.6490805633
0.1916644031 0.8680273504 0.7926556272
0.2353087194 0.8582650363 0.7661448717
0.4406254602 0.793264305 0.6837929199
0.6397368311 0.6917432819 0.6107619014
0.7743534064 0.6107971965 0.5698670878
0.2647367381 0.9092154857 0.7122715222
0.2998967454 0.9051737015 0.7035766391
0.4269506625 0.8819247148 0.6477683573
0.5874117419 0.8304932163 0.5818244494
0.7337181252 0.7615139992 0.5249368299
0.09389626382 0.5881570612 0.9545852038
0.09685100822 0.569104178 0.9518258693
0.5009161916 0.2718358113 0.8883791788
0.733828911 0.1785277093 0.8351380576
0.8319449599 0.1532857551 0.827253997
0.1022731763 0.662945044 0.9479256333
0.108018203 0.6537314544 0.9375180253
0.4550514492 0.4370319962 0.8806625785
0.7110918051 0.2740628649 0.8195701819
0.8146108214 0.2031763351 0.8049326693
0.1292043052 0.7814529025 0.9201796808
0.1431574717 0.7708716804 0.9060632284
0.4084700422 0.6417788328 0.8549228231
0.6568389749 0.5107331977 0.78962925
0.7823177249 0.4205500842 0.7535715202
0.1801404847 0.8563292045 0.8816203403
0.2064779537 0.8505041797 0.8683684701
0.3897568999 0.7941138769 0.8195486804
0.5995850256 0.6903454784 0.7576758832
0.7451576273 0.6067511408 0.7106236536
0.2464061831 0.8982379978 0.8377956707
0.2760281384 0.8956686379 0.8292517722
0.3912015237 0.8751835636 0.7888827234
0.5542878128 0.8217941257 0.727524363
0.7066223164 0.7488038588 0.6743876803
