app/src/main/assets/spektrafilm/profiles/kodak_ektar_100_film.cube
# ============================================================================
# spektrafilm LUT
# Bundle:  spektrafilm_v033_ektar100_8printpack_2lut_prophoto_prophoto  (2lut, 17^3)
# Film:    kodak_ektar_100
# Print:   fujifilm_crystal_archive_typeii, kodak_2383, kodak_2393, kodak_ektacolor_edge, kodak_endura_premier, kodak_portra_endura, kodak_supra_endura, kodak_ultra_endura
# Input:   ProPhoto RGB  (cctf on)
# Output:  ProPhoto RGB  (cctf on)
# Created: 2026-06-02T06:13:05Z
# spektrafilm: 0.3.3
# Project: https://github.com/andreavolpato/spektrafilm
#
# Copyright (c) 2026 Andrea Volpato. Generated by spektrafilm. Licensed under CC BY-SA 4.0.
#
# License: spektrafilm LUT by Andrea Volpato, licensed under CC BY-SA 4.0.
#          Full text and attribution requirements in SPEKTRAFILM_LICENSE.txt
#          (shipped in this bundle); also at
#          https://github.com/andreavolpato/spektrafilm/blob/main/SPEKTRAFILM_LICENSE.txt.
#
# Citation: If you use this LUT in your work, please cite the spektrafilm
#           project: https://github.com/andreavolpato/spektrafilm, see
#           CITATION.cff for details.
#
# Notes: Generated by the spektrafilm LUT bundle builder. Apply with trilinear
#        or tetrahedral interpolation in your host (DaVinci Resolve, Nuke,
#        OCIO-aware DCC). The input and output color spaces are declared in
#        bundle.json; do NOT apply this LUT to a signal in a different color
#        space.
#
# Role:    film  (domain=input_rgb → range=cmy_film)
# File: lut_v033_ektar100_film.cube  (see sibling bundle.json for full metadata)
# ============================================================================
TITLE "v033_ektar100_film"
DOMAIN_MIN 0 0 0
DOMAIN_MAX 1 1 1
LUT_3D_SIZE 5
0.09996001599 0.1011378003 0.08268562924
0.6879863691 0.1042390921 0.143624266
0.8374397125 0.1156915193 0.250173736
0.9142263686 0.1355685648 0.3353358301
0.9571364893 0.1597372697 0.3919726662
0.1047435085 0.6995378706 0.08312463668
0.5070508628 0.5337264639 0.0985269307
0.754956682 0.3721755929 0.1414268874
0.8695763351 0.2848543756 0.2052841204
0.9373377055 0.2532570328 0.2843696184
0.1550497579 0.8756363911 0.0853822454
0.3548070881 0.8052557335 0.09977604326
0.6636104947 0.6718255841 0.132229664
0.8088389162 0.5822892341 0.1801565884
0.8980682635 0.5189532568 0.2388377869
0.2390820345 0.9343207214 0.08965926584
0.3321981612 0.9104924703 0.102470981
0.5780842208 0.8218755019 0.1331473068
0.7507521651 0.7412308719 0.1735930406
0.8561146398 0.6887790343 0.2267205845
0.3119316255 0.957159883 0.09491056214
0.3604493034 0.948240366 0.1069905881
0.5177398023 0.9119261731 0.1373063588
0.6964648858 0.8502386347 0.1748013768
0.8110047243 0.7942309561 0.2223745337
0.1003203833 0.2250476077 0.6684786963
0.5565215952 0.141373228 0.5740270757
0.7621712173 0.1756168484 0.6036424099
0.866022576 0.2141508908 0.6182011492
0.93076396 0.2469944435 0.6192853156
0.1032183368 0.6253585528 0.5783896649
0.4567847442 0.4764841602 0.4835359433
0.7249642637 0.3361762867 0.4626363777
0.8539488179 0.2629314366 0.4790914133
0.9257398804 0.2505982349 0.4977620745
0.1441554154 0.8098720603 0.4060300386
0.3486991523 0.7389321694 0.417264532
0.6569134047 0.634010001 0.3772043962
0.802986633 0.5579463691 0.3713066889
0.8931036981 0.4947801722 0.3850370675
0.2181952523 0.9035337924 0.251412124
0.3289758016 0.8729812105 0.3201131031
0.576265851 0.7895716442 0.3324168661
0.7495154415 0.7210346797 0.3341684004
0.8546534404 0.6754544407 0.3492004381
0.2933314252 0.94411522 0.1798111745
0.352972037 0.9328936752 0.2340212659
0.5213691411 0.8934350081 0.2888086913
0.6955731034 0.8347089761 0.3119237055
0.8103056298 0.7813594884 0.3319070058
0.1006602737 0.4371212067 0.8196918203
0.3886379949 0.3198361146 0.7446070795
0.7085801956 0.2332178288 0.6940078068
0.8283275909 0.2782110751 0.7064287631
0.9039922789 0.3247321223 0.724609226
0.1027953918 0.6227050954 0.7866827809
0.3115606985 0.529069562 0.7278392612
0.6749151815 0.3888987176 0.6667750605
0.8090860476 0.3384539237 0.672908113
0.8940493913 0.3378511301 0.6900949722
0.1288372839 0.7701952938 0.7164443083
0.2769334529 0.7198416756 0.6856929971
0.617934593 0.6180454539 0.6217705999
0.7740930045 0.544361469 0.6036056053
0.8695364575 0.4871432487 0.6058440808
0.1983093252 0.8598686609 0.6358584934
0.3073028046 0.8323770877 0.6351724846
0.5530496915 0.758368807 0.5938091359
0.7326367492 0.6984082141 0.5556741487
0.8405866189 0.6548519983 0.5378288009
0.2742679139 0.9155241271 0.541485851
0.3416798821 0.9019783494 0.5625107328
0.5120081845 0.8593637086 0.5553224582
0.6838454077 0.8030353092 0.5280286588
0.8033307838 0.7593662319 0.5105630509
0.1022652016 0.554687958 0.9111087124
0.1268617615 0.5471987955 0.896952143
0.6638502322 0.3563679707 0.7770088892
0.7957568987 0.3307094294 0.7609971126
0.8800484778 0.3637281694 0.7713705515
0.1052663313 0.6525766491 0.8984809273
0.1431497309 0.6250663749 0.8712597716
0.6281768049 0.4631630197 0.771184701
0.7789568044 0.3966580419 0.7472826717
0.8694440315 0.3890117543 0.7522569937
0.1239227402 0.7647632315 0.8505059929
0.1866656416 0.737530099 0.8177338639
0.5607487306 0.6365131141 0.7502128077
0.7459881217 0.5638535845 0.7188230302
0.846978443 0.5110802413 0.715236157
0.1789110806 0.8446711184 0.786419796
0.2580526837 0.8234732636 0.7740505559
0.5094278862 0.7562050065 0.7255546767
0.7071358644 0.6959634541 0.6956780176
0.8178198806 0.6539185996 0.6839062327
0.2564267818 0.898220604 0.7311013134
0.3207419105 0.8844417515 0.7301271726
0.48867743 0.8460625961 0.7062253383
0.6653140803 0.7907482578 0.6801731471
0.7895819375 0.7488666211 0.6567089733
0.1057771338 0.6313992472 0.9547263605
0.1093042894 0.6240755502 0.9484303459
0.5546611904 0.4736456176 0.8710996421
0.7676890209 0.4052927022 0.8235072137
0.8574309075 0.3984857753 0.8130274711
0.1094617904 0.6843450648 0.9501389659
0.1178622206 0.6791020716 0.9379536
0.5174099175 0.5475388972 0.8700960198
0.7535934872 0.4643319011 0.8174336215
0.8476853604 0.4292201793 0.8031103951
0.1256929835 0.7688762181 0.92409758
0.1481614009 0.7566182724 0.9106855552
0.478008689 0.67297645 0.8515742217
0.7170410911 0.591181073 0.8003722072
0.8229212782 0.5379586411 0.7833438355
0.1677987196 0.8412845244 0.8868130267
0.2147913055 0.8269783518 0.8755101293
0.4552085855 0.7678943674 0.8249601737
0.6758635526 0.7047269583 0.7839630462
0.7988271281 0.6637069156 0.7635896697
0.2399166394 0.890293124 0.8437336358
0.2901892874 0.8797201224 0.8376579397
0.4499188818 0.8467391523 0.8015058862
0.6374827869 0.7913698665 0.766764786
0.7704807081 0.7488369622 0.7447164542
