app/src/main/assets/spektrafilm/profiles/kodak_vision3_250d_film.cube
# ============================================================================
# spektrafilm LUT
# Bundle:  spektrafilm_v033_vision3250d_8printpack_2lut_prophoto_prophoto  (2lut, 17^3)
# Film:    kodak_vision3_250d
# Print:   fujifilm_crystal_archive_typeii, kodak_2383, kodak_2393, kodak_ektacolor_edge, kodak_endura_premier, kodak_portra_endura, kodak_supra_endura, kodak_ultra_endura
# Input:   ProPhoto RGB  (cctf on)
# Output:  ProPhoto RGB  (cctf on)
# Created: 2026-06-02T06:13:11Z
# spektrafilm: 0.3.3
# Project: https://github.com/andreavolpato/spektrafilm
#
# Copyright (c) 2026 Andrea Volpato. Generated by spektrafilm. Licensed under CC BY-SA 4.0.
#
# License: spektrafilm LUT by Andrea Volpato, licensed under CC BY-SA 4.0.
#          Full text and attribution requirements in SPEKTRAFILM_LICENSE.txt
#          (shipped in this bundle); also at
#          https://github.com/andreavolpato/spektrafilm/blob/main/SPEKTRAFILM_LICENSE.txt.
#
# Citation: If you use this LUT in your work, please cite the spektrafilm
#           project: https://github.com/andreavolpato/spektrafilm, see
#           CITATION.cff for details.
#
# Notes: Generated by the spektrafilm LUT bundle builder. Apply with trilinear
#        or tetrahedral interpolation in your host (DaVinci Resolve, Nuke,
#        OCIO-aware DCC). The input and output color spaces are declared in
#        bundle.json; do NOT apply this LUT to a signal in a different color
#        space.
#
# Role:    film  (domain=input_rgb → range=cmy_film)
# File: lut_v033_vision3250d_film.cube  (see sibling bundle.json for full metadata)
# ============================================================================
TITLE "v033_vision3250d_film"
DOMAIN_MIN 0 0 0
DOMAIN_MAX 1 1 1
LUT_3D_SIZE 17
0.11313497 0.1090928926 0.09984025559
0.4016472085 0.10965966 0.1119607324
0.5629752765 0.1123734263 0.1519505471
0.652433533 0.1170614259 0.2036712104
0.7155987755 0.1232523698 0.2576299017
0.7614297645 0.1290348128 0.3043053233
0.7995153835 0.1366825503 0.3463131324
0.8297026781 0.1436926469 0.3795954095
0.8530779224 0.1510103762 0.4112271527
0.8752840271 0.1589627726 0.4353506108
0.8926488039 0.1671369138 0.4554571176
0.9061903026 0.1747292225 0.4748556711
0.9203397956 0.1821899272 0.4932160002
0.9311841758 0.191425148 0.509594798
0.9402688565 0.201009263 0.5229265994
0.9495528145 0.2098317506 0.5358562274
0.9577683208 0.2186161432 0.5498463328
0.1148182 0.3330996388 0.09984025559
0.2660490831 0.2845877648 0.10289381
0.5078078111 0.2103015202 0.1127864452
0.620124492 0.1799561099 0.1296422053
0.6963338914 0.1714628876 0.1540668538
0.7497701488 0.1687024707 0.1878258484
0.7916026955 0.1694784325 0.2299098617
0.8245983539 0.1720292017 0.276942194
0.8494439269 0.1753323993 0.3229596522
0.871982285 0.1794690588 0.3602514311
0.8912016 0.1850283629 0.3941916164
0.904933405 0.191864945 0.4242821118
0.9193773596 0.1997928674 0.4477720479
0.9305442059 0.2079129891 0.4698671434
0.9397724435 0.2151867826 0.4895803047
0.9491185085 0.2222474341 0.5067802071
0.9574227049 0.2301848529 0.5222787784
0.1244209688 0.5243299656 0.1013916201
0.1701393678 0.5201869421 0.1044045391
0.4233183818 0.4404975103 0.1129671472
0.5634409713 0.3817122552 0.1256407877
0.6512184288 0.3368743847 0.1413484836
0.7159693129 0.3046385077 0.1616206623
0.7640819638 0.2828341166 0.1834021728
0.8041785075 0.2678557843 0.20773672
0.8353954442 0.2582889034 0.2350198704
0.8592075767 0.2531323744 0.2671337806
0.8822390219 0.2505424771 0.2976913738
0.8979994597 0.250028079 0.3334085559
0.9127087551 0.2514114842 0.3647186139
0.9262962852 0.2542558096 0.39528838
0.9360395651 0.2576384511 0.4238151263
0.9457040623 0.2613755259 0.4464583996
0.9549075896 0.2666941861 0.4679733655
0.1428257064 0.6249112063 0.1040477238
0.166218745 0.6292950194 0.1069286391
0.3347348315 0.5758299811 0.1151774846
0.5108426334 0.521977913 0.1264614154
0.6102098999 0.4801069112 0.1401897398
0.6812238884 0.4475935246 0.1567576011
0.734295458 0.4191517015 0.1741638778
0.7777971336 0.3939634268 0.1944066806
0.8143052034 0.3761985342 0.2147521139
0.8427213478 0.3599992413 0.2369921854
0.866379792 0.3481073218 0.2620976984
0.8880582502 0.3395454648 0.2841819043
0.9028036449 0.3339778625 0.3107201559
0.9184497307 0.3305232991 0.3373567178
0.9304572893 0.3284495381 0.3615659282
0.9402514825 0.3271503242 0.385119156
0.9501988787 0.326820485 0.4104208695
0.1655528602 0.7054558977 0.1080897078
0.1820041037 0.7092488019 0.1108727425
0.2804194527 0.6769162975 0.1184149301
0.4491220935 0.6176758744 0.1288841043
0.5669895262 0.5743306104 0.1409231837
0.6455577105 0.5438481702 0.1568466203
0.7074546335 0.5180197795 0.1725142855
0.7534903922 0.4927931075 0.1901265357
0.7928210826 0.4728687575 0.2080086545
0.8253398328 0.4556083921 0.2273879568
0.8505393816 0.4407867892 0.2488492416
0.8737570797 0.4281418218 0.2694997946
0.8928704761 0.4170212446 0.288928921
0.9077574562 0.4083422248 0.31207592
0.9227553228 0.4016531039 0.3341818666
0.9337046174 0.3967182644 0.3539631425
0.943712105 0.3925649978 0.3730633898
0.1911598307 0.7594714303 0.1129596808
0.2056860643 0.7625901788 0.1151478354
0.2667066595 0.7481764529 0.1224740639
0.4014873781 0.7045376575 0.1323642207
0.5234765563 0.6556308312 0.1434906797
0.6126804273 0.6183076654 0.1576684311
0.679172549 0.5918930374 0.1731996994
0.7294637178 0.5661394476 0.1892603792
0.7711882206 0.5474829713 0.2055049302
0.8072386958 0.5303615564 0.2230927176
0.8359258846 0.5142809002 0.2418099935
0.8585285932 0.49893413 0.2616082636
0.8814022923 0.4859548409 0.2793425324
0.8976655295 0.4758592441 0.2987867669
0.9126995457 0.4675394415 0.3198498983
0.9265708725 0.4602930516 0.3385673505
0.9365459395 0.4537255506 0.355610318
0.2176133038 0.8033673921 0.1180929419
0.2270850937 0.8048627753 0.1202407754
0.2705710621 0.7976166158 0.1268420824
0.3678091263 0.7657382495 0.1358783581
0.4824107951 0.7264446359 0.1471421106
0.5758091374 0.6865110248 0.159949959
0.6482764449 0.6564071859 0.1735165516
0.7053423233 0.6285916251 0.1901595252
0.7504277955 0.6096577619 0.2056994337
0.788638076 0.5913796785 0.2220830533
0.8203886182 0.5732045884 0.2393341772
0.8456163323 0.5594427696 0.2578775585
0.8677212206 0.5467262489 0.2748611797
0.8885681695 0.5354977285 0.2920987778
0.9028166288 0.5254984451 0.3117642882
0.9181321293 0.5165772235 0.3303783902
0.9299769804 0.5080562538 0.3465518902
0.2429297902 0.8363219774 0.124064131
0.2529974454 0.837364567 0.1261892408
0.2822195675 0.8333764649 0.131405886
0.3538658867 0.814206182 0.1400015049
0.4509524642 0.7800405881 0.1511507258
0.5417503961 0.7450858781 0.1634264293
0.618790512 0.7165501321 0.1760976507
0.6812907502 0.6883470705 0.1910520347
0.7285279976 0.6652209054 0.2064612213
0.7693764015 0.6451285542 0.2221384899
0.8042529096 0.6258233463 0.2381511577
0.8321998715 0.6122071929 0.2553263154
0.8545938016 0.5990509172 0.2717329471
0.8769478733 0.5848765639 0.2875577869
0.8942765246 0.5729646645 0.3055131571
0.9085818806 0.5638660569 0.3238841001
0.9228229991 0.5557489194 0.3399564041
0.2680018206 0.8613571939 0.1297492064
0.2747741382 0.8619915728 0.1316341389
0.299117143 0.8598537382 0.1362175106
0.3509647952 0.8479322683 0.1444711156
0.4296060383 0.8240331131 0.1550282853
0.5154896911 0.7932545113 0.1664614489
0.5885228052 0.7623598632 0.1790024885
0.6535162658 0.7375615381 0.1922513783
0.7072513658 0.7165361838 0.2063194311
0.7495567993 0.6956354689 0.2224076803
0.7866189802 0.676380075 0.2383932246
0.8179321899 0.6607809805 0.25507973
0.8431694432 0.6460887827 0.2710296379
0.8644775521 0.6314515522 0.2859577164
0.8854641599 0.6198468675 0.3028777486
0.9000882145 0.6107655227 0.3203936424
0.9147123994 0.6019420272 0.3361607912
0.2901382045 0.8837529746 0.1353069931
0.296956351 0.8841440928 0.1371128319
0.3166051598 0.882986665 0.1413133864
0.3549761509 0.8751926382 0.1490940036
0.4171380275 0.8560640355 0.1593737304
0.4914169312 0.8333371385 0.1703239334
0.563260702 0.8066437953 0.1825742377
0.6267299662 0.7802516819 0.195341929
0.6847868951 0.7574389623 0.2081045337
0.7303701244 0.7389208284 0.222572561
0.7686204628 0.7225796575 0.2386799794
0.8024976165 0.7061029533 0.2552723837
0.8306431036 0.6899394219 0.2706472653
0.852739014 0.6755154382 0.2844642118
0.8742614387 0.663851689 0.300136716
0.8921049504 0.6526069191 0.3168181471
0.9058479746 0.6409708334 0.3322536305
0.3127517426 0.8992388603 0.1410202323
0.318046805 0.8994259934 0.1428471701
0.3332967129 0.8990901672 0.146577714
0.3621565383 0.8949749048 0.1539393799
0.4115904786 0.883505843 0.1632002451
0.4724506748 0.8640768863 0.1739102815
0.5401172316 0.8410854655 0.1860076908
0.6045075949 0.8184602774 0.198304918
0.6616874696 0.7969463211 0.2107614644
0.7104301102 0.7756652067 0.2233842664
0.7511002994 0.7579227638 0.2381587969
0.7860393302 0.7433265185 0.2554587165
0.8167618985 0.73010544 0.2707783138
0.8417858685 0.7175044495 0.2844409681
0.8625788531 0.7045943474 0.2994419229
0.883452532 0.6920048067 0.3154483929
0.8981798738 0.6806315575 0.3303705587
0.3325651954 0.9120642378 0.1472668827
0.3371815928 0.9122724743 0.1491430103
0.3498341856 0.9123662177 0.152623887
0.3715687839 0.9093027841 0.1596185983
0.4119660066 0.9019654287 0.1678959252
0.4621523074 0.8899858389 0.1786977238
0.5237753349 0.8703038472 0.1899526817
0.5827803508 0.8495493691 0.2017206474
0.6377702791 0.8302228096 0.2139387283
0.6896971996 0.8109141816 0.2261296506
0.7327013621 0.7931376396 0.2390371625
0.7701407274 0.7771660033 0.2551520462
0.8023208579 0.7624863738 0.2706780836
0.8295675489 0.7497726415 0.2842845947
0.8514477536 0.7382443618 0.2988251229
0.8726229551 0.7278429004 0.3142961819
0.8907609838 0.7178843534 0.328612542
0.3511054215 0.9241518146 0.1539993081
0.3548520009 0.9243221963 0.1557918291
0.3643608598 0.924371126 0.1589946622
0.3826572615 0.9221618555 0.1649338552
0.4155596344 0.916736689 0.1725406959
0.4567398345 0.9074651951 0.1829937447
0.5116772486 0.894168688 0.1937060837
0.5656846654 0.8781453214 0.2054324708
0.6198153055 0.858417212 0.2172995334
0.6709202383 0.8410966821 0.2298394731
0.7146494601 0.8243163776 0.2424012817
0.75395984 0.8092528575 0.2563561358
0.7878984568 0.795527216 0.2709627479
0.8168719722 0.7819572162 0.2847653603
0.8409662093 0.7689844323 0.299384295
0.861290787 0.7575177591 0.3144492902
0.8822001079 0.7474412538 0.3283134878
0.3666712756 0.9348031812 0.1604815007
0.3696803329 0.9349094841 0.1620363801
0.3781525236 0.9349130232 0.1649550805
0.3950252787 0.9334302934 0.17017299
0.4211127246 0.9296185452 0.1773077549
0.4551660869 0.9222320831 0.1879557853
0.5023449473 0.9109478191 0.1981884732
0.5509755095 0.8991183088 0.2095545659
0.6032485297 0.8847662946 0.221196413
0.6516886712 0.8675808642 0.233430941
0.696891669 0.8506503263 0.2458292838
0.7365438835 0.8368283392 0.2595134533
0.772991936 0.823900738 0.2720042872
0.8042070786 0.811273157 0.2849631301
0.8299525675 0.7995016483 0.30002916
0.8510563752 0.787815021 0.3150719067
0.871752993 0.7766393299 0.3287009327
0.3814883074 0.9438406856 0.1664073198
0.3844097899 0.9439123151 0.1677921717
0.3927620665 0.9439090712 0.1708282549
0.4072512257 0.9430227007 0.1755448382
0.4278538901 0.9401711427 0.1831145781
0.4560194926 0.9348881307 0.1925925208
0.4956730308 0.9257266601 0.2020699787
0.539469732 0.9154396423 0.2132522161
0.587597243 0.9032476209 0.2248381571
0.6339194711 0.8905499621 0.2368623471
0.6805344455 0.8758668018 0.2494792564
0.7206908337 0.860953752 0.2626521762
0.7572890281 0.8481552574 0.2745284203
0.7905019129 0.8364692046 0.2857416542
0.8185531176 0.8254695145 0.3001992737
0.8413882978 0.8145936833 0.3154607746
0.861023036 0.8044082756 0.3291745658
0.3969081857 0.9511834953 0.1723792619
0.3996237749 0.9512411305 0.1737699875
0.4068625631 0.9512586819 0.1770096324
0.4184690817 0.950853138 0.1811430424
0.4352944971 0.9489331765 0.1888429888
0.4586379955 0.9453973498 0.1971008785
0.4923955732 0.9384118432 0.2060570349
0.5318804845 0.9297787903 0.2175992571
0.5756169242 0.918718968 0.2285168456
0.6205040462 0.9070244942 0.2401250421
0.6653203147 0.8959962305 0.2531062621
0.7054974927 0.8839108333 0.2656584124
0.7418137901 0.8709621826 0.2768405049
0.775491053 0.8585739643 0.2882727328
0.8065134612 0.8476206342 0.3006047313
0.8313699054 0.8377745489 0.3153567579
0.8514751234 0.8282713539 0.3292707308
0.4112401463 0.9574218094 0.1788316368
0.4134441679 0.9574811448 0.1802591598
0.4193672843 0.957550433 0.1834721488
0.4288100247 0.9574401061 0.1871940754
0.4431975666 0.956166441 0.1944505191
0.462436318 0.953636892 0.2013886392
0.4920388891 0.9484577735 0.2108764871
0.5270635889 0.9420204384 0.221785293
0.5660114533 0.9327653929 0.2322421445
0.6085864178 0.9221287576 0.2442443098
0.6500794199 0.9116766273 0.2572320382
0.6908727748 0.9010413739 0.2685213454
0.72746031 0.8909979149 0.27952182
0.7615583882 0.8803818066 0.2909010186
0.7926488806 0.8687575975 0.3030541696
0.8204836264 0.8581269049 0.3156053279
0.842610949 0.8487933185 0.3289822347
0.11313497 0.1181662401 0.312397248
0.3388146314 0.1134822697 0.301814628
0.5287080233 0.1161487369 0.3920012166
0.6247258783 0.1202966046 0.4384635082
0.6943645716 0.1255992689 0.4602862292
0.7446905142 0.1309017636 0.4744452847
0.7857472777 0.1372865784 0.4857264497
0.8201023237 0.144050881 0.4942423182
0.846338062 0.1510278635 0.5041801133
0.8688471386 0.1582546079 0.5139152186
0.88952097 0.1662970971 0.5213574039
0.9035134827 0.1732358345 0.5297220123
0.9179785009 0.1800551492 0.5394605725
0.9294880942 0.1896002261 0.550112047
0.9387359292 0.1996128045 0.5603445549
0.9482696253 0.2083254399 0.5686470458
0.9567858361 0.2165359853 0.5774941612
0.1150942947 0.3060212284 0.2736310596
0.2609332188 0.2674643956 0.2508925834
0.496993446 0.1907359394 0.2513288468
0.6131280291 0.1598595194 0.2840692563
0.6891921809 0.1513103708 0.3241779844
0.7429484434 0.1509533336 0.3577638971
0.7857454131 0.1535889349 0.3844665435
0.8208160316 0.1592712042 0.4129924642
0.8465875195 0.1657399234 0.4338320558
0.8690218799 0.1722167234 0.4514209443
0.8891125065 0.1784411863 0.4692637164
0.9035859721 0.1840719895 0.4840500111
0.9183571817 0.1924619435 0.5002776438
0.9294539606 0.20282299 0.5156095735
0.9383167231 0.2114281178 0.5287280237
0.947853997 0.2192582764 0.5421404069
0.9565944466 0.2274230541 0.555570012
0.1266410955 0.5126153904 0.1934156757
0.1857785387 0.4939077594 0.2091665063
0.4306933826 0.420525315 0.1911697979
0.564233648 0.3630281415 0.1897519151
0.6504939571 0.3170529603 0.2001533298
0.7153142727 0.2849837248 0.2167787491
0.7632079525 0.2612557552 0.2387241072
0.8033570822 0.2496657875 0.2674555087
0.8345974498 0.2433204262 0.2969507003
0.857983567 0.2395558942 0.3308062721
0.8812005239 0.238452605 0.3603638031
0.8972634886 0.2393198124 0.390124477
0.9116935896 0.2415021793 0.419128236
0.9254753972 0.2449757202 0.4419372069
0.9356670659 0.2492268484 0.46287987
0.9454497907 0.2540072852 0.4818948728
0.9545512452 0.2594716927 0.5000141023
0.1453984498 0.6197705418 0.1524811884
0.1761654818 0.6139202005 0.1699996372
0.3484139464 0.559409856 0.1756243607
0.5157071493 0.5079698038 0.176609484
0.6119074769 0.4696589799 0.1851898144
0.6816685525 0.4371998548 0.1974176765
0.7338586529 0.4061843987 0.2116932962
0.7774786144 0.3833453 0.229412891
0.8142780322 0.3642346513 0.2509550246
0.8426278828 0.3481915048 0.2726247506
0.8660157532 0.337478596 0.2935991152
0.8879452883 0.3303749499 0.3191718796
0.902732704 0.324663552 0.3441947672
0.9181844057 0.3211693755 0.3684669865
0.930176967 0.319432735 0.3929409626
0.9398282963 0.3184730753 0.4179461312
0.9498913206 0.319058152 0.43823074
0.1675054257 0.7004533749 0.1390979399
0.1878350499 0.6971251403 0.1505154833
0.2942456052 0.6610188868 0.1643535479
0.4550633581 0.6069062854 0.1706751602
0.5703778459 0.5653481575 0.179475575
0.6476039737 0.536288461 0.1916090681
0.7074907486 0.510267067 0.2044649929
0.753558917 0.4858005546 0.2193485408
0.7929242491 0.4664322945 0.2367655596
0.8253080968 0.4488367306 0.2562482343
0.850369531 0.4340394175 0.2744782553
0.8736719897 0.4211860413 0.2928371574
0.8929828706 0.4103574595 0.3150656653
0.9078375637 0.4015964257 0.3355389775
0.9227899066 0.3958755404 0.3545758033
0.9336784442 0.3910678506 0.3735999238
0.9436305757 0.3872136664 0.3931767494
0.1925384846 0.7550138343 0.1372132537
0.2088960239 0.7549348781 0.1442478474
0.2747139693 0.7366740585 0.1579469889
0.409041497 0.6905419905 0.1676517108
0.526329859 0.6451002199 0.1771331292
0.6147750046 0.6121018249 0.1889377248
0.6804821395 0.5843738345 0.2019581726
0.7300216219 0.5616437019 0.2153814252
0.7715607277 0.5430512707 0.2307297878
0.8073390128 0.5258495892 0.2480662081
0.8357737112 0.5091772009 0.2653928839
0.8584698682 0.4940243766 0.2813991577
0.8815286227 0.481715092 0.2997980285
0.8977434737 0.4718679006 0.319862119
0.9127586776 0.4634175254 0.3378938897
0.9266114825 0.4561958275 0.3546680419
0.9365640122 0.449656661 0.3707731424
0.2180441334 0.7989746606 0.1383594158
0.2286404967 0.7988183125 0.1431527691
0.2752240448 0.7880745348 0.1548596826
0.3738785339 0.755393663 0.1660612415
0.4871418413 0.7179908193 0.1768269887
0.5778794184 0.6787143322 0.1879192748
0.6496932506 0.6498702371 0.1999294178
0.7065661307 0.623380659 0.2139802367
0.75122203 0.6062678755 0.2285850431
0.7889027666 0.5870360719 0.2447246837
0.8203698938 0.5696690209 0.261290513
0.8456768871 0.5563088857 0.2766414622
0.8678979442 0.5437272436 0.2925741228
0.888659288 0.5324627738 0.3109826974
0.9028656932 0.5223530338 0.3285985432
0.9181890141 0.5133615472 0.3446940576
0.9299882227 0.5047741438 0.3598629176
0.2430075768 0.8327705428 0.141346812
0.2538105062 0.8328918111 0.1453316427
0.2851924551 0.8264671319 0.1548246282
0.3582634133 0.805947943 0.1655890026
0.4548074502 0.7719888173 0.1771087866
0.5442654136 0.7388866237 0.1888990947
0.6200847448 0.7103974202 0.2002333317
0.6824465481 0.6833253585 0.2133318188
0.7296260736 0.6615411415 0.2277800493
0.769996429 0.6410898114 0.2429769688
0.8043921829 0.6226690912 0.2585604106
0.8324217252 0.60990089 0.2732517723
0.854801607 0.5962992198 0.2878409689
0.8770969186 0.5819141519 0.3045885245
0.8943417544 0.5706057418 0.3217678754
0.9086592107 0.5617114396 0.337478652
0.9228574118 0.5534367835 0.3521094431
0.267796344 0.8581062073 0.1451396259
0.2748929574 0.858005234 0.1484472724
0.3005129243 0.8544587307 0.1562192035
0.3540561138 0.8417780266 0.1665972473
0.4333328103 0.8178046872 0.1778429943
0.5175481224 0.7866917227 0.1894387798
0.5901744938 0.7572364093 0.2009962711
0.6549848155 0.7337812922 0.2128559364
0.7082317979 0.7128116334 0.2262167316
0.7503056867 0.6916966766 0.2417405432
0.7871530383 0.6732722539 0.2575872247
0.8183680017 0.6584332698 0.2720438168
0.8434188269 0.6435895519 0.2860000503
0.8646511172 0.6291417285 0.301727989
0.8855689573 0.6180911342 0.3183067887
0.900166626 0.6090075675 0.3335173673
0.9147668002 0.5996829556 0.3476066196
0.2895907139 0.8809281669 0.1495782419
0.2965924795 0.8807872952 0.1526184885
0.3169906642 0.8786941356 0.1587931097
0.3567904732 0.8698052119 0.1680391849
0.4201626323 0.8511442302 0.1793340558
0.4938495869 0.8276490129 0.1911385501
0.5650320891 0.8019166611 0.2026675321
0.6279351023 0.7760931442 0.2144286526
0.6856647638 0.7540818122 0.2267078452
0.7309613421 0.7359041438 0.2407676399
0.7692884324 0.7199178582 0.256926169
0.803183641 0.7037461945 0.2713746017
0.8311117949 0.6877262988 0.2846141846
0.8529419652 0.6735578059 0.2991167548
0.8744205651 0.662109858 0.3148261239
0.8921921356 0.6508064559 0.3296060995
0.9059254715 0.6389188111 0.3432805174
0.3119855704 0.8971115535 0.1543744493
0.317448347 0.8970099027 0.157057169
0.3334234653 0.89614571 0.1624441397
0.3635070981 0.8915514028 0.1709450554
0.4138370191 0.879171277 0.1814289604
0.4745626517 0.8591748644 0.1929580643
0.5420320865 0.8373787402 0.2042609542
0.606042168 0.8149678182 0.2160898419
0.6627575669 0.7936604942 0.2282975273
0.7110568252 0.7724133601 0.2403903801
0.7517145323 0.7554695587 0.2555379711
0.7867980233 0.7414253047 0.2707909893
0.8173256045 0.7283814187 0.2839559766
0.8421281577 0.71577796 0.2982112266
0.8628159589 0.7028411616 0.3134365367
0.8835711829 0.6902275764 0.3277563796
0.8982651382 0.6790140649 0.3409697614
0.3319114375 0.9101916181 0.1597133569
0.3366868122 0.9102994465 0.1620134352
0.3499449707 0.9100244676 0.166801114
0.3723126334 0.9066898257 0.1744754406
0.4133090528 0.8989417572 0.1846084287
0.4637723606 0.8866088099 0.1958125109
0.5254344835 0.8667818969 0.2066765874
0.584309369 0.8466608889 0.2183419406
0.6388697417 0.8273860665 0.2303537458
0.6903113045 0.8080612638 0.2423659879
0.733363848 0.7907444453 0.2555162391
0.7707907373 0.7751414258 0.2699160687
0.8029087454 0.7606484565 0.2831707484
0.8300161502 0.7481945496 0.2973730653
0.8517624356 0.7368221807 0.3121746911
0.8728594792 0.7265350539 0.3261551729
0.8908656487 0.7165823854 0.338834025
0.3507102374 0.9226997945 0.1652310678
0.3545301446 0.9227605648 0.1671802999
0.3643393483 0.9223682941 0.1716340484
0.3828519568 0.9197980814 0.178427972
0.4163161053 0.9140763559 0.1876703283
0.4581052228 0.904963046 0.198470093
0.5134474041 0.891748908 0.2089959463
0.5671305325 0.8752319225 0.2209793246
0.6207497557 0.85563373 0.2328578739
0.6716418788 0.8386360822 0.2454019429
0.7153536021 0.8223481613 0.2580525092
0.7546811166 0.8075037178 0.2702750169
0.7884030096 0.7937417596 0.2829386517
0.8173353862 0.7802668487 0.2973516266
0.8413342186 0.7674868222 0.3121958565
0.8616244369 0.7562175518 0.3258262429
0.8824362644 0.7463111948 0.3381145
0.3662422088 0.9334733077 0.17065632
0.3692526818 0.9334277247 0.1724750233
0.3777914829 0.9330186189 0.1766569786
0.3948737171 0.9314177746 0.1827021044
0.421743622 0.9272410729 0.1915762171
0.4562751862 0.9200324646 0.2020098823
0.5039396181 0.9088970144 0.2123809044
0.5523809761 0.8971808835 0.2241941457
0.6042896726 0.8823499978 0.235778668
0.6526390852 0.8652068263 0.2483803013
0.697715205 0.8489508604 0.2606997318
0.7372377523 0.835307136 0.272377462
0.7735135952 0.8223384756 0.2833943594
0.8046236255 0.8097986484 0.2970919548
0.8303317123 0.7981017911 0.3123526269
0.8513688144 0.786488317 0.3260130283
0.8720879162 0.7754132203 0.3381528708
0.3808332036 0.9425271447 0.1761742289
0.3837839032 0.9425012089 0.1779765157
0.3922033664 0.9423022164 0.1818925065
0.4070958381 0.9413989122 0.1873458566
0.4283055026 0.9384268546 0.1958537014
0.4568323328 0.9330336817 0.2054681595
0.4970669205 0.9239088818 0.2152907044
0.5406424499 0.9135895555 0.2268062877
0.5885905074 0.9014481922 0.238551699
0.6348709288 0.8888903355 0.2511665565
0.6813339769 0.8740785424 0.2633760239
0.721355581 0.8594023442 0.2746209801
0.7578260014 0.8467853363 0.2855900034
0.7909685998 0.8351755036 0.2973297469
0.8188811054 0.8242011924 0.3121336973
0.8416930102 0.8133919296 0.3260188845
0.8613905273 0.8033435461 0.3383152298
0.3962340012 0.9501076009 0.1819884967
0.3990324834 0.9501229016 0.1837290357
0.4063918394 0.9500875478 0.1874441272
0.4183255777 0.9495933386 0.1923275912
0.4356417543 0.9476504723 0.2002079695
0.4592112373 0.9440129783 0.2087527572
0.493588498 0.9368151977 0.2185937459
0.5328668846 0.9280948329 0.2304354694
0.5765060852 0.9170373348 0.2417335141
0.6213486828 0.9056346446 0.2538600819
0.6661674339 0.894692072 0.2659898129
0.7061977341 0.8825298845 0.2768557456
0.7423137164 0.8695278959 0.2876737583
0.7759287927 0.8572717161 0.2995913177
0.8068891797 0.8464883933 0.3120090509
0.8316416994 0.8367051687 0.3256256746
0.8517720622 0.8273085754 0.3381538425
0.4107683298 0.9566032836 0.1880724336
0.4130339121 0.9566424785 0.1896641361
0.4190402889 0.9566675692 0.1930876867
0.4287735289 0.9564162856 0.1976656371
0.4433787799 0.9551823687 0.2047855505
0.4629340744 0.952510388 0.2126166318
0.4929601543 0.9472221194 0.2227140249
0.5277954946 0.9405970773 0.2337734415
0.5668825318 0.9312780442 0.2447356895
0.6095573947 0.9208281708 0.25718674
0.6510378017 0.9105466341 0.2689952036
0.6915828081 0.8999932981 0.278977311
0.7280138557 0.8899299769 0.290070214
0.7619966678 0.879257469 0.3020554205
