app/src/main/assets/spektrafilm/profiles/kodak_vision3_200t_film.cube
# ============================================================================
# spektrafilm LUT
# Bundle:  spektrafilm_v033_vision3200t_8printpack_2lut_prophoto_prophoto  (2lut, 17^3)
# Film:    kodak_vision3_200t
# Print:   fujifilm_crystal_archive_typeii, kodak_2383, kodak_2393, kodak_ektacolor_edge, kodak_endura_premier, kodak_portra_endura, kodak_supra_endura, kodak_ultra_endura
# Input:   ProPhoto RGB  (cctf on)
# Output:  ProPhoto RGB  (cctf on)
# Created: 2026-06-02T06:13:10Z
# spektrafilm: 0.3.3
# Project: https://github.com/andreavolpato/spektrafilm
#
# Copyright (c) 2026 Andrea Volpato. Generated by spektrafilm. Licensed under CC BY-SA 4.0.
#
# License: spektrafilm LUT by Andrea Volpato, licensed under CC BY-SA 4.0.
#          Full text and attribution requirements in SPEKTRAFILM_LICENSE.txt
#          (shipped in this bundle); also at
#          https://github.com/andreavolpato/spektrafilm/blob/main/SPEKTRAFILM_LICENSE.txt.
#
# Citation: If you use this LUT in your work, please cite the spektrafilm
#           project: https://github.com/andreavolpato/spektrafilm, see
#           CITATION.cff for details.
#
# Notes: Generated by the spektrafilm LUT bundle builder. Apply with trilinear
#        or tetrahedral interpolation in your host (DaVinci Resolve, Nuke,
#        OCIO-aware DCC). The input and output color spaces are declared in
#        bundle.json; do NOT apply this LUT to a signal in a different color
#        space.
#
# Role:    film  (domain=input_rgb → range=cmy_film)
# File: lut_v033_vision3200t_film.cube  (see sibling bundle.json for full metadata)
# ============================================================================
TITLE "v033_vision3200t_film"
DOMAIN_MIN 0 0 0
DOMAIN_MAX 1 1 1
LUT_3D_SIZE 5
0.1161305307 0.1121201928 0.09941346058
0.639579106 0.1184372714 0.3494974838
0.7925598031 0.1385695741 0.4937212748
0.8767137743 0.1654420861 0.5671961224
0.9286244466 0.195939456 0.6259589696
0.1464050865 0.7442572202 0.1072855759
0.6084912441 0.5682897441 0.145089927
0.8087239296 0.4518335913 0.2458408017
0.9067036766 0.3826953028 0.3602439129
0.9578845439 0.3454068861 0.4379822439
0.2371522423 0.8848507457 0.1341911679
0.525519566 0.8090577907 0.1573638157
0.7566211157 0.7080836562 0.2347104568
0.8731388425 0.6289066325 0.3271980521
0.941382861 0.5725827469 0.3974161411
0.3259679802 0.9318850649 0.1680825212
0.4919367689 0.9043897996 0.1868061331
0.7098701131 0.8436310319 0.2385279914
0.8417119433 0.7866678346 0.3223244588
0.9175071217 0.738122993 0.3835732663
0.3917546276 0.9568162118 0.20557745
0.4936334438 0.9453713787 0.2216068733
0.6653984404 0.9140548396 0.2640064842
0.8124477717 0.8767752164 0.3255101829
0.8971440493 0.8403089078 0.3832163533
0.1161305307 0.163697456 0.6952519431
0.6187844671 0.1281032467 0.7466371661
0.7793144645 0.1409650056 0.8053607702
0.8691471549 0.166774789 0.7929040216
0.9271570483 0.1937067128 0.7764871913
0.1405913533 0.6568419616 0.5828825447
0.5714992702 0.5365108523 0.5217302479
0.7914812096 0.4239954902 0.5124001323
0.8993964091 0.3488455435 0.5220006151
0.9523968399 0.3304331532 0.5462245143
0.2418747129 0.8415404627 0.4306144787
0.5155427905 0.7755603782 0.4217320552
0.7463214412 0.6962172468 0.4170305821
0.8664090408 0.6280677025 0.4300531594
0.9381443178 0.5762077896 0.4520337238
0.3163721065 0.9209525441 0.314817673
0.4841294478 0.8972650247 0.3255129032
0.7006839992 0.841545976 0.3452985476
0.8358202302 0.7907677831 0.3817126256
0.9126226031 0.7460442928 0.4167386991
0.3805722933 0.9561693518 0.2642641925
0.4828840839 0.9458417042 0.2749039103
0.6562478253 0.9167339742 0.306319713
0.8053179441 0.8826262063 0.3440113033
0.8927295716 0.8483131284 0.3904975217
0.1161305307 0.2994571947 0.859050947
0.527326515 0.2306973107 0.8245167178
0.7680829513 0.1671489661 0.8704056525
0.8629516982 0.1762140838 0.9017978883
0.9161594375 0.2028875815 0.9095933499
0.1177024509 0.6222984029 0.8261551903
0.4955979572 0.541224433 0.761769167
0.7491160445 0.4341977124 0.7662544392
0.8699238923 0.3481260263 0.8105840853
0.9329401171 0.3158595035 0.8381664831
0.2131900817 0.8023235819 0.7329348215
0.4852091923 0.7440913408 0.6906932377
0.7193320591 0.669540006 0.6571448661
0.8481305833 0.6047884208 0.6496405108
0.928232554 0.5450994229 0.6492849586
0.3338859903 0.8869468184 0.6321296321
0.4883270985 0.8586898534 0.6216641432
0.6908053511 0.8089730306 0.6003944621
0.8234063163 0.7643724421 0.5874562114
0.9039339956 0.7240476939 0.5814613161
0.398054383 0.9344409718 0.5537528331
0.4950723367 0.9220108716 0.5534013389
0.6590270541 0.895451256 0.5477208663
0.8018803132 0.8602978507 0.5393126307
0.8886467655 0.8311169824 0.5413428842
0.1161305307 0.4020126522 0.9229240483
0.2847673179 0.4233133112 0.9165499345
0.7316711264 0.2452983457 0.8906957586
0.8537393848 0.217014939 0.9207580227
0.9135031846 0.2288975 0.9394060284
0.1167756236 0.6171456504 0.9086575568
0.3325561721 0.5803947004 0.8868433032
0.7067281348 0.4700699153 0.8526826309
0.8477953826 0.387888449 0.8800443414
0.9197611217 0.343020098 0.9064641316
0.1520733445 0.7942728875 0.8747944792
0.3985467976 0.746345657 0.8352366333
0.6817540247 0.666275037 0.8014957723
0.8222618787 0.6022192203 0.8010902345
0.9075322283 0.5430280715 0.8164244058
0.2897641186 0.8689060877 0.8067778162
0.4565252512 0.8446016167 0.7889226585
0.6654228277 0.7944544563 0.7563030135
0.8044177985 0.7510664049 0.7412709462
0.8909957931 0.7096060045 0.7356169876
0.3935817316 0.9164656216 0.7447901993
0.4890895009 0.9045888016 0.7385562037
0.6495483915 0.8774352665 0.7211062506
0.789457592 0.8426856131 0.700255312
0.877318872 0.8151422716 0.6907556217
0.1165776374 0.4678574945 0.9548438406
0.122777853 0.5346607448 0.9571147973
0.6691372103 0.3699746831 0.9221035417
0.8331142696 0.28789932 0.9304453439
0.9078929758 0.2676373913 0.9486162007
0.1167159843 0.6191468636 0.94869964
0.1491963726 0.6391304175 0.9453514771
0.6522361107 0.5132807412 0.9099562629
0.8206296915 0.4334902271 0.9104636099
0.9062801948 0.3824909625 0.9284026256
0.1274044209 0.7917790625 0.9337667564
0.2599063765 0.7631659736 0.9143696221
0.6379102978 0.6757865424 0.8828550997
0.7967028862 0.6130244777 0.8757873326
0.8918320915 0.5545100359 0.8869598738
0.2245359966 0.8646568815 0.8976481087
0.3889043874 0.8433694691 0.8810989971
0.6281855197 0.793837695 0.8501786791
0.7825655488 0.7480306721 0.8353121136
0.8759838608 0.7063196612 0.8330551023
0.3579731833 0.9080373179 0.8536656821
0.4606443043 0.8977877642 0.8447120463
0.6245309397 0.8694778841 0.8261800831
0.7719158973 0.8353025384 0.8068951292
0.8642492732 0.8071791533 0.7972495688
