app/src/main/assets/spektrafilm/profiles/kodak_portra_800_film.cube
# ============================================================================
# spektrafilm LUT
# Bundle:  spektrafilm_v033_portra800_8printpack_2lut_prophoto_prophoto  (2lut, 17^3)
# Film:    kodak_portra_800
# Print:   fujifilm_crystal_archive_typeii, kodak_2383, kodak_2393, kodak_ektacolor_edge, kodak_endura_premier, kodak_portra_endura, kodak_supra_endura, kodak_ultra_endura
# Input:   ProPhoto RGB  (cctf on)
# Output:  ProPhoto RGB  (cctf on)
# Created: 2026-06-02T06:13:08Z
# spektrafilm: 0.3.3
# Project: https://github.com/andreavolpato/spektrafilm
#
# Copyright (c) 2026 Andrea Volpato. Generated by spektrafilm. Licensed under CC BY-SA 4.0.
#
# License: spektrafilm LUT by Andrea Volpato, licensed under CC BY-SA 4.0.
#          Full text and attribution requirements in SPEKTRAFILM_LICENSE.txt
#          (shipped in this bundle); also at
#          https://github.com/andreavolpato/spektrafilm/blob/main/SPEKTRAFILM_LICENSE.txt.
#
# Citation: If you use this LUT in your work, please cite the spektrafilm
#           project: https://github.com/andreavolpato/spektrafilm, see
#           CITATION.cff for details.
#
# Notes: Generated by the spektrafilm LUT bundle builder. Apply with trilinear
#        or tetrahedral interpolation in your host (DaVinci Resolve, Nuke,
#        OCIO-aware DCC). The input and output color spaces are declared in
#        bundle.json; do NOT apply this LUT to a signal in a different color
#        space.
#
# Role:    film  (domain=input_rgb → range=cmy_film)
# File: lut_v033_portra800_film.cube  (see sibling bundle.json for full metadata)
# ============================================================================
TITLE "v033_portra800_film"
DOMAIN_MIN 0 0 0
DOMAIN_MAX 1 1 1
LUT_3D_SIZE 17
0.09810654371 0.1045259747 0.09588647042
0.3800156883 0.1048520189 0.09678178928
0.5408880059 0.1053401456 0.1031589974
0.6442840672 0.1069523381 0.1184975469
0.7115778543 0.1099223101 0.1407390125
0.7617164533 0.1129779337 0.1658558938
0.8001058225 0.1173849065 0.1929435666
0.8299016258 0.1216811402 0.2215218538
0.8580843678 0.1262317366 0.2480794283
0.8763634278 0.1311209327 0.2739115443
0.8951151855 0.1367356961 0.2954319772
0.9091383093 0.142889919 0.3152446262
0.9220401258 0.1486249406 0.3331687231
0.9335370568 0.1542466972 0.3506485604
0.9414190181 0.1604359892 0.3653745286
0.9486110886 0.1682476446 0.3779552094
0.9570262326 0.1770905721 0.3901898082
0.09883662704 0.3058407152 0.0958882865
0.2201362582 0.2558864084 0.09642830924
0.4643472156 0.1716631985 0.09874008137
0.5825088279 0.1474843324 0.1050015816
0.6687751116 0.1396399074 0.1159983897
0.7286787646 0.1370520378 0.1319295467
0.7769439159 0.1376539893 0.1528969733
0.812824755 0.13961535 0.1758474482
0.843885807 0.1424139248 0.2025924244
0.8679382696 0.1458956713 0.2281687602
0.8876331607 0.1494824319 0.2541764136
0.9044299229 0.1536606194 0.2804192121
0.9178154879 0.1590015396 0.3029808666
0.930648463 0.1652170552 0.3225993594
0.9395000254 0.171779531 0.3400445557
0.9468098627 0.179200472 0.3580660796
0.9551839694 0.1871183727 0.3738142809
0.1063300105 0.5149873031 0.09634282543
0.1423357529 0.5147612213 0.09680814586
0.3802911742 0.42926824 0.09884719164
0.5185609972 0.3643862449 0.1032115169
0.614535846 0.3115257451 0.1098117829
0.683230669 0.2702561245 0.1201873453
0.7349016386 0.2396452531 0.1321799614
0.7789819806 0.2234413201 0.1481603505
0.8129551998 0.2137565699 0.1659349765
0.8433388966 0.2079042075 0.1872814405
0.8670808225 0.2049322589 0.2116137926
0.8867933288 0.204037581 0.2341282018
0.9042337329 0.2054199702 0.2610704123
0.918038325 0.2082652908 0.2858907379
0.9312375239 0.2113654609 0.3066454041
0.9403350888 0.2147783082 0.3252197975
0.94814306 0.2191946984 0.3433747237
0.1257644414 0.6303793548 0.09662446557
0.1463602918 0.6372116721 0.09727159983
0.3096808375 0.5755261079 0.09956883444
0.4640228032 0.5160851166 0.103875308
0.5670347405 0.4700297877 0.1095491574
0.6444486411 0.4329828016 0.1173519588
0.7010916779 0.3985442718 0.1270312382
0.7474568806 0.3712434491 0.1388370006
0.7867645424 0.3453454324 0.152858756
0.8174249145 0.3262293266 0.1684543713
0.8467800798 0.3122424054 0.1869774239
0.8685178363 0.299919872 0.2083251744
0.8879776733 0.2915252067 0.2289223701
0.9047788159 0.2863853507 0.2525107505
0.9182427269 0.2834217725 0.2765821447
0.9311433177 0.2814132573 0.2959957566
0.9403476935 0.2809886927 0.3144477015
0.1549378551 0.7176203068 0.09738656938
0.1714090993 0.7239123061 0.09829628803
0.2685072465 0.6886923997 0.1006867886
0.4144331607 0.623860351 0.1049667318
0.5199620188 0.574869916 0.1102727582
0.6037475529 0.5376537618 0.1179420353
0.6711449506 0.505810636 0.1264541739
0.7201498637 0.4763513381 0.1359373405
0.7624896805 0.4536021305 0.1482662514
0.7974115632 0.4339261453 0.1616095088
0.8251245129 0.4164376597 0.1769447617
0.8526839445 0.3996974253 0.1942326957
0.8719605508 0.3870172765 0.2136065492
0.891485719 0.3779013339 0.2320246547
0.9067777396 0.3709894354 0.2537898727
0.919758929 0.3639470217 0.2753181501
0.9320480739 0.3576319086 0.2933904468
0.1876480226 0.7727993781 0.09859065295
0.2004407452 0.7768266002 0.09928512188
0.2616366701 0.7623703664 0.1021109819
0.3815906743 0.7181526112 0.1063405501
0.4821794938 0.6664045928 0.1116313726
0.5674280597 0.6235302395 0.1189416499
0.6381610674 0.5892242266 0.1271849556
0.6925912973 0.5585588211 0.1356231688
0.7377333612 0.5346358503 0.146531859
0.7767882449 0.5137195002 0.1583447264
0.8076128301 0.4935755766 0.1715795575
0.8338111518 0.4765594882 0.1864573216
0.8590061614 0.4626956074 0.2041592687
0.8769283332 0.4507836082 0.2218703968
0.8954385979 0.4407468272 0.2391877514
0.9092884203 0.4324034074 0.2594628097
0.9218169157 0.4247637404 0.2781168865
0.2248337278 0.8165958409 0.09990393962
0.2332328004 0.8190511436 0.1008142783
0.2737680989 0.8119951192 0.1036281197
0.358556553 0.7811306383 0.1077355496
0.4535337514 0.7408508466 0.1133760486
0.533733047 0.7001431747 0.120498039
0.6045454158 0.6645132531 0.1279719809
0.6651596279 0.6304337753 0.1370419505
0.7137465005 0.6064775624 0.1471275536
0.7555870495 0.5809583259 0.1578545859
0.7901450103 0.5615236358 0.1698052728
0.8175303589 0.544058113 0.1831866751
0.8440800205 0.5283239357 0.198939336
0.8654774646 0.5145678989 0.2158061753
0.8829182237 0.5018678089 0.2313561604
0.9001434854 0.4906020482 0.2494421215
0.9124485684 0.4806896962 0.2681136064
0.2573291613 0.848462737 0.1017952796
0.2650242294 0.8500291347 0.1028407643
0.2925859108 0.8472532516 0.1053859633
0.3502917386 0.8299611539 0.1094833335
0.4279054053 0.7975213478 0.1153838183
0.5064207054 0.7605359904 0.1225883559
0.5769534581 0.7290339931 0.129575199
0.6392624834 0.6975088192 0.138259128
0.6885580349 0.6693748627 0.1481988992
0.7326057326 0.6434944354 0.158200184
0.7711322971 0.6220252224 0.1691645941
0.8020481556 0.6044112311 0.181251685
0.8274883444 0.5851493411 0.1955896425
0.85337762 0.5695833155 0.2114713015
0.8713101112 0.5569486768 0.2262402232
0.8893242647 0.5453517637 0.2420421314
0.904221109 0.5348272394 0.260227376
0.2880048303 0.8733361821 0.1038525084
0.2934579973 0.8746396747 0.1048598032
0.312983414 0.8739414509 0.1071722414
0.3525351594 0.8622108338 0.1112513826
0.4141510608 0.8404117576 0.1171976511
0.4841246387 0.8099783806 0.1241988355
0.5516092819 0.7774347448 0.1311816651
0.6131372132 0.7497587757 0.1395402276
0.6662482381 0.7257846499 0.1489689411
0.7103928607 0.7011689402 0.1592424142
0.7505799909 0.6786023984 0.1702178147
0.7852828168 0.6591979224 0.1818406171
0.8133206212 0.6398741224 0.1954670301
0.8387042473 0.6239889866 0.2102853409
0.8613906635 0.6113594576 0.2242114228
0.8781791476 0.5973606918 0.2385520909
0.8955513044 0.5835964478 0.2551606636
0.3147315825 0.8946935781 0.1060385303
0.3187468725 0.895419433 0.1069888293
0.3312964164 0.8952922752 0.1091876211
0.3610811432 0.8885752586 0.1132195209
0.4081738886 0.8727976091 0.1195731089
0.4692621263 0.8486475637 0.1261310998
0.5303964786 0.8226044517 0.1334070075
0.5890111373 0.7950257348 0.1418692001
0.6450882142 0.7695673543 0.1507251143
0.6900517748 0.7481037731 0.1600626059
0.7300113386 0.7290019239 0.1711475588
0.7671255619 0.7094012646 0.1827413078
0.7984646777 0.6899784671 0.1956698083
0.8235830211 0.6736825062 0.2093809508
0.8490874196 0.6587309454 0.2223540677
0.86795323 0.6432052706 0.2353865572
0.8849894587 0.6297003932 0.2507307023
0.3354108743 0.9084018794 0.1081935056
0.3383391658 0.9087847485 0.1091839197
0.3486639814 0.9087494592 0.1112410327
0.3722469263 0.9053321876 0.1153812505
0.4073735845 0.8971488243 0.1215725284
0.457627481 0.8797713142 0.1279159712
0.5129249477 0.8568546555 0.1355070011
0.5712248982 0.8338144795 0.1441714241
0.6255572132 0.8109457199 0.152885998
0.6713279712 0.7876171693 0.1613501432
0.7117756154 0.7674951136 0.1718085553
0.7486903304 0.7508746903 0.1840792265
0.782186538 0.7352849399 0.197058508
0.8101422179 0.7198730851 0.2104335074
0.8347046815 0.7035841508 0.2226102105
0.8583038177 0.688443591 0.2347910385
0.8747214427 0.6756369983 0.2489546142
0.3554678167 0.920019053 0.1105897477
0.3582761448 0.920338074 0.1116791203
0.3670562636 0.9207877324 0.1138059009
0.384067643 0.9189333906 0.1183307622
0.4106482298 0.91318348 0.1241352704
0.4509013158 0.9018708579 0.1303101228
0.4991668199 0.886842883 0.138305891
0.5538217826 0.8651501368 0.1467492477
0.605429856 0.8445340533 0.1552681159
0.653223723 0.8237968313 0.1636368973
0.694289722 0.8046873439 0.1730735293
0.7317946141 0.7871233652 0.1847031156
0.7659266247 0.7703311852 0.1981539125
0.7958642506 0.7555777365 0.2113586682
0.8205410431 0.7419794687 0.2230462727
0.8458367824 0.729285382 0.2346583252
0.8655107411 0.7166267136 0.2477595505
0.3745473116 0.9305403181 0.1135269573
0.376673214 0.9308885199 0.1146575874
0.3832154901 0.9314745858 0.116984894
0.3955580174 0.9303762609 0.121334734
0.4159034822 0.9265341007 0.1264585629
0.4486496458 0.9179784041 0.1326358659
0.4902444623 0.9068926 0.140910156
0.5391964016 0.8926621069 0.1494032443
0.5883015602 0.8736038197 0.1576993778
0.6374633989 0.8541351361 0.1665533564
0.6785971686 0.8369634648 0.175883263
0.716371331 0.8206925223 0.1865825557
0.7507088817 0.8054591922 0.1996333572
0.7814664512 0.7899889006 0.2128519905
0.8080339789 0.7750328448 0.2245166125
0.8316449699 0.7617116634 0.2358062898
0.8558935591 0.749917044 0.2484026281
0.3901816066 0.9397402817 0.116853328
0.3918825659 0.9400268665 0.1180549486
0.396937652 0.9404804368 0.1203903522
0.4066316476 0.9398427788 0.1242169458
0.4224246101 0.9372491224 0.128826735
0.4501812918 0.9308436013 0.1354263485
0.4855530683 0.9224547047 0.1441035845
0.5287535232 0.9107467578 0.1522762319
0.5757691138 0.8974638187 0.1605051449
0.6229217699 0.882074458 0.1696525092
0.6639678622 0.8639074018 0.1790060809
0.7010666838 0.8488928103 0.1899271482
0.7362439724 0.8351924069 0.2017260075
0.7680781197 0.8211811024 0.2142051597
0.795683054 0.8077824309 0.2261691303
0.8190941802 0.7942135492 0.2376680092
0.8434670037 0.7812026546 0.2502363576
0.4039096843 0.9469446002 0.1203521409
0.4052673028 0.947097549 0.1215029853
0.4093378821 0.9473425496 0.1237378696
0.4168618665 0.9470680178 0.1269624537
0.4298736282 0.9451435734 0.1318084576
0.4540191824 0.9411469783 0.1384379475
0.4834860913 0.9351278545 0.1468116751
0.5210874882 0.9258300612 0.1548441285
0.5647447781 0.9143344801 0.1634267105
0.6080180958 0.9023733035 0.17281187
0.6502102907 0.8889964292 0.1822013307
0.6875738544 0.8743381483 0.1932267652
0.7223516379 0.8599979833 0.2050443215
0.7548019139 0.8473067744 0.2159144109
0.7835538547 0.8354028305 0.2273911814
0.8080742088 0.8230919621 0.2393633122
0.8304824861 0.8112725722 0.2522650988
0.4158378454 0.95238427 0.1237162598
0.4169227459 0.9524794166 0.1247642293
0.4202206245 0.9526398866 0.1269017481
0.4266561107 0.9524894476 0.1297414852
0.4385236695 0.9510802197 0.1349117535
0.4595002265 0.9486332162 0.1413961086
0.483523095 0.9447632698 0.1494510436
0.5159203211 0.9378151606 0.1578341191
0.5548658233 0.9285116565 0.1663561491
0.5949504639 0.9180490474 0.1755201113
0.6378800386 0.9066037003 0.1851616983
0.6752693193 0.8958040558 0.1965091752
0.7093496442 0.8839990376 0.2080552649
0.7412644405 0.8708172831 0.2188449485
0.7716790384 0.8583172552 0.228656896
0.7974687609 0.8474337675 0.2405831826
0.8193012899 0.8369247423 0.2539333729
0.4266896873 0.9571434541 0.1268797199
0.4276690162 0.9572228532 0.1278936529
0.430803054 0.9573461968 0.1300695263
0.4370644319 0.9573205126 0.1327910506
0.4484845051 0.9563119714 0.1383648344
0.4656273622 0.9547572107 0.1444187754
0.4853135928 0.9517415798 0.1526761023
0.5131717085 0.9469726965 0.160656579
0.5474771999 0.9402510737 0.169154956
0.5851039181 0.9314129616 0.1788095056
0.626727778 0.9215439205 0.1890109344
0.663431731 0.9113009061 0.1998137985
0.6970632697 0.9015008106 0.2111513246
0.7291855785 0.8918824663 0.2216391296
0.7591775364 0.8807021659 0.2310832722
0.7866900471 0.8691389416 0.2418573574
0.8096813862 0.8583727575 0.2550240395
0.09810654371 0.1109939831 0.2614736313
0.3057021628 0.1065756823 0.2605979851
0.4963010136 0.1078942548 0.3371437799
0.6042729047 0.1102014989 0.3621644799
0.6822922028 0.1126113261 0.3627220483
0.736623393 0.1158521323 0.3598552143
0.7820685664 0.1193596438 0.3599971834
0.8170521569 0.1232686524 0.3589572173
0.8483079633 0.1276272108 0.3618423061
0.8702313197 0.1321055707 0.3661090359
0.8908719639 0.1375349993 0.3709500101
0.9065864455 0.1427503074 0.3770616383
0.9194813958 0.1482084347 0.3852631902
0.9317600446 0.1542163288 0.3933347097
0.9403137017 0.1606322903 0.4009716236
0.9477883978 0.1682631195 0.4089590454
0.9562464933 0.1763962084 0.4172675148
0.09918524177 0.3028635092 0.2322124679
0.220595553 0.2482228568 0.2017337062
0.4562024927 0.1596143953 0.1921229133
0.5776644179 0.134169633 0.2115855809
0.6650860101 0.1275194551 0.2274768884
0.726076263 0.1269299551 0.2445653929
0.7754300467 0.1286337763 0.262373188
0.8125775327 0.1320863367 0.2797865958
0.8430785091 0.1362197434 0.294469279
0.8671145422 0.1411788621 0.3095074564
0.8867133336 0.1462723855 0.3247456184
0.904630456 0.1501078195 0.3360712489
0.9177869276 0.1553628024 0.3519429632
0.9298137334 0.1622858091 0.367343577
0.9388463061 0.1697175066 0.3788299821
0.9463018945 0.1779122158 0.3899884951
0.9547229497 0.1858421499 0.4009589855
0.1096791393 0.513977831 0.1566999324
0.1566976248 0.4950668144 0.1632002996
0.3902572168 0.4118518844 0.1425030596
0.5211059487 0.3443579775 0.1394873633
0.6136459925 0.2877349264 0.1462304017
0.682323224 0.245860927 0.1570004716
0.7339927454 0.2202722601 0.1711994928
0.7787869716 0.2075392836 0.1901832652
0.8133039428 0.2000044204 0.2126787214
0.8437064846 0.1958243845 0.2337098991
0.8672181163 0.194061083 0.2575777705
0.8874495114 0.1949168092 0.2814684861
0.9046875406 0.1971543237 0.3019739803
0.9185774495 0.2007638307 0.3210009016
0.9318819467 0.2046116547 0.3374794467
0.9408489581 0.2090176973 0.3537998636
0.9486533259 0.2147095224 0.3692584171
0.1312011463 0.629638397 0.1225798537
0.1579960653 0.6238660727 0.1329137142
0.3196841978 0.5599572244 0.132915366
0.4697896757 0.5019664581 0.1317317322
0.569771566 0.458602156 0.1354958157
0.6449007138 0.4217577677 0.1430075623
0.7001832314 0.3855651812 0.1524534122
0.7468114331 0.3572908286 0.1646993124
0.7865918508 0.3324013209 0.1801912909
0.8173358808 0.3143038565 0.1986608189
0.846560334 0.299199309 0.2180271688
0.8686759618 0.2887038929 0.2369168302
0.8883332197 0.2813155626 0.2607079821
0.9050316539 0.2771253912 0.2827105053
0.9184857165 0.2748853278 0.3019188561
0.931368625 0.2734453558 0.319416587
0.9405262082 0.2738106064 0.3363020257
0.161260723 0.7150339241 0.1116771777
0.178043109 0.713604246 0.118645077
0.2799783513 0.6726299078 0.1256593505
0.4179299791 0.6123409321 0.1285971168
0.5236023348 0.5645870861 0.1330300766
0.6066627792 0.5284359807 0.1394427871
0.6713004894 0.4965142422 0.1476301501
0.7201526469 0.4691557568 0.1573669282
0.7624249425 0.446540239 0.1696293023
0.7972152176 0.4270278509 0.1838706032
0.824814379 0.4086135138 0.2007659177
0.8526318721 0.3924146363 0.2183907013
0.8721553485 0.3810031188 0.2360616529
0.8917002166 0.3720846088 0.2565829817
0.9069459732 0.3642849302 0.2771292286
0.9198955085 0.3571725835 0.2947757771
0.9321745392 0.3509008529 0.3111971677
0.1923673502 0.7685146297 0.1092678237
0.2066337143 0.7693938432 0.1133450529
0.2698953675 0.7506329778 0.1210091266
0.3855888055 0.7042259327 0.1265169743
0.4836960736 0.654987212 0.1318077991
0.5693223664 0.6156020121 0.1384389027
0.6400239879 0.5800766742 0.1464222492
0.6935112583 0.552856659 0.1547272331
0.7382256596 0.5294437501 0.1650403214
0.7768330653 0.5084202606 0.1772668176
0.8073732307 0.4881975629 0.1912348752
0.8337207845 0.4720451913 0.2075837964
0.8591170164 0.4584802988 0.2236604169
0.877014341 0.4464332395 0.2402982842
0.8955226685 0.4366518748 0.2597928486
0.9093817073 0.4283913022 0.2782399991
0.9218978705 0.4206496542 0.2938354237
0.2278205497 0.8119561577 0.1089715556
0.2361220736 0.8125631785 0.1117019378
0.2783222989 0.8023519124 0.1182768272
0.3627238156 0.769494777 0.1250133252
0.4556173162 0.7319054848 0.1313704019
0.5344707187 0.6904778349 0.1382126868
0.60577863 0.6561436974 0.1458537247
0.6667181681 0.624980923 0.1545913543
0.7148926132 0.6011568821 0.1640013597
0.7560387841 0.5764209007 0.1748514422
0.7901952121 0.5575876512 0.1871857285
0.817655969 0.5404503176 0.2021059159
0.8442767464 0.5250301637 0.2172441026
0.8655469154 0.5111563202 0.231625449
0.8829727452 0.4983072029 0.248382952
0.9002001918 0.487266019 0.2669675657
0.9124550955 0.4775949643 0.2830748193
0.2595601383 0.8444275928 0.1097209775
0.2672471209 0.845028615 0.1119792377
0.2950475403 0.8400862388 0.1175803688
0.3531693623 0.8209137486 0.1243982687
0.4302268922 0.78892671 0.131518154
0.5072508434 0.7533623337 0.1389284513
0.5775088359 0.7228043256 0.1465662549
0.6403619331 0.6914814355 0.1549459588
0.6898985639 0.6650001362 0.1640308066
0.7335037932 0.6386277587 0.1739170368
0.7715377814 0.6187785445 0.1850067978
0.8024500625 0.6011029109 0.1983935271
0.8277856659 0.5818349082 0.2128014576
0.8535459893 0.5669351473 0.2263693404
0.8713835505 0.5543952535 0.240937041
0.8894075904 0.5427700363 0.2581414444
0.9042378072 0.5322580661 0.2746934402
0.289221478 0.8692650963 0.1109142237
0.2945873794 0.8698655814 0.1129033022
0.314140526 0.8677430753 0.1176859234
0.3544658246 0.8553569557 0.1244500255
0.4160418705 0.8338751576 0.1314644961
0.4850389018 0.80313565 0.1391114666
0.5523651003 0.771679924 0.1472114605
0.6139604914 0.745536687 0.1551987224
0.6670701462 0.7216155441 0.1638828386
0.7112942825 0.6965492903 0.1741335385
0.7515112247 0.6752673995 0.1852656709
0.7860270171 0.6562365562 0.197983816
0.8137209788 0.6370177975 0.2116431724
0.8390012402 0.6218016866 0.2243581779
0.8615310713 0.6093341829 0.2376747393
0.8782874833 0.5948183865 0.2531236654
0.8955982935 0.5809310995 0.2691285082
0.3152956012 0.891487612 0.1127349243
0.3190911381 0.8918049285 0.1146324725
0.3315978967 0.8908001103 0.1187606832
0.3623191774 0.8837059099 0.1248979552
0.4094892555 0.8668387209 0.1320804461
0.4702489521 0.8431482595 0.1399405563
0.5311681715 0.817658907 0.1485008524
0.5896130117 0.7905783688 0.1564986408
0.6454690478 0.7657328448 0.1649418649
0.690591182 0.744731983 0.1743379675
0.7309619027 0.7261780239 0.1856990241
0.7681225672 0.7067203509 0.1981909272
0.7991690105 0.6876596626 0.2109203658
0.823973757 0.6715992574 0.2227231205
0.8493663997 0.6564700834 0.2347167367
0.8680890359 0.6408892108 0.2486462571
0.8851078105 0.6279542908 0.2642984622
0.3354001812 0.9057188483 0.1147611309
0.3382669077 0.905863057 0.1165898054
0.3488758431 0.9054873334 0.1203731041
0.3731170829 0.901933375 0.1260365261
0.4082321621 0.893034576 0.1329259048
0.4587155656 0.8746071605 0.1407549548
0.5138550221 0.8528901987 0.1496189104
0.5718058232 0.8300409291 0.1577996343
0.6258022312 0.8073384099 0.1664899813
0.6716455492 0.7841477058 0.1748972575
0.7124769827 0.7649409896 0.1858707552
0.7496247664 0.7487618646 0.1990814945
0.7829788134 0.7332434871 0.2115642118
0.810685183 0.7176693892 0.2230493695
0.8351482608 0.7015075447 0.2343174317
0.8585042896 0.6866428748 0.2472160646
0.8749004592 0.6740407368 0.2620515327
0.3555234675 0.9178425303 0.1172619067
0.3583841434 0.918128673 0.1189832872
0.3673204695 0.9182677021 0.1225187696
0.3843565371 0.9159698785 0.1276244436
0.4110987152 0.909941837 0.1344770852
0.4518759578 0.8987530823 0.1425137004
0.5001557406 0.8835492495 0.151343671
0.5546378866 0.8617636207 0.1594936854
0.6058851433 0.8415889079 0.1682085451
0.6534533607 0.8208861166 0.1766972037
0.6948560431 0.802384516 0.1867327259
0.7324589904 0.7849705765 0.1992910134
0.7666226643 0.7683604114 0.2120018872
0.7965058615 0.753849291 0.2234406409
0.8210380273 0.7403847594 0.2341896224
0.8462258384 0.7277287966 0.2463844346
0.8657155299 0.7150070305 0.2603348012
0.3747292003 0.9289080722 0.1202434697
0.3767910745 0.9291361282 0.1217776053
0.3832134395 0.9292700223 0.1249604073
0.3954844727 0.9279203871 0.1295343482
0.416138278 0.9239665341 0.1360808101
0.4494809827 0.9154197644 0.1441346869
0.4911893143 0.9045821219 0.1529681534
0.5399325831 0.8900281413 0.1615171335
0.588712724 0.8706307969 0.1702421521
0.6377711602 0.851743318 0.1794043365
0.6790603777 0.8349950065 0.1895026335
0.7169100182 0.8188361888 0.2006431738
0.7512133386 0.803588749 0.2129656616
0.7820519279 0.7881857608 0.2244753401
0.8085342473 0.7733256604 0.2354082471
0.8321370354 0.7602399564 0.2471591319
0.8562467495 0.7486679888 0.2604330418
0.3901334637 0.9382431196 0.1232458839
0.3917401098 0.9383915535 0.1245926931
0.3967024227 0.9385384945 0.1274719172
0.4065074184 0.9379351023 0.1317324878
0.4226408081 0.9351470538 0.1384806242
0.4508526087 0.9287670256 0.1464443473
0.4862741919 0.920487926 0.1553242169
0.5294090657 0.9087133272 0.1638314072
0.5761602361 0.8954629178 0.1724958584
0.6233620504 0.8797667756 0.1821524384
0.6644591541 0.8620863078 0.1922835373
0.7014851084 0.8472860725 0.2034780403
0.7366660729 0.8335389386 0.2144052692
0.7685110061 0.8196174447 0.225436864
0.7961375488 0.8062532845 0.2369286712
0.819533169 0.7927115308 0.2488806601
0.8440095339 0.7798969641 0.2618610006
0.4036889113 0.9456727975 0.1262080592
0.4050288657 0.9457956435 0.1274377063
0.4090923184 0.9459806196 0.1302550846
0.4167756274 0.9457019996 0.1343480618
0.4300143376 0.943635775 0.1410764198
0.4545380033 0.9395355943 0.1486483454
0.484055189 0.9335165926 0.1571913585
0.5216622652 0.9239984071 0.165683863
0.5652586046 0.9125293729 0.1748153533
0.6087140434 0.9009213008 0.1848980813
0.6506875371 0.8875284546 0.1951025656
0.6879136756 0.8727051442 0.206357691
0.7226854667 0.8585905923 0.2170050361
0.7551709759 0.8459554504 0.2266252875
0.7838901898 0.8340305359 0.2380323997
0.8084465507 0.8217978937 0.2504773426
0.830973076 0.8101095696 0.2634339714
0.4156219839 0.9513988611 0.1292556793
0.4167306711 0.9514846952 0.1304481279
0.4200263287 0.9516197778 0.1333266414
0.426533014 0.9514053926 0.1372682757
0.4386369764 0.9499789982 0.1437484532
0.4599019981 0.9476126563 0.1507004522
0.4839845579 0.9434714294 0.1592666516
0.516390691 0.9362901472 0.1682593762
0.5554016569 0.9270388776 0.1774189496
0.595582785 0.9168126185 0.1876291602
0.638324671 0.9054281886 0.1979108053
0.675618259 0.894676998 0.2091699047
0.7096120143 0.8825900228 0.2193949003
0.7415204043 0.8694530532 0.229005627
0.7719779265 0.8571265322 0.239065506
0.7977623839 0.8463263397 0.2515926107
0.8196809506 0.8358999404 0.264731894
0.4265146591 0.9562875292 0.1324248077
0.4275143183 0.9563532355 0.1336960778
0.4306370761 0.9564485612 0.1365301684
0.4369824224 0.9563196857 0.1405244752
0.4485994178 0.9554223437 0.1465329506
0.465926683 0.95381391 0.1531834231
0.4856003019 0.9507158749 0.1620678087
0.5135468053 0.9458116861 0.1706175619
0.5480715539 0.9390590507 0.1798415312
0.585698586 0.9303502382 0.1905778163
0.6271841019 0.920458471 0.2012002505
0.6638250209 0.9102576304 0.2116541289
0.6973693205 0.9005218521 0.2218404552
