app/src/main/assets/spektrafilm/profiles/kodak_kodachrome_64_film.cube
# ============================================================================
# spektrafilm LUT
# Bundle:  spektrafilm_v033_kodachrome64_portraendura_1lut_prophoto_prophoto  (1lut, 17^3)
# Film:    kodak_kodachrome_64
# Print:   kodak_portra_endura
# Input:   ProPhoto RGB  (cctf on)
# Output:  ProPhoto RGB  (cctf on)
# Created: 2026-06-02T06:53:56Z
# spektrafilm: 0.3.3
# Project: https://github.com/andreavolpato/spektrafilm
#
# Copyright (c) 2026 Andrea Volpato. Generated by spektrafilm. Licensed under CC BY-SA 4.0.
#
# License: spektrafilm LUT by Andrea Volpato, licensed under CC BY-SA 4.0.
#          Full text and attribution requirements in SPEKTRAFILM_LICENSE.txt
#          (shipped in this bundle); also at
#          https://github.com/andreavolpato/spektrafilm/blob/main/SPEKTRAFILM_LICENSE.txt.
#
# Citation: If you use this LUT in your work, please cite the spektrafilm
#           project: https://github.com/andreavolpato/spektrafilm, see
#           CITATION.cff for details.
#
# Notes: Generated by the spektrafilm LUT bundle builder. Apply with trilinear
#        or tetrahedral interpolation in your host (DaVinci Resolve, Nuke,
#        OCIO-aware DCC). The input and output color spaces are declared in
#        bundle.json; do NOT apply this LUT to a signal in a different color
#        space.
#
# File: lut_v033_kodachrome64_portraendura.cube  (see sibling bundle.json for full metadata)
# ============================================================================
TITLE "v033_kodachrome64_portraendura"
DOMAIN_MIN 0 0 0
DOMAIN_MAX 1 1 1
LUT_3D_SIZE 17
0.01756198218 0.01567351053 0.007950425259
0.1085486422 0.04889480399 0.01378930294
0.220163708 0.08188142122 0.03245962425
0.2654295403 0.09440098734 0.03977903343
0.2839587098 0.09766682962 0.04654150262
0.294120552 0.09701552694 0.05687621395
0.3006940367 0.09598247187 0.07216457793
0.3043250612 0.09778564929 0.09247868906
0.3079626533 0.0996324603 0.1111269027
0.3122843873 0.1018392373 0.1294989959
0.3168815433 0.1044043963 0.1472231262
0.3220759874 0.1073187474 0.1640881324
0.3289857574 0.1111481128 0.1810427452
0.3371279148 0.1159421629 0.1991377822
0.3464966832 0.1218434698 0.2182751199
0.3576880297 0.1291950729 0.2381100415
0.3702702171 0.1378547916 0.258564945
0.0472998983 0.06189610115 0.02340324928
0.05438672366 0.05240001229 0.01794197019
0.1706785905 0.07154813468 0.02459826866
0.2477029653 0.092259061 0.0363151935
0.2781449713 0.1003335787 0.04122287446
0.2915943277 0.1029368201 0.04578236417
0.2998255824 0.1029208542 0.05309841222
0.3073709796 0.1017380617 0.06594532396
0.3130347175 0.1027765959 0.0853440855
0.3179873832 0.1055422868 0.1069115813
0.3233658146 0.1086546857 0.1273371476
0.3296179492 0.1124693875 0.1485600456
0.337489088 0.1171878348 0.1692105604
0.3471281386 0.1231870223 0.1902467897
0.3574909194 0.1301401669 0.2120330681
0.3692050978 0.1383737164 0.2350329572
0.3829893042 0.1485464133 0.2585970813
0.1355910366 0.2360594572 0.07014265444
0.1462506198 0.2492441441 0.07320157587
0.2057346105 0.2022218816 0.05858504281
0.2971194892 0.1768665848 0.05636973184
0.333057433 0.1586700264 0.05642200324
0.3410337656 0.1467424915 0.05696807475
0.3441876274 0.1403840671 0.05996559795
0.347357176 0.1370665385 0.06624817375
0.3520073475 0.1352983025 0.0774709621
0.3580202023 0.1352925146 0.09308688275
0.3648486567 0.1385170105 0.1147070478
0.3723464783 0.1441729246 0.1389342711
0.380368486 0.1507156539 0.1635918363
0.3901251496 0.1585494701 0.1895313881
0.4014235415 0.167828223 0.2156089172
0.4132476825 0.1783975045 0.2417210505
0.4255976176 0.1899239448 0.2679752353
0.1901979207 0.3442603553 0.09741017885
0.2008080592 0.3591802188 0.101040835
0.2417751862 0.3493363988 0.09654698616
0.3457550085 0.3367745178 0.09239527226
0.4263510465 0.3209701135 0.09304528662
0.4565879547 0.2998709131 0.09371381453
0.4617577484 0.2787722188 0.09507278683
0.4599507352 0.2623139988 0.09931839051
0.4572022756 0.2505488705 0.1082131248
0.4556545955 0.2427438537 0.1213964557
0.4565246432 0.2391588722 0.1393982984
0.4593919949 0.2389861253 0.1611919033
0.4632364069 0.2409202349 0.1838909194
0.4672909921 0.2446250546 0.2073554533
0.4730068687 0.250933945 0.2331981955
0.4803483131 0.2587217762 0.2586157862
0.487412461 0.2668730796 0.2837751247
0.2240686052 0.405059382 0.1131703775
0.2325008853 0.4155055035 0.1157133528
0.2680444908 0.4301079237 0.1183748932
0.361989254 0.4437293185 0.1200121029
0.4569482943 0.4420174761 0.1212498189
0.5185134733 0.4323488652 0.1240489723
0.5420335537 0.4169978315 0.1272264257
0.5486122779 0.4018603944 0.132410104
0.5479091808 0.3876147698 0.1411125019
0.54490209 0.3753389442 0.1539125567
0.5417838677 0.3656602648 0.1704428337
0.540104495 0.359261396 0.190828586
0.5397998144 0.3556678218 0.2128866514
0.5405314769 0.3543137028 0.2344447244
0.5416859427 0.354792908 0.2575751463
0.5442658646 0.3569921827 0.2813352436
0.5479932277 0.3603007311 0.3042760388
0.2492345859 0.4426615286 0.1234903268
0.2569739091 0.4507561536 0.1253904834
0.287561089 0.4703524973 0.1297866701
0.3673277519 0.5009985695 0.1363752447
0.4584185646 0.515145988 0.1407523844
0.5399307071 0.5219432757 0.1463280904
0.5868285151 0.5200734084 0.1527292869
0.6052491589 0.5112454221 0.1595436071
0.61092672 0.5010128745 0.1694037643
0.6104526093 0.4903000984 0.1823811536
0.6080796619 0.4804167215 0.1985801526
0.6053550992 0.4721231672 0.2185154958
0.603112113 0.4654089572 0.2400373888
0.6015191348 0.4600233344 0.2609183868
0.6006559128 0.4565012086 0.2824365506
0.6001180742 0.4545226423 0.3050929782
0.6011280603 0.4542680702 0.3271658779
0.2733724881 0.472649899 0.1322392147
0.2807047041 0.4791769908 0.1337562911
0.3071621862 0.4976064537 0.1381520081
0.3706383448 0.5295788764 0.1458672443
0.4556448203 0.5562382676 0.1534796109
0.5383005581 0.5742007089 0.161467783
0.6012228009 0.5833718301 0.1701324639
0.6343298051 0.5840138998 0.179649541
0.6494668292 0.5811013585 0.1917697503
0.6551591905 0.5767892217 0.2059498293
0.6563817119 0.5718839929 0.2231624252
0.6553967953 0.5662137258 0.24325523
0.6535577838 0.5601643959 0.2643959452
0.6515263408 0.5542423695 0.2849279223
0.6499731967 0.5489814596 0.3060077239
0.6485256057 0.5448494434 0.3282356721
0.6473042844 0.5415937107 0.3495331676
0.2988124369 0.4992253733 0.1407144626
0.305616255 0.5047196754 0.1420428894
0.3281670068 0.5201888828 0.1458383837
0.3773363587 0.5471680243 0.1529063951
0.4506680109 0.577801994 0.1620920547
0.5299079631 0.6022498367 0.1718483148
0.5975319577 0.6180522685 0.1819370693
0.6443427365 0.628023702 0.1936580246
0.6690383574 0.6331590259 0.2083829576
0.6812095566 0.6343092711 0.2239841078
0.6858204839 0.6330637944 0.2421135027
0.6872349004 0.6305058447 0.2625041607
0.6867461104 0.6268243593 0.2835890943
0.6856310477 0.6225033098 0.3038437315
0.6846432785 0.6184977127 0.3247800029
0.6839843367 0.6151209469 0.3467982626
0.6828780676 0.6121048251 0.3680163222
0.3251941492 0.5244600237 0.1495693429
0.3315394128 0.529192282 0.1507945138
0.3505212203 0.5416835551 0.1540349498
0.3887087662 0.5632879687 0.1603092614
0.4479765856 0.5902878976 0.1690327994
0.519792372 0.6170037946 0.1798044166
0.5893987826 0.6388278661 0.1916335099
0.6420813997 0.6535049145 0.2047452913
0.6741381965 0.6621097548 0.219787277
0.6916849741 0.6666156541 0.2366612909
0.7005657212 0.6687896715 0.2559666558
0.7045354022 0.6695218921 0.276735808
0.7061759443 0.669280486 0.2976944204
0.706816112 0.6683437729 0.3179992938
0.7071435618 0.6672217218 0.3392120548
0.707489148 0.6657731014 0.3610480031
0.707344376 0.6640361988 0.3819977479
0.3514730236 0.5479547894 0.1590804062
0.3571097452 0.5518210222 0.1601846079
0.3732885867 0.5618606324 0.1629026005
0.4026021298 0.578397852 0.1682105401
0.4509397782 0.6018744805 0.1766923168
0.5127327148 0.6271409004 0.1874322983
0.5793391293 0.6502358737 0.2000818558
0.633753621 0.6673726427 0.2145028841
0.6715426691 0.6785135011 0.2293515992
0.6945351353 0.6861013731 0.2467626716
0.7073601697 0.691200726 0.267186591
0.7137975587 0.6941625085 0.2882890895
0.717138674 0.6957107842 0.3089183029
0.7185736236 0.6961210422 0.3289137173
0.7195599015 0.6962637657 0.3500423906
0.7202819889 0.695861354 0.3714187824
0.7208840994 0.6951395697 0.3918818443
0.3769772345 0.5693805003 0.1692249804
0.3816678996 0.5723773648 0.1701978279
0.3943963932 0.5797181118 0.1721995981
0.4182572488 0.5929810885 0.1769771023
0.4577334555 0.6125482754 0.1847608896
0.5099078057 0.6354457716 0.1955430725
0.5714805922 0.6589616671 0.2092618998
0.6259384611 0.6772068999 0.2240125546
0.6669028672 0.6896628777 0.2392531855
0.692602425 0.6978823915 0.2565073914
0.708644729 0.7039286571 0.2764271372
0.7175686331 0.7080710031 0.2976841192
0.7222825426 0.7106445304 0.3180569353
0.7248370762 0.7124297032 0.338195269
0.7265175011 0.7137951412 0.3592674212
0.7278142039 0.7148492413 0.3802090434
0.7290238595 0.7154050766 0.4000733922
0.3996853551 0.5878567576 0.1798921862
0.4036580808 0.5902397551 0.1807856037
0.4146615667 0.5960933322 0.1824467399
0.4347681561 0.6070439031 0.1870650219
0.4672807178 0.6232594726 0.1944517346
0.5108941897 0.6433551293 0.2053562064
0.5658806714 0.6653547102 0.2188630455
0.6185265325 0.6838565453 0.2334884981
0.6608679643 0.6975476438 0.2495310807
0.6889725055 0.7066969637 0.2671261283
0.7076553782 0.7131528708 0.2859753556
0.7189768205 0.7178336882 0.3062749961
0.7249280173 0.7209441995 0.3263185832
0.7285224833 0.7232845543 0.3467687672
0.7306301028 0.7251116773 0.3679430525
0.7321724345 0.726444636 0.388114376
0.7335284215 0.7274620721 0.4075299021
0.4213185816 0.6047468047 0.1917609639
0.4248955557 0.6067980601 0.1926942965
0.4344526114 0.61164557 0.1943088784
0.4515871239 0.6206696179 0.1986862997
0.4784507628 0.6338744703 0.2055265753
0.5147416939 0.6506709052 0.2157454715
0.5629630276 0.6702825098 0.2284417704
0.6120872909 0.6883482428 0.2432677178
0.6542587952 0.7026654803 0.2599140682
0.6848101872 0.712715512 0.2778106741
0.7051948816 0.7195990304 0.2963061799
0.7182744008 0.7244049121 0.314668557
0.7259829917 0.7279842681 0.3339631115
0.7305632433 0.730941436 0.3548624358
0.7332709766 0.7331780117 0.3758160516
0.735186537 0.7349329005 0.3957610126
0.7366423309 0.7362326289 0.4147660149
0.4421219323 0.6206579913 0.2053909945
0.4452365583 0.6223882638 0.2063539208
0.4537840201 0.626569014 0.2080036884
0.4684582334 0.6338449382 0.2117445337
0.4904323348 0.6442206871 0.2175169378
0.5214260404 0.6584382126 0.2272929215
0.5632099748 0.6754782388 0.2395913457
0.6076333092 0.692061957 0.2543737554
0.6482138897 0.7060559594 0.2709206812
0.6804019825 0.7165804886 0.2883822451
0.7019289433 0.7238110724 0.30639035
0.7163871385 0.7288579512 0.3239257256
0.7257924822 0.7327020516 0.3419710543
0.7312435023 0.7358800159 0.3623889307
0.7347434022 0.7385234009 0.3832730027
0.736953808 0.7405166689 0.4028439893
0.7386624762 0.7421370115 0.4216338665
0.4621546776 0.6351642516 0.2196327126
0.4650552303 0.6366807029 0.2205735124
0.4724583586 0.640160207 0.2222041913
0.4848040662 0.6458568003 0.225132566
0.5030471604 0.6544747627 0.2310548273
0.5301111558 0.6664560355 0.2398777246
0.5659913131 0.6810488113 0.2517379882
0.6054811528 0.6957777405 0.2659441525
0.6436170423 0.7089050732 0.2822526459
0.6760696765 0.7192812681 0.2992894888
0.6982725044 0.7264355233 0.316266175
0.7140283684 0.731705074 0.33320057
0.7245618821 0.7357894646 0.3512178161
0.7310891939 0.7390687759 0.3703188326
0.7352922444 0.7418058627 0.3900581779
0.7378978046 0.7440700264 0.4095528769
0.7398875543 0.7459288734 0.4281864376
0.4811985502 0.6483125852 0.2346078011
0.4835886471 0.6495410515 0.2355667451
0.490013837 0.6524927795 0.2372976752
0.500293645 0.6568585831 0.2394540966
0.5162849541 0.6643544792 0.2457346955
0.5402485177 0.6744794636 0.2536464562
0.5708174711 0.6867450363 0.2647600232
0.6057632638 0.6998534754 0.2789896662
0.6407974792 0.7117584473 0.2942305148
0.6723517455 0.7215872295 0.3100555978
0.6948723945 0.7285519629 0.3260033978
0.7116228896 0.7339258276 0.3429250684
0.7229947417 0.7380533163 0.3607376031
0.7304406292 0.741327024 0.3790984111
0.7352224901 0.7439457462 0.3971841735
0.7383125095 0.7462278942 0.4158867543
0.7405010798 0.7481937946 0.4342783986
0.4985643575 0.6601619788 0.2508966337
0.500704821 0.6612225306 0.2518718139
0.5063072967 0.6637137244 0.2536358229
0.5156415581 0.6673887299 0.2553273834
0.5303626136 0.6739777971 0.2614244233
0.5511688873 0.6822629222 0.2680580462
0.5774079221 0.6927802502 0.2793953831
0.607836928 0.703839238 0.2920839222
0.6394228478 0.7143197661 0.3058439264
0.6691395695 0.7235001565 0.3208790222
0.6919786224 0.730403102 0.3362427876
0.709230594 0.7357943648 0.3527917898
0.7213701469 0.7400166685 0.3706459249
0.7296599378 0.7432547295 0.388091146
0.734846981 0.7457866075 0.4052904911
0.7384946011 0.7479400094 0.4224678664
0.7408535597 0.7498605702 0.4402446234
0.01983697476 0.01799501791 0.0274274239
0.07065721387 0.0383017095 0.04554578606
0.2032945548 0.07154773138 0.07238542036
0.2666159427 0.08747923635 0.09230618523
0.2900552249 0.09358811321 0.1067213786
0.2995628434 0.09630030987 0.1201528054
0.3041601539 0.09781372078 0.1328264624
0.30750365 0.09920071562 0.1440027347
0.3108037069 0.100720968 0.155652792
0.3146523845 0.1025874007 0.1675280856
0.318829574 0.1048834598 0.1792426781
0.3233062702 0.1073777169 0.1912492437
0.3295679505 0.1107983251 0.2046701083
0.337729765 0.1156157038 0.2196931748
0.3470446647 0.1214893312 0.2360684594
0.3578021876 0.1285187558 0.2536886311
0.369700932 0.1366137209 0.2723100528
0.03941367155 0.04831973706 0.04340876037
0.05295130606 0.04995773328 0.04293281491
0.166250891 0.06612930102 0.04134447351
0.2501921379 0.08580835998 0.05275805678
0.2846486465 0.09282444867 0.06429203335
0.2981339856 0.09613562185 0.07963196664
0.3041914342 0.09829896035 0.09578159894
0.3084253795 0.1002012404 0.1118724368
0.3128518556 0.1024183419 0.1285634794
0.3177707723 0.1049633199 0.1446841303
0.3229030486 0.1078062386 0.1608040379
0.3279769352 0.1108069796 0.175146775
0.3354814744 0.1151553427 0.1917580416
0.3455086995 0.1212774218 0.2116616276
0.3565002771 0.1285302014 0.2322569228
0.3681870262 0.1366644737 0.2523787968
0.3815701608 0.146402449 0.2735424913
0.1260773656 0.2277381319 0.08399346836
0.1353416442 0.2355748869 0.08594587619
0.2048195737 0.1883775294 0.06655739506
0.2889240739 0.1624050171 0.06222409154
0.3216962994 0.1432993811 0.06172541891
0.3318466971 0.1333242889 0.0643269688
0.3376929921 0.1283299576 0.07148861579
0.3425042811 0.1258736544 0.08251016654
0.3469981327 0.1256664507 0.09888222942
0.351398963 0.1283629046 0.1195457873
0.3572659918 0.1322182374 0.1401056345
0.364864871 0.137526894 0.1632059432
0.3733229259 0.1439559843 0.1864945691
0.3837630487 0.1518867835 0.2100066765
0.3952691162 0.1610059544 0.2332936173
0.4074965503 0.1715413327 0.257921753
0.4210992916 0.1838229468 0.2836579443
0.1844468942 0.3429266887 0.107040415
0.1938944158 0.355193711 0.1112060462
0.2377958949 0.3413756347 0.1047448529
0.3460737381 0.3288029116 0.09975068217
0.4234634163 0.3127191818 0.1009434806
0.451688666 0.290108061 0.1027284049
0.4567923544 0.2683192547 0.1062361738
0.4554356885 0.2517187615 0.1140757043
0.4520504318 0.2392132135 0.1251409429
0.4504938637 0.2317977602 0.1410987319
0.4512030834 0.2287177546 0.1603329317
0.4538360243 0.2290047416 0.1806167604
0.4569906845 0.2310786034 0.2027139016
0.4613553471 0.2358301047 0.2272208072
0.4676611573 0.2424810032 0.2515058798
0.475375201 0.2504526107 0.276030502
0.4832756466 0.2594944733 0.3001758876
0.2206166559 0.407281231 0.1214926485
0.2289542938 0.4178753072 0.1250341624
0.2652206539 0.4293817823 0.1274481674
0.3604397616 0.4413744995 0.1287233728
0.4576672933 0.4390047933 0.1303151831
0.5187607393 0.4300770727 0.1347514525
0.5415621702 0.414886512 0.1399280947
0.5479105646 0.3988484455 0.1482849635
0.5466723462 0.3833169636 0.1590809254
0.5433273679 0.37032431 0.1736144663
0.5400675246 0.3604769354 0.1917944446
0.5382548339 0.354137395 0.2119394724
0.5375549213 0.3502040139 0.2317832164
0.5380992924 0.3486340276 0.2530071956
0.5393121016 0.349230245 0.275338733
0.5418046671 0.3512289243 0.2972665504
0.5456115654 0.3546408014 0.3191568307
0.2467734531 0.446859806 0.1317603023
0.2544375289 0.4551814854 0.1343672239
0.2860645679 0.4750820511 0.1397716542
0.3669368089 0.5046678653 0.1467191696
0.4587449169 0.5170942427 0.1513737996
0.5422291889 0.524477092 0.1582575034
0.5884806035 0.5219944982 0.1663315178
0.6063481479 0.5130510728 0.176176231
0.6115984832 0.5016855767 0.1876746077
0.6107998411 0.4900090045 0.2021647265
0.6082226759 0.4795078915 0.2199796501
0.6051504215 0.4704838235 0.2394722185
0.6023184669 0.4627455001 0.2587606608
0.6006468471 0.4571512302 0.2788735372
0.599789046 0.4535477466 0.30045055
0.599205653 0.4514628954 0.3214179826
0.6001879913 0.4510633612 0.3419703117
0.2714121725 0.4783718202 0.1410303942
0.2788071606 0.485335195 0.1431226491
0.3061510323 0.504690874 0.1486939625
0.3708421707 0.5362556866 0.1571693737
0.4563308358 0.5620665518 0.1655847448
0.5404295485 0.5796921525 0.1745089552
0.6040390561 0.588061637 0.1846633628
0.6367142847 0.5884383457 0.1969566188
0.6512301748 0.5847343692 0.2100715678
0.6566695112 0.5798074928 0.2258449864
0.6577061933 0.5741880057 0.2443724799
0.656283062 0.5674085861 0.2639484588
0.6538945448 0.5601057823 0.2830792781
0.6516023083 0.5535125977 0.3025610194
0.6500010348 0.5479762103 0.3235547691
0.648308113 0.5433250081 0.3441111086
0.6470354943 0.5398707341 0.364089047
0.2970487881 0.5054947198 0.1499898961
0.3039229651 0.5113289063 0.1517908626
0.3269572707 0.527564492 0.1567223176
0.3774434358 0.5552060956 0.164882097
0.4519139948 0.5856497468 0.1750911443
0.5319840658 0.609318088 0.1858120585
0.6001744028 0.6245873256 0.1975706699
0.6470636854 0.634036035 0.2113077907
0.6712726703 0.6379596435 0.226499302
0.6830546594 0.6385150712 0.2437843544
0.6874406428 0.6366809197 0.2627723941
0.6884625905 0.6330130222 0.2824343621
0.6876054401 0.6282750632 0.3016420994
0.6863660392 0.6234577643 0.3211733946
0.6853528096 0.6191377259 0.3420496794
0.6845433272 0.6153509425 0.3625483457
0.6833130147 0.6119929947 0.3823887989
0.3234539964 0.5309029573 0.1594573783
0.3298156722 0.5358282605 0.1610467191
0.349248153 0.5490517711 0.1652250323
0.388527458 0.571345939 0.1727444067
0.4493231442 0.5986789243 0.1826181905
0.5220890484 0.6251898995 0.1947795667
0.5919669169 0.6464653062 0.2084695606
0.6446861465 0.6600058127 0.2224154064
0.6764605026 0.6674327683 0.2379034209
0.693697202 0.6713074898 0.2563324635
0.7021858312 0.6726886386 0.2759322151
0.7058785403 0.6726180555 0.2958503851
0.7072803526 0.6716215192 0.3149635204
0.7078558798 0.6702855295 0.3348989573
0.7081265896 0.6687811652 0.3560060505
0.7083633262 0.6669075005 0.3763303579
0.7080292897 0.6646821777 0.3959863675
0.3500569712 0.554465728 0.1694769351
0.3557900574 0.5586262327 0.1710159319
0.3723962707 0.5692408106 0.1745157353
0.4026161422 0.5864847694 0.1810289417
0.4521274001 0.6103134008 0.1908595355
0.5147795189 0.6356186351 0.2035179399
0.5817456882 0.6580253833 0.217604051
0.6361618935 0.6737697415 0.2319553119
0.6737662262 0.6840496278 0.2476997288
0.6965772387 0.6909639946 0.2662045912
0.7090197057 0.6951553398 0.2863822775
0.7150895544 0.6972464952 0.306247856
0.7182194478 0.6981992442 0.3254399369
0.7196065271 0.6982766317 0.3453744903
0.7205449045 0.6980781419 0.3660600718
0.7211857073 0.6972791666 0.3860487449
0.7216952049 0.6962216583 0.40535776
0.3762092808 0.5760458087 0.1802980842
0.3809995848 0.5793446193 0.1817421483
0.393950711 0.5872570611 0.1847600047
0.4185059157 0.6011457097 0.1908348535
0.4588422363 0.6211545072 0.2001938059
0.5117687 0.6439369301 0.2125119646
0.5736602701 0.6662990847 0.226524779
0.6281762899 0.6834191088 0.2415679257
0.6690130855 0.6951437723 0.2579133499
0.6945488852 0.7025431916 0.2755440245
0.7102320979 0.7077103583 0.2949820667
0.718826769 0.7110440786 0.3147380915
0.7233630426 0.7131001629 0.3340007691
0.7258579464 0.7146397049 0.3542307411
0.7274904337 0.7156991747 0.3745516441
0.7287056847 0.716396664 0.3941255885
0.7298729993 0.7167048421 0.4130176044
0.3992964616 0.5946800945 0.1921657482
0.4032827081 0.5972640524 0.1935015076
0.4144444787 0.6037337904 0.1963897767
0.4350254941 0.6149997097 0.2019802448
0.4682239399 0.6314779298 0.2106899116
0.5125273399 0.6510650213 0.2220909266
0.5679823332 0.6722046191 0.2358687572
0.6207576111 0.6899549327 0.251406355
0.6629812614 0.7028342365 0.2681888407
0.6907420961 0.7110803035 0.2856794985
0.7091532107 0.7166828333 0.3036664093
0.7201761236 0.7206033329 0.3223123186
0.7259973728 0.7233242472 0.3419002096
0.7295091881 0.7254254911 0.3623336692
0.7315435937 0.7269084029 0.382435772
0.7330210022 0.7279631457 0.4014222963
0.7343411368 0.7287507902 0.4199090447
0.421164302 0.6115039637 0.2053135796
0.4247388529 0.613628005 0.206541661
0.4344616332 0.6189096894 0.2091516217
0.4518878868 0.6278606504 0.2138022181
0.4792949629 0.6410302986 0.2212244704
0.5162483291 0.6575399872 0.2319432079
0.5649700229 0.6767757674 0.2456088338
0.6143428684 0.6942701015 0.2614920136
0.6563375539 0.7076873264 0.2783679979
0.6864991391 0.7167952961 0.2957590039
0.7065662274 0.7228268509 0.3129151076
0.7194584713 0.7270269837 0.3300789444
0.7270201185 0.7303053496 0.3492846452
0.7315509596 0.7329898485 0.369950844
0.7341422523 0.7348839143 0.3896248482
0.7359972909 0.7363786482 0.408467012
0.7374189624 0.7374809302 0.4266281578
0.4421959692 0.62657048 0.2187712378
0.4453153189 0.6283052315 0.2198715295
0.4539824842 0.6327523555 0.2222913303
0.4688723432 0.6399618593 0.2261633459
0.4913876913 0.6507170833 0.2333498428
0.5228986713 0.6647971505 0.2439092802
0.5651237855 0.6815344069 0.2571219763
0.609758977 0.6975172922 0.2724402288
0.650199174 0.7106462634 0.2887284497
0.6820138395 0.7203044049 0.3054566327
0.7032999995 0.7267796688 0.3220096829
0.7175652447 0.7313552253 0.3388445714
0.7268577022 0.7349440599 0.3570106217
0.732199695 0.7378197409 0.3768331347
0.7355868453 0.7401313174 0.396410054
0.7377453367 0.7418963585 0.4150902642
0.7394006306 0.7433209418 0.4329263612
0.46246976 0.6404402334 0.2330172622
0.4653872747 0.6419828292 0.234120165
0.4728705835 0.6456780181 0.2364758987
0.4854407275 0.651431101 0.2397333838
0.5040786395 0.660378785 0.2471172222
0.5315744066 0.6723176891 0.2568456754
0.5678137202 0.6865147736 0.2690183982
0.6075130016 0.7006900813 0.283433893
0.6454858378 0.7130432139 0.2993122853
0.6776480415 0.7226033841 0.3151695577
0.6996012682 0.7291635101 0.3311382371
0.7151970878 0.7340939196 0.3478833531
0.7256155912 0.737918963 0.3658169939
0.7320223293 0.7408779569 0.3840263787
0.7361211002 0.7433348583 0.4027146061
0.7386658272 0.7453833236 0.4213000227
0.7406039218 0.7470551162 0.4390451018
0.4817881118 0.6532650022 0.2485961285
0.4841955226 0.6545028835 0.2496885754
0.4906570733 0.6575703517 0.2519796876
0.5010980224 0.6621284252 0.2548661688
0.5174370865 0.6696500946 0.2617664575
0.5416843723 0.6796414367 0.270119935
0.5726233543 0.6917174192 0.2819035645
0.6076334783 0.7042057191 0.295768365
0.6425013923 0.7154074461 0.3102165388
0.6737976431 0.7245393489 0.324851593
0.6961849042 0.7311045736 0.3404552418
0.7127996628 0.7362090356 0.357466101
0.7240280675 0.7400418506 0.3748197471
0.7313435406 0.742996546 0.3920689474
0.7360389798 0.7453765395 0.4092435751
0.7390619117 0.7474776174 0.4272612359
0.7412010633 0.7492633732 0.4446888744
0.4993488989 0.664621815 0.2649848344
0.50150942 0.6656853281 0.2660666621
0.5071386311 0.6682409559 0.2682535894
0.5166605027 0.6721800541 0.2709378846
0.5315261582 0.6785567173 0.2768979534
0.5526604111 0.686853118 0.2841759386
0.5789953773 0.6970225654 0.2955608625
0.6095146985 0.7075861573 0.3076827316
0.6409974608 0.717495603 0.3205597429
0.6706186776 0.7262085551 0.3349708347
0.6932616896 0.7328052295 0.350387046
0.7104153714 0.737935956 0.3668672688
0.7223866549 0.7418354297 0.3839412469
0.7305453892 0.7447985713 0.4004192353
0.7356560137 0.7471266454 0.4168598357
0.7392290085 0.7491014976 0.4332335979
