app/src/main/assets/spektrafilm/profiles/kodak_ektachrome_100_film.cube
# ============================================================================
# spektrafilm LUT
# Bundle:  spektrafilm_v033_ektachrome100_portraendura_1lut_prophoto_prophoto  (1lut, 17^3)
# Film:    kodak_ektachrome_100
# Print:   kodak_portra_endura
# Input:   ProPhoto RGB  (cctf on)
# Output:  ProPhoto RGB  (cctf on)
# Created: 2026-06-02T06:53:56Z
# spektrafilm: 0.3.3
# Project: https://github.com/andreavolpato/spektrafilm
#
# Copyright (c) 2026 Andrea Volpato. Generated by spektrafilm. Licensed under CC BY-SA 4.0.
#
# License: spektrafilm LUT by Andrea Volpato, licensed under CC BY-SA 4.0.
#          Full text and attribution requirements in SPEKTRAFILM_LICENSE.txt
#          (shipped in this bundle); also at
#          https://github.com/andreavolpato/spektrafilm/blob/main/SPEKTRAFILM_LICENSE.txt.
#
# Citation: If you use this LUT in your work, please cite the spektrafilm
#           project: https://github.com/andreavolpato/spektrafilm, see
#           CITATION.cff for details.
#
# Notes: Generated by the spektrafilm LUT bundle builder. Apply with trilinear
#        or tetrahedral interpolation in your host (DaVinci Resolve, Nuke,
#        OCIO-aware DCC). The input and output color spaces are declared in
#        bundle.json; do NOT apply this LUT to a signal in a different color
#        space.
#
# File: lut_v033_ektachrome100_portraendura.cube  (see sibling bundle.json for full metadata)
# ============================================================================
TITLE "v033_ektachrome100_portraendura"
DOMAIN_MIN 0 0 0
DOMAIN_MAX 1 1 1
LUT_3D_SIZE 5
0.006177993081 0.005550346328 0.004767449414
0.2770333165 0.08743845182 0.04048408562
0.3146856775 0.09418548382 0.09113447664
0.349646634 0.115190977 0.1756151099
0.4120795089 0.162661105 0.2738089249
0.1236945845 0.2573561623 0.07057841062
0.4910864957 0.4564755476 0.115681436
0.6053590137 0.4534839048 0.1446437718
0.601120115 0.4276385381 0.2196550308
0.607135987 0.4310003762 0.3179910447
0.1514372194 0.3236913271 0.09642207071
0.355815291 0.4912706536 0.1319036998
0.7236375205 0.6930178807 0.2019675729
0.7629233285 0.719429376 0.2756905605
0.7661813507 0.72207543 0.3603533081
0.1764133161 0.3802312116 0.1429154868
0.2980241843 0.4835789793 0.1592827577
0.6671011093 0.7055607213 0.229327242
0.7754525755 0.7603967019 0.2975249989
0.7869368462 0.7739175621 0.3777031122
0.2247349514 0.4481442392 0.2142942484
0.3173127131 0.5244483947 0.221562739
0.5856729637 0.6858466313 0.2696738822
0.762603234 0.7667100123 0.3278566748
0.7885502333 0.7826208556 0.3954136496
0.07425522351 0.03561448974 0.2013453281
0.2832103542 0.08848437358 0.2886801056
0.3446821358 0.1080003633 0.3472763282
0.3779070422 0.1271575174 0.3927365343
0.4384096094 0.1738177616 0.4650946572
0.1554049277 0.3037421409 0.3795761999
0.461300139 0.4592197486 0.4475781272
0.6109992749 0.4453245911 0.4702758648
0.5897609081 0.3849511212 0.4890096007
0.5892353293 0.3773178666 0.5201233963
0.1849639915 0.4006829264 0.3442801376
0.4084606301 0.5953966855 0.419173134
0.7404962313 0.7374378738 0.4559934629
0.7727709378 0.7399332842 0.4901312584
0.7734255169 0.7297980379 0.5316505274
0.2076520929 0.4371568581 0.33033038
0.3541743686 0.5737806225 0.377791245
0.696781827 0.754606682 0.4333759244
0.784386957 0.7827806916 0.4703480759
0.7937728816 0.7870633093 0.5186890303
0.2504588965 0.4861661655 0.3507878907
0.3569427999 0.5778781889 0.3787926489
0.6245890702 0.7304934497 0.4301881551
0.7731535652 0.7857052683 0.4677186058
0.7946555077 0.7942619741 0.515606897
0.1440735887 0.1068289972 0.4101843011
0.2614755398 0.1257143998 0.4603011012
0.4032132635 0.1465934538 0.461896316
0.4430574679 0.174125162 0.5106847203
0.4979638585 0.2272889849 0.5783274828
0.2014350718 0.2971846176 0.5603610331
0.385972561 0.4392626634 0.6699116027
0.6489361331 0.4887634316 0.6958552239
0.6426799895 0.4428080615 0.6935079113
0.6353740081 0.4265188981 0.696152772
0.2393392212 0.4292829236 0.6067636653
0.4006441019 0.5872532938 0.7005382109
0.7544154721 0.7513310773 0.7451989733
0.7934674622 0.7535261447 0.7510145249
0.7928753552 0.738658456 0.7604528963
0.2704849212 0.4861825104 0.6058545869
0.4182777797 0.6224845951 0.685988816
0.7238390517 0.7789845424 0.7290475365
0.8020300397 0.798041578 0.725898023
0.8092597428 0.7983555852 0.7346913528
0.3211706051 0.5466186409 0.6111073878
0.4349063173 0.639052149 0.6627428255
0.6767366046 0.7682361752 0.7096731397
0.7930090319 0.8027861764 0.7091626847
0.8090087519 0.8060784715 0.7179807107
0.1845587923 0.2013907781 0.5265506284
0.2079668928 0.2405189815 0.5656051932
0.5326662525 0.291555931 0.6377145569
0.5435033578 0.2836152315 0.6320006855
0.5669027108 0.3140054833 0.6563887846
0.2161195345 0.3103325492 0.5974994745
0.2514032791 0.3662093566 0.6406279754
0.6690897424 0.5450225222 0.7617643379
0.685372466 0.5138788323 0.7503741432
0.6775725894 0.4954449578 0.7458073398
0.2508299736 0.4261073166 0.6557206724
0.3125815911 0.5001406367 0.7065021475
0.7396321206 0.7493290779 0.8129524335
0.7994347288 0.7588544629 0.8080050293
0.8012544627 0.7489129691 0.8102137995
0.2816401585 0.4823637782 0.682533591
0.3922023184 0.5925379309 0.7492102766
0.708213617 0.7747126581 0.8121036237
0.8070439982 0.800300993 0.8008155494
0.8152615022 0.8007806474 0.8022458994
0.3476245416 0.5588427735 0.7199991287
0.452988751 0.6451498862 0.7665592955
0.6816951347 0.7713396246 0.8077725757
0.799570219 0.8058806788 0.7957720702
0.8156946782 0.8087938834 0.794587652
0.2071111539 0.2716682053 0.5797691111
0.2148901365 0.2927966176 0.59448564
0.556664629 0.4124281011 0.7118511416
0.6323983046 0.4220942651 0.7167850626
0.6329644824 0.4185604052 0.7159366956
0.2258454467 0.3365567091 0.6177107794
0.2374861337 0.3652863904 0.6356255001
0.636754515 0.5845340858 0.7845625743
0.7301745791 0.5968013973 0.7887622641
0.7189156995 0.5678451402 0.7791614744
0.2528854832 0.4240278076 0.6625578615
0.2720791822 0.4513122775 0.6817595561
0.6830311115 0.7336247065 0.8263256674
0.7998605114 0.7645385627 0.8194390272
0.8046276026 0.7575331856 0.818667279
0.2774440831 0.4708348269 0.6889259579
0.3379590651 0.5389176934 0.7329065726
0.6660059742 0.7583938734 0.8300060042
0.8048750239 0.8003049504 0.817202008
0.8162390815 0.8015899433 0.8150098512
0.3383616034 0.5437644764 0.7323867966
0.4271005685 0.6222111971 0.7761491665
0.6524401935 0.7590312063 0.8291312845
0.7958047166 0.8053554694 0.8172487878
0.8169784983 0.8092805475 0.812842622
