app/src/main/assets/spektrafilm/profiles/kodak_vision3_200t_film.cube
# ============================================================================
# spektrafilm LUT
# Bundle:  spektrafilm_v033_vision3200t_8printpack_2lut_prophoto_prophoto  (2lut, 17^3)
# Film:    kodak_vision3_200t
# Print:   fujifilm_crystal_archive_typeii, kodak_2383, kodak_2393, kodak_ektacolor_edge, kodak_endura_premier, kodak_portra_endura, kodak_supra_endura, kodak_ultra_endura
# Input:   ProPhoto RGB  (cctf on)
# Output:  ProPhoto RGB  (cctf on)
# Created: 2026-06-02T06:13:10Z
# spektrafilm: 0.3.3
# Project: https://github.com/andreavolpato/spektrafilm
#
# Copyright (c) 2026 Andrea Volpato. Generated by spektrafilm. Licensed under CC BY-SA 4.0.
#
# License: spektrafilm LUT by Andrea Volpato, licensed under CC BY-SA 4.0.
#          Full text and attribution requirements in SPEKTRAFILM_LICENSE.txt
#          (shipped in this bundle); also at
#          https://github.com/andreavolpato/spektrafilm/blob/main/SPEKTRAFILM_LICENSE.txt.
#
# Citation: If you use this LUT in your work, please cite the spektrafilm
#           project: https://github.com/andreavolpato/spektrafilm, see
#           CITATION.cff for details.
#
# Notes: Generated by the spektrafilm LUT bundle builder. Apply with trilinear
#        or tetrahedral interpolation in your host (DaVinci Resolve, Nuke,
#        OCIO-aware DCC). The input and output color spaces are declared in
#        bundle.json; do NOT apply this LUT to a signal in a different color
#        space.
#
# Role:    film  (domain=input_rgb → range=cmy_film)
# File: lut_v033_vision3200t_film.cube  (see sibling bundle.json for full metadata)
# ============================================================================
TITLE "v033_vision3200t_film"
DOMAIN_MIN 0 0 0
DOMAIN_MAX 1 1 1
LUT_3D_SIZE 17
0.1161305307 0.1121201928 0.09941346058
0.3118356787 0.1124505469 0.1156117931
0.4870994984 0.1133434406 0.1835796372
0.5752338072 0.1152768297 0.2739535268
0.639579106 0.1184372714 0.3494974838
0.6888290185 0.1227112516 0.4027729894
0.7310387568 0.1270354639 0.4391833002
0.7646179538 0.1329151195 0.4684637802
0.7925598031 0.1385695741 0.4937212748
0.8176895589 0.1444147058 0.5142324684
0.8404467322 0.1510125847 0.5349378001
0.8598809174 0.1579515153 0.5518905803
0.8767137743 0.1654420861 0.5671961224
0.8913124619 0.17256012 0.5839164622
0.9036097028 0.1791538858 0.5992775474
0.9161750479 0.1868250249 0.6128963079
0.9286244466 0.195939456 0.6259589696
0.1167520669 0.3725182721 0.09965442061
0.293889914 0.289309832 0.1016797612
0.510741178 0.1880146779 0.111784366
0.6173850501 0.1552545203 0.1349467027
0.6852568761 0.1440273985 0.1708327889
0.7307274155 0.1402601016 0.2267118502
0.7606320355 0.1410427055 0.300843711
0.7853822444 0.1436244004 0.3686261255
0.8089378779 0.1476840904 0.4214140642
0.830283276 0.152963323 0.4583053931
0.8500924748 0.1590062319 0.4888914144
0.8674658452 0.1656432383 0.5131302853
0.8827332679 0.1719535442 0.5358492786
0.8958386278 0.1780005386 0.5549430046
0.9079157556 0.1849911609 0.572491862
0.9202923531 0.1933190299 0.5906251366
0.9319744048 0.2021549858 0.6063221575
0.1199919484 0.5517279261 0.100465912
0.2157073384 0.5188120376 0.1026464101
0.4645913256 0.4416978541 0.1107718455
0.5775185053 0.3779598432 0.1256213093
0.6599021503 0.3196485298 0.148775906
0.7228024256 0.2711062777 0.178559842
0.7689299813 0.2425001022 0.2138807708
0.8048778084 0.2237384783 0.2521258401
0.8337884515 0.2118323176 0.2908531873
0.8573510286 0.2033794131 0.3328960191
0.874520504 0.2000420457 0.373227394
0.8882355625 0.2005453327 0.4117847594
0.899665674 0.2032040115 0.4428824314
0.9107650776 0.2072206249 0.472912193
0.9223610126 0.2120788394 0.500660875
0.9327650974 0.2170736311 0.5241008754
0.9411239896 0.2229716871 0.547381054
0.1298032093 0.6647948451 0.1029639703
0.1943498879 0.6387064884 0.105700828
0.4188841325 0.5675106322 0.1118464434
0.5510934195 0.5166350308 0.1257924332
0.6317755773 0.4732896117 0.1447063307
0.6955689519 0.4361962499 0.1672522372
0.7485338381 0.4005838174 0.1946866654
0.7893744311 0.3684898149 0.2255396616
0.8241696502 0.3433630624 0.2619914234
0.8536169718 0.3223872731 0.2952019622
0.87684392 0.3058543719 0.3268628214
0.8953373908 0.2936306879 0.3540369065
0.9107070404 0.2831851241 0.3797221834
0.9257327534 0.2743766436 0.4053294248
0.9372858089 0.2691902213 0.4294090801
0.9453247218 0.2675967216 0.4529671548
0.9523489847 0.2682456794 0.475959773
0.1464050865 0.7442572202 0.1072855759
0.1990854974 0.7275381049 0.1097939224
0.3779533457 0.6674419015 0.1158522242
0.5222394276 0.6118449651 0.1268150898
0.6084912441 0.5682897441 0.145089927
0.6739103993 0.5343483047 0.1653005629
0.7285576425 0.5028979031 0.1895744797
0.7712696139 0.4755647037 0.2153297669
0.8087239296 0.4518335913 0.2458408017
0.8407397425 0.4307595572 0.2752850502
0.867439496 0.4102475288 0.3063469879
0.8891984396 0.3959625803 0.3359618043
0.9067036766 0.3826953028 0.3602439129
0.9240158613 0.3697907443 0.3812632164
0.9382343552 0.3593868033 0.402766544
0.9482389244 0.351690657 0.4213569628
0.9578845439 0.3454068861 0.4379822439
0.1670807061 0.7979978041 0.113109444
0.2128063116 0.7843391212 0.1152626925
0.3541787631 0.7423266417 0.1208470079
0.4905572818 0.6911808339 0.1295821811
0.5860716116 0.6467298155 0.1459630069
0.6560461962 0.6131119999 0.1659102037
0.7125334753 0.5790167731 0.1878461195
0.7562217635 0.553529934 0.2116258394
0.7932246922 0.5305549454 0.2387677185
0.8261166038 0.5084980762 0.2663230738
0.8555367738 0.4887809968 0.2925357443
0.8797332059 0.4730091512 0.3213953899
0.8992202153 0.4582319784 0.3457643895
0.9169666101 0.4458961228 0.3677377267
0.9337590746 0.4350122873 0.3892728532
0.945519693 0.42480855 0.4091062054
0.9560849268 0.4158667993 0.4247781707
0.1897199283 0.8355326394 0.1197698621
0.2282928629 0.8261378676 0.1212765189
0.3433629551 0.7943718678 0.1264015915
0.4677454933 0.7529329821 0.1344633454
0.5636934705 0.7145913866 0.1469173299
0.6372516342 0.6788041142 0.1661007848
0.6944999016 0.6471527521 0.1882794779
0.7428768537 0.6202485271 0.2107788684
0.7807391983 0.5964952478 0.2361637215
0.8136655514 0.5732367794 0.2622955966
0.8434121161 0.5551956064 0.2861783041
0.8690710624 0.5378652317 0.3129913427
0.8905543631 0.5222251347 0.3362436192
0.908351835 0.5071965873 0.3568122794
0.9264241937 0.4937156009 0.3764434265
0.9408950487 0.4827885061 0.3961541405
0.9516232759 0.4737573669 0.4147716317
0.2155541655 0.8626984478 0.126573555
0.2461336385 0.8547490435 0.1275476835
0.3415385333 0.832623597 0.132682208
0.4516130335 0.8001945338 0.140797686
0.5441558 0.7656936413 0.151819493
0.619653344 0.735731819 0.1676120417
0.6772289457 0.7078603924 0.1888807883
0.7288992813 0.6799552977 0.2116290322
0.7689103238 0.6553106592 0.2347657443
0.8028454316 0.6303338169 0.2592581958
0.8323780697 0.6136432809 0.2820522163
0.8588711905 0.5946727633 0.3073440276
0.8815055696 0.5768629949 0.3303580031
0.9001446015 0.5628090821 0.3504245889
0.9179886833 0.5495452778 0.3689268761
0.9347617884 0.5374329035 0.3869435293
0.9467220736 0.5264556227 0.4054201262
0.2371522423 0.8848507457 0.1341911679
0.268497887 0.879307943 0.1353722888
0.3455907063 0.8602489096 0.1402604426
0.4407059305 0.8361261115 0.1473759272
0.525519566 0.8090577907 0.1573638157
0.5995114657 0.7792528216 0.1707983189
0.6635074865 0.752488515 0.1896831773
0.7153706477 0.7316135159 0.2115022613
0.7566211157 0.7080836562 0.2347104568
0.7919213446 0.6847890364 0.2587422666
0.8230195333 0.6662685429 0.2803400162
0.8502189889 0.6469262724 0.3047947838
0.8731388425 0.6289066325 0.3271980521
0.8925707974 0.6153411674 0.3459312123
0.909541813 0.6003608991 0.3633819448
0.9271772556 0.5843041332 0.3802253242
0.941382861 0.5725827469 0.3974161411
0.2622792337 0.8996562138 0.1425466763
0.2869891256 0.8956860507 0.1432109296
0.3524257776 0.8832879938 0.1477520583
0.4343297231 0.8632349584 0.1540263763
0.5108463303 0.8413154359 0.1640374026
0.5818441473 0.8173628396 0.1760226466
0.6479268574 0.7929690433 0.1909407532
0.7023342882 0.7700090778 0.2125713899
0.7445999212 0.7500668467 0.2349027242
0.7807749984 0.7319969061 0.2589167065
0.8132856762 0.7138841118 0.2796245465
0.841428113 0.6945550692 0.3019547931
0.8653062923 0.6774076354 0.323939287
0.8855860169 0.6623504889 0.3424924692
0.9023454746 0.646005491 0.3595234178
0.9195569122 0.6308870348 0.3758565524
0.9356123643 0.6201028273 0.3926492861
0.2845532783 0.9114468232 0.1505676445
0.3046609511 0.9082459697 0.1509923014
0.3610827156 0.8998632065 0.1544734274
0.431935583 0.8864524636 0.1609180565
0.5012583107 0.8671847485 0.1706422218
0.5679366263 0.8465106845 0.1821684227
0.6303911773 0.8261075057 0.1957479603
0.687027028 0.8055418797 0.2120001381
0.7331719207 0.78530504 0.2350238083
0.7702811665 0.7672409323 0.258649331
0.80342638 0.7513855187 0.2795669868
0.8323923276 0.7365788131 0.3016658753
0.8579177442 0.7216237314 0.3224565015
0.8791417861 0.7058145109 0.3405485953
0.8965276994 0.6899784081 0.3571675858
0.912550722 0.6763234177 0.3728700668
0.9293373429 0.6639659607 0.3884485122
0.3045766031 0.9224554758 0.1588438715
0.3246041228 0.9198728339 0.159179247
0.3716794982 0.9131639976 0.1627133775
0.4328134784 0.9018294575 0.1697818779
0.4953545206 0.8891520117 0.1786696159
0.5587663662 0.8713685725 0.1894330785
0.6166047939 0.8529011496 0.2012701715
0.6708605696 0.835101977 0.2163709303
0.722786111 0.8165172096 0.2367207418
0.7606034981 0.800669948 0.2589567141
0.7935939843 0.7846903708 0.279427059
0.8232228539 0.7691797724 0.3014700282
0.8498053884 0.7549402453 0.3217683785
0.872227213 0.7419354363 0.3388795
0.8908731059 0.7293552761 0.3548875698
0.906738777 0.7166983519 0.3704553158
0.9232554869 0.7036937998 0.3857580097
0.3259679802 0.9318850649 0.1680825212
0.3427424072 0.9298823976 0.168470909
0.3820534276 0.9245106128 0.1715881963
0.4360624589 0.9147841043 0.1784920734
0.4919367689 0.9043897996 0.1868061331
0.5516272786 0.8917895944 0.1963863994
0.6056548598 0.8771254596 0.2084341177
0.6588771819 0.8594181653 0.2222406135
0.7098701131 0.8436310319 0.2385279914
0.7515643708 0.8282204641 0.2608222554
0.7844952854 0.8147007406 0.2799429176
0.8148219108 0.8010341002 0.3020560361
0.8417119433 0.7866678346 0.3223244588
0.865250172 0.7728372894 0.3390421471
0.8851456845 0.7601235712 0.3541045298
0.9014838354 0.7487046964 0.3688805063
0.9175071217 0.738122993 0.3835732663
0.3449401388 0.9396272475 0.1775008268
0.359218947 0.938199059 0.1780239985
0.3918148253 0.9339988381 0.1802068525
0.4405954749 0.9261308869 0.187419747
0.4904575295 0.917462758 0.1945431717
0.5461307134 0.9062245514 0.2041606902
0.5967989017 0.8950360019 0.2164191193
0.6479688301 0.8819546808 0.2283900185
0.6962074063 0.8666142921 0.244883879
0.7405702588 0.8518021378 0.2607519035
0.7763097972 0.8391852677 0.2816299637
0.8068263312 0.8274248233 0.3025930453
0.8338105892 0.8149523305 0.322932302
0.8583304038 0.8026503183 0.3396394211
0.8791327944 0.7902691637 0.3546688256
0.8964901558 0.7780941352 0.3688032968
0.9121899508 0.7669154679 0.3827523116
0.3623381019 0.9460599148 0.1867764784
0.3746647997 0.9449143348 0.1871921074
0.4015290803 0.9416584622 0.1889584608
0.4457637777 0.9359545887 0.1955394651
0.4904332829 0.9287124899 0.2031057357
0.5420741602 0.9188680762 0.2119484554
0.5887919563 0.9087572374 0.2238167111
0.6378843189 0.8980503258 0.2360795018
0.6835479868 0.8870376111 0.2509615763
0.7287482701 0.8734980977 0.2655407839
0.7678628009 0.8599675051 0.2825595273
0.7990731276 0.848962892 0.3040340715
0.8261855442 0.8385026125 0.3233729044
0.8513432662 0.8275287769 0.3400440436
0.8729099825 0.8165790359 0.3552547455
0.8912869502 0.8059052052 0.369296333
0.9070858017 0.7953261385 0.382817726
0.3783157696 0.9515737054 0.1960620059
0.3880882314 0.9505560638 0.1962941508
0.4119264553 0.9479121226 0.1981713185
0.4509827513 0.9438340897 0.2034951516
0.4915796853 0.9380215426 0.2126110024
0.5391185121 0.9300344695 0.2206198518
0.5828561468 0.9210467739 0.2312156917
0.6294135381 0.9109868051 0.2445046859
0.6731298277 0.901495082 0.2571519593
0.7185093192 0.8912590383 0.2705009199
0.7573897341 0.8803677231 0.284320394
0.7913627873 0.8682874876 0.305635299
0.8191307433 0.8579774481 0.3242649882
0.8443775938 0.8482137929 0.3401957504
0.8666885804 0.8388028791 0.3555491248
0.8859784491 0.8291756779 0.3696841026
0.902003929 0.8195879876 0.3830691768
0.3917546276 0.9568162118 0.20557745
0.4000477869 0.9559168858 0.2057323324
0.4231704483 0.9536140599 0.207955554
0.4570695176 0.9502152913 0.2127491963
0.4936334438 0.9453713787 0.2216068733
0.5374734837 0.9391847006 0.2289361192
0.5781749735 0.9317761596 0.2403624769
0.6224029486 0.9230854975 0.2527388232
0.6653984404 0.9140548396 0.2640064842
0.7090339412 0.9047450304 0.2757054493
0.7471684433 0.8957959078 0.2895071238
0.7817648116 0.8867906993 0.3050806351
0.8124477717 0.8767752164 0.3255101829
0.8375783892 0.8668221267 0.3406932438
0.8605908147 0.8575719002 0.3557349618
0.8804188025 0.8488202974 0.3698514915
0.8971440493 0.8403089078 0.3832163533
0.1161305307 0.1132166767 0.3021849477
0.3033032663 0.1127067797 0.4278375444
0.4771536958 0.1135351867 0.4963366912
0.5685889138 0.1155386026 0.4995345326
0.6390927943 0.1184196493 0.4935324072
0.6929592403 0.1232844924 0.4884396137
0.7402242642 0.1290371242 0.4673819212
0.7715628608 0.136229998 0.4598306728
0.7992476338 0.142246767 0.4672229345
0.8246720798 0.1491227888 0.4802117512
0.8458993337 0.1555003551 0.5056943583
0.864197358 0.1624463938 0.5275338993
0.8800989804 0.1692970568 0.5477778213
0.8938871398 0.1757820524 0.5647358092
0.9060877844 0.1825482672 0.5822900686
0.9185299187 0.1905901427 0.5989800845
0.930557728 0.1996421521 0.6133349009
0.1167159479 0.3415913961 0.2541281266
0.2739902052 0.2777353414 0.2461262232
0.4991821346 0.1751777952 0.2334040804
0.60953115 0.1448084958 0.2447255434
0.6758601099 0.1400809283 0.2698208531
0.7257246273 0.1415353382 0.2947336395
0.7643578694 0.1456887965 0.3214009624
0.7944864655 0.1497969479 0.347800129
0.8185983631 0.1575784419 0.3741592243
0.8394346916 0.1622359965 0.415035251
0.857393514 0.1667878118 0.4519219892
0.8730321026 0.1717485654 0.4842303748
0.8872968222 0.1771252833 0.5105362016
0.8992806661 0.1829859295 0.5339923463
0.9110171221 0.1903945558 0.5545604065
0.9233399476 0.1988738278 0.5729728305
0.9340971077 0.2069335507 0.5913758627
0.1216869618 0.5405465896 0.1522500582
0.219898622 0.5075613949 0.1613502284
0.4586353438 0.4380626634 0.1573015363
0.5710641353 0.3775436224 0.1638429804
0.6551603823 0.3230912768 0.1794265569
0.7187086052 0.2830890567 0.1996620094
0.765460492 0.25712637 0.2247667139
0.8021372528 0.2441211512 0.2534264381
0.832586609 0.2353603588 0.2806716651
0.8578408223 0.224508644 0.320304395
0.8771976513 0.2172326901 0.3554944588
0.8916563172 0.2146945997 0.3930974089
0.9031680541 0.2151419027 0.4260064804
0.9142656494 0.217155594 0.4542616876
0.9256450785 0.2205112159 0.4824174774
0.9354066724 0.2245441166 0.5072278655
0.9430992762 0.2293793548 0.5308098519
0.1303626931 0.6623168733 0.1210425752
0.1928213446 0.6369434825 0.126306476
0.4121779301 0.5684108604 0.1314771246
0.5462949661 0.520792514 0.1442319643
0.6261191328 0.4801895448 0.1581631733
0.6905047909 0.4470791327 0.1765804135
0.7442156715 0.4160266847 0.1964385123
0.7854327003 0.3894558491 0.2220273503
0.8212126363 0.361481515 0.2578124263
0.8513693788 0.3412461951 0.2911455488
0.8753548714 0.3232225933 0.3232578699
0.894541405 0.3096996642 0.3501202363
0.910388576 0.2994800535 0.37534352
0.9258738528 0.2903846675 0.399989588
0.9380906455 0.283406575 0.4226459916
0.9464159683 0.2793327722 0.445156784
0.9537137863 0.2784859171 0.467704058
0.1442200451 0.746698341 0.1146250281
0.1916671764 0.7317962038 0.1176977602
0.3679006897 0.6733648885 0.1229977821
0.5143227719 0.6183597593 0.1316460967
0.603142156 0.5767725557 0.1478781163
0.6697165099 0.5450069381 0.1644834384
0.7251353687 0.5142734909 0.1884905221
0.7682670949 0.485873128 0.2139345541
0.8060888947 0.4624764263 0.2441007953
0.8384103752 0.4418055489 0.2733560989
0.865638043 0.4214917139 0.3036428565
0.8878883861 0.4051416389 0.3332001716
0.9055495025 0.3928506275 0.3582721977
0.923087604 0.3809025421 0.3792785447
0.9376635991 0.3698303973 0.4004777239
0.9479713208 0.360783672 0.4190877962
0.9577127442 0.3541605692 0.4357817583
0.1633197984 0.8022180913 0.1152802959
0.2023054841 0.7923140508 0.1156986204
0.3406005981 0.751165065 0.1209428146
0.48233196 0.7015689356 0.1293831573
0.5806170591 0.656389025 0.1453091277
0.6523232544 0.6202588135 0.1652887194
0.7093608234 0.5872111699 0.187191362
0.7538509777 0.5609213641 0.2107522701
0.7909833299 0.5379297306 0.2377106316
0.8240756177 0.5163333622 0.2651638738
0.8537513726 0.4960502602 0.2911288328
0.8782887218 0.4797889762 0.3196961884
0.8980643388 0.4651330941 0.3440941424
0.9158068685 0.4522292374 0.3660270549
0.9329717433 0.441539419 0.3873402873
0.944939022 0.4316195752 0.4077770845
0.9555296233 0.4226537098 0.4236582791
0.1863483534 0.8380799379 0.1215655435
0.221466368 0.8316446382 0.1213968089
0.3328453586 0.8012399975 0.1264057809
0.4608818111 0.7590328423 0.1346556816
0.5584238289 0.72159615 0.14683484
0.633228611 0.6849524219 0.1654967535
0.6909925202 0.6541492814 0.1876034313
0.7404647979 0.6253386484 0.2101199862
0.7788934271 0.6029008242 0.2352286602
0.8120490163 0.5787706994 0.2615513705
0.8418537838 0.5606461851 0.2853724034
0.8677387737 0.5432694483 0.3120286546
0.889476995 0.5275678218 0.3353148688
0.9073313529 0.5127241956 0.355785444
0.9254525665 0.4989003329 0.3753124755
0.9403040549 0.4873664141 0.3949359166
0.9510858586 0.4783050465 0.4135294868
0.2123942501 0.8647404379 0.1283467389
0.239641312 0.8583983796 0.1278613356
0.3333482569 0.8370452838 0.1329714556
0.4452278391 0.8051375368 0.1406204322
0.5393661004 0.7706450901 0.151633175
0.6156873254 0.7403934615 0.1663331252
0.6743864266 0.712928658 0.1882328926
0.7267376093 0.6848357918 0.2111361342
0.7671712743 0.6605367155 0.2343157851
0.8013606737 0.6353614525 0.2587200414
0.8310492325 0.6175287546 0.2813451819
0.8577021682 0.5997233045 0.3064869043
0.8804341085 0.5810060185 0.3295221272
0.8992309257 0.566639424 0.3495667418
0.9170055768 0.5535112069 0.3681120598
0.9340713924 0.5413680168 0.3861225373
0.9461866717 0.5304283916 0.4045854715
0.2342991263 0.8863664536 0.1359108859
0.2624385427 0.8820414607 0.1355368568
0.3392268605 0.8636008512 0.1404717401
0.4350355892 0.8395311738 0.1473490152
0.5207107198 0.8126650881 0.1575556163
0.5956158469 0.7832548954 0.170708127
0.6611621031 0.7558291133 0.1892574191
0.7132503274 0.735106887 0.210897705
0.7548314976 0.7120613672 0.2340871548
0.790377499 0.6887290026 0.2581732435
0.8217649551 0.6698395053 0.2797412502
0.849174727 0.6511325203 0.3040871063
0.8722098007 0.6323017645 0.3266407327
0.8918056524 0.6184708533 0.3454642881
0.9087854266 0.6043272033 0.362907815
0.926425544 0.5885224181 0.3797108721
0.9408901423 0.5758495895 0.3968474135
0.2589107292 0.9006484256 0.1439926635
0.2828188773 0.8974647342 0.143321549
0.3469343182 0.8859145287 0.1475172407
0.4291657526 0.866027965 0.1539962172
0.5067033053 0.8440190223 0.163928407
0.5783656124 0.8202223878 0.175760027
0.6448404508 0.7959801599 0.1907872175
0.7001033383 0.7728686736 0.2120346987
0.7428901732 0.7527651211 0.2342853624
0.7793738343 0.7348187252 0.2584829866
0.8120870408 0.7170344597 0.27923772
0.8403912981 0.6979089261 0.3014793459
0.8644679698 0.6802833936 0.323442172
0.8848478313 0.6652853284 0.3420252891
0.9017002772 0.6494207158 0.3590452412
0.9188084115 0.6341032424 0.3753391116
0.935040459 0.6225715283 0.3920494312
0.2821130296 0.9123551087 0.1518240827
0.3008821875 0.9096767521 0.1512753255
0.3565558113 0.9014496101 0.1544364133
0.4276028622 0.888238127 0.1609946374
0.4980702783 0.8695342529 0.1706794034
0.5653826602 0.8485020518 0.1822963161
0.6276144943 0.828388961 0.1955472597
0.6842618521 0.807924686 0.2114203069
0.7316057371 0.787739041 0.2345287718
0.76895433 0.7695719946 0.2581537145
0.802192018 0.7535789598 0.2791409407
0.8313306922 0.7387764674 0.3012050863
0.8570500509 0.7240581733 0.3220200901
0.8784602066 0.7085911201 0.3401629299
0.8959664479 0.6926517545 0.3567889704
0.9119759358 0.6787174788 0.3725232977
0.9287584537 0.6664593361 0.3880977815
0.3022376528 0.923205454 0.1600926972
0.3210415891 0.9210457771 0.1596073687
0.3680138034 0.9144647325 0.1628032098
0.4291415645 0.9031543552 0.169928209
0.492764737 0.8906609405 0.1785658595
0.5564044641 0.8733063423 0.1893799502
0.6141895887 0.8547656272 0.2012431922
0.6689035555 0.8370178081 0.2162183016
0.721183966 0.8185253286 0.236045948
0.7593305834 0.8026229543 0.2586178524
0.7924411571 0.7867764139 0.2790456369
0.8222464069 0.771228038 0.301085807
0.8489486382 0.7568179422 0.3214314994
0.8715154881 0.7438028342 0.3385864724
0.8903159547 0.731288529 0.3545499062
0.9062029793 0.7188434394 0.3701016884
0.9227165463 0.7060081843 0.385403941
0.3236617599 0.932474699 0.1693191418
0.3398060301 0.9307758703 0.1688593405
0.3792263815 0.9255939087 0.1715513033
0.4329566777 0.9158973206 0.1786231165
0.4896019506 0.9055577643 0.1867920272
0.5496009854 0.8930449287 0.1962471014
0.6036444574 0.8785524924 0.2086202892
0.6570596073 0.8610777665 0.2221445284
0.7080997569 0.8452086703 0.238443374
0.7502993836 0.829726532 0.2605011881
0.7834036777 0.8162951022 0.2796157239
0.8138916676 0.8027404333 0.3016636257
0.8408594932 0.7884729711 0.3220377605
0.8645471052 0.7745998781 0.3388169499
0.8845624252 0.7617937751 0.3538982984
0.9010155497 0.7503239222 0.368635982
0.9170072183 0.7397247507 0.3832982559
0.3430395856 0.9400690604 0.1785665587
0.3566274902 0.938892821 0.1782737122
0.3896035219 0.9348349881 0.1803976285
0.4379467958 0.9270686777 0.1874057446
0.4884159477 0.918452614 0.1945057544
0.5440237172 0.9072033603 0.2041715346
0.5947227414 0.8960757749 0.2164165002
0.6460433932 0.883306999 0.22837873
0.6943741037 0.8680534385 0.2447795493
0.7390424376 0.8530975183 0.2606249462
0.7753073088 0.8404115022 0.2812950319
0.805931901 0.8287380485 0.30220377
0.8329880889 0.8163497029 0.3226227863
0.8576440172 0.8041254726 0.3394101248
0.8785581975 0.7918311147 0.3544738255
0.8960232452 0.779617007 0.3686341058
0.911739656 0.7683573578 0.3825355084
0.3606497598 0.9464155955 0.1877286349
0.3724301925 0.9454899844 0.18734338
0.3995347035 0.9422643786 0.1892185978
0.443287139 0.9367248327 0.1952386606
0.4886502052 0.9295225361 0.2032750691
0.5401872719 0.9197131041 0.2119100875
0.586933206 0.9096726179 0.2237301718
0.6361894176 0.8988899574 0.2362546244
0.6818939038 0.8879942675 0.2508197074
0.7274178361 0.8747248775 0.2653438677
0.766724236 0.8611906378 0.2819107621
0.7981822166 0.8500089122 0.303694987
0.8254047425 0.8395885363 0.3230425238
0.8506584196 0.828684928 0.3397926254
0.8723203125 0.8177868537 0.3550538572
0.8908139914 0.8071344794 0.3691190182
0.9066362809 0.7966158776 0.3826576118
0.3768857071 0.9518900822 0.1969838547
0.3862602024 0.9510612219 0.1963929769
0.4100180857 0.9483811723 0.1984114679
0.4490800923 0.9443849511 0.2034059402
0.4900339793 0.9386388734 0.2126164688
0.5371333131 0.9307185924 0.2205856342
0.5811880046 0.9218282348 0.231255991
0.6278365239 0.9117936638 0.2445020302
0.6716266964 0.902263894 0.2570116848
0.7172082974 0.8921139929 0.270401915
0.7562132477 0.8813311522 0.2842002289
0.7904291225 0.8693111853 0.3052311832
0.8184002785 0.8589519049 0.3240057019
0.8436838971 0.849148433 0.3399327345
0.8661088283 0.8397582183 0.3553236264
0.8854765994 0.8301882788 0.369495354
0.9015912879 0.8206463047 0.3828934533
0.3906292706 0.9571128258 0.2064699061
0.398459583 0.95638106 0.205801492
0.4213838663 0.9540404992 0.2081516914
0.4554213183 0.9506590345 0.2127818964
0.4922399282 0.9458625778 0.2217437476
0.5356900913 0.9397334303 0.2288436165
0.5766688874 0.9324123392 0.2403757991
0.6209435107 0.9237638031 0.2526495633
0.6642484394 0.9147013297 0.2641212789
0.7078298501 0.9054543322 0.2756314527
0.7460067904 0.8964757452 0.2894770182
0.7807472028 0.8875163819 0.3050120873
0.8117265617 0.8776008195 0.3253041923
0.8369185899 0.8677095272 0.3405102368
