app/src/main/assets/spektrafilm/profiles/kodak_portra_800_push2_film.cube
# ============================================================================
# spektrafilm LUT
# Bundle:  spektrafilm_v033_portra800_8printpack_2lut_prophoto_prophoto  (2lut, 17^3)
# Film:    kodak_portra_800_push2
# Print:   fujifilm_crystal_archive_typeii, kodak_2383, kodak_2393, kodak_ektacolor_edge, kodak_endura_premier, kodak_portra_endura, kodak_supra_endura, kodak_ultra_endura
# Input:   ProPhoto RGB  (cctf on)
# Output:  ProPhoto RGB  (cctf on)
# Created: 2026-06-02T06:13:09Z
# spektrafilm: 0.3.3
# Project: https://github.com/andreavolpato/spektrafilm
#
# Copyright (c) 2026 Andrea Volpato. Generated by spektrafilm. Licensed under CC BY-SA 4.0.
#
# License: spektrafilm LUT by Andrea Volpato, licensed under CC BY-SA 4.0.
#          Full text and attribution requirements in SPEKTRAFILM_LICENSE.txt
#          (shipped in this bundle); also at
#          https://github.com/andreavolpato/spektrafilm/blob/main/SPEKTRAFILM_LICENSE.txt.
#
# Citation: If you use this LUT in your work, please cite the spektrafilm
#           project: https://github.com/andreavolpato/spektrafilm, see
#           CITATION.cff for details.
#
# Notes: Generated by the spektrafilm LUT bundle builder. Apply with trilinear
#        or tetrahedral interpolation in your host (DaVinci Resolve, Nuke,
#        OCIO-aware DCC). The input and output color spaces are declared in
#        bundle.json; do NOT apply this LUT to a signal in a different color
#        space.
#
# Role:    film  (domain=input_rgb → range=cmy_film)
# File: lut_v033_portra800_film.cube  (see sibling bundle.json for full metadata)
# ============================================================================
TITLE "v033_portra800_film"
DOMAIN_MIN 0 0 0
DOMAIN_MAX 1 1 1
LUT_3D_SIZE 17
0.07834227741 0.08951349416 0.07559436066
0.2676533933 0.08992231975 0.07605054332
0.4728773424 0.08990110128 0.07750734669
0.5897540801 0.09015211383 0.08136881733
0.6783275779 0.09084058525 0.08784271583
0.7425865796 0.09119050824 0.09595458174
0.7928806579 0.09244321726 0.1044838411
0.8279780148 0.0933863385 0.1142552276
0.855099911 0.09426096965 0.1250786416
0.8770016864 0.09521653944 0.1340268126
0.8937323719 0.09630412418 0.14318063
0.9075983261 0.09752593942 0.1540786712
0.922011062 0.09879580025 0.1653469061
0.9322941186 0.09998039093 0.1757565453
0.93936805 0.1009606556 0.1846108394
0.9470733008 0.1019258155 0.194360595
0.9560913373 0.1029009031 0.2057164853
0.07857968179 0.1726492122 0.07565756095
0.126403707 0.1528173358 0.07603593364
0.3874146448 0.1118508412 0.07650516393
0.5252437018 0.1016193888 0.07825004233
0.6257629925 0.09884807373 0.0815139703
0.70615467 0.0979617552 0.08649385987
0.7650246151 0.0980184934 0.0932960303
0.8092059467 0.09839858899 0.1002549098
0.8428528937 0.09889964117 0.1080201794
0.8675960055 0.09956080519 0.1166397493
0.8880078791 0.1002082767 0.1254277408
0.9022518575 0.100940371 0.1339976296
0.9176759294 0.1017554695 0.1432419169
0.9296734825 0.1024432936 0.15337374
0.9373419766 0.103003545 0.1631465084
0.9448222691 0.103775461 0.1737877723
0.9540468943 0.1047404687 0.1851904553
0.08022214563 0.4778455863 0.07601539183
0.09112653058 0.4880404591 0.07604385897
0.2750354319 0.3520805469 0.07659154496
0.452512836 0.2253850569 0.07791619506
0.5621445994 0.1748473409 0.07970600698
0.6461131543 0.1481696234 0.08314132302
0.7145143283 0.1352606797 0.0867294489
0.7666857359 0.1275377817 0.09163721469
0.8077067604 0.1224118706 0.09662405273
0.8403582681 0.119061644 0.1022456593
0.8638187237 0.1166745877 0.1083724439
0.8852890441 0.1149797964 0.1151579536
0.9000988404 0.1141498879 0.1232094086
0.9155757586 0.1138792063 0.1313306201
0.9284289519 0.1136686548 0.1387187209
0.9369884662 0.1135856359 0.1468574141
0.9450557869 0.1139083862 0.1567030376
0.08531743365 0.6381223486 0.07602717654
0.09201615331 0.653296932 0.07617995555
0.188438205 0.5805260891 0.07676328636
0.3815843448 0.4778033301 0.07794992148
0.5008893303 0.3866570649 0.07923933685
0.5922073223 0.3087605281 0.08151085821
0.6642321868 0.2501835949 0.08437573073
0.7237885604 0.2109794413 0.08742180061
0.7703876421 0.1853450927 0.09140856482
0.8075384691 0.1689104625 0.09536319528
0.8386006582 0.1564230179 0.09958489254
0.860776739 0.1474674504 0.1042916975
0.8822759372 0.1419984187 0.1096133938
0.8976626832 0.1383299266 0.1160988543
0.9123053923 0.1355836692 0.1230788237
0.9257551586 0.1332661087 0.1296556411
0.9351749524 0.1315596034 0.1362153817
0.09478309457 0.7469363209 0.07619777863
0.1014424781 0.7573752758 0.07640762916
0.1527012519 0.7234119803 0.07705329808
0.3134981106 0.6299769704 0.07815298593
0.4464833391 0.5517269304 0.07925746538
0.5430896382 0.4880826581 0.08123483802
0.6204909425 0.4332391267 0.08361005873
0.6841777002 0.3754529364 0.08584596792
0.7354494994 0.325203484 0.08878566901
0.7785338335 0.2802875044 0.09226776707
0.8108342946 0.2457443026 0.09566245391
0.8394675435 0.2199786986 0.09908701026
0.8606754824 0.2019347176 0.103069989
0.8816750051 0.1885512971 0.1076893358
0.8968209255 0.179182019 0.1129351258
0.9106230191 0.1715485878 0.1186723204
0.9241266193 0.1646389147 0.1246810956
0.1082523209 0.8204918684 0.07642079355
0.1134506487 0.8262876634 0.0765370576
0.1476177126 0.8128725593 0.07744987663
0.2665409739 0.7502415891 0.07846073508
0.3998781006 0.6719994855 0.07955034586
0.4966337835 0.6070552297 0.08133310909
0.5782294634 0.5548827968 0.08354228693
0.644969924 0.5052152078 0.08539883163
0.7028109006 0.465187576 0.08768724166
0.7476939808 0.4235306298 0.09057058332
0.787853261 0.3814457096 0.09347184292
0.8159486508 0.3430177478 0.09631307928
0.8422938414 0.3066611046 0.09947127116
0.8627098304 0.2786871481 0.1032254813
0.8827093218 0.2564290935 0.1072734351
0.8969267632 0.236559508 0.1118025822
0.909970538 0.2222220287 0.1166316613
0.1257124094 0.8623071315 0.07670417578
0.131025919 0.8650203478 0.07699351015
0.1555103291 0.8600530379 0.0778411672
0.2357138555 0.8298637378 0.0787915389
0.3634453024 0.7681207035 0.08003847424
0.4597516363 0.7041261677 0.08171366282
0.5403499212 0.6535627987 0.08362352879
0.608315952 0.6054165828 0.08551618183
0.6692572267 0.5617765196 0.08755584599
0.7210812325 0.526074261 0.09004826714
0.7606560089 0.491981766 0.09257576518
0.7964412251 0.4593760858 0.09507708207
0.8231926943 0.4260006838 0.0977524417
0.8471651673 0.394158662 0.10087414
0.8667334069 0.3655651854 0.1043160453
0.8853969494 0.3397587267 0.1081588928
0.8982173594 0.3147231284 0.1122559062
0.1443204358 0.8901751088 0.07729006076
0.1489936124 0.8915146721 0.07759908047
0.1702576154 0.8896659154 0.07824462155
0.2267387796 0.8728329622 0.07924020297
0.3289783701 0.8373140654 0.08065430431
0.4281915102 0.7852676321 0.08233068332
0.5053417413 0.7348181944 0.08399209805
0.5762879974 0.689485919 0.08566735776
0.6356315215 0.6477145923 0.08767893395
0.691267829 0.6083319773 0.08991387268
0.7359993607 0.5712520216 0.09213280249
0.7734521771 0.5420387815 0.09429385364
0.8044319463 0.5103647409 0.09663817141
0.830512419 0.4855181253 0.09928561352
0.8520035933 0.4604859208 0.1022505461
0.8712663458 0.4362823948 0.1055740947
0.8880009368 0.4109576533 0.109216282
0.1659155389 0.9063809425 0.07784716687
0.1704986401 0.9073163186 0.07809630311
0.187293206 0.9066622191 0.07863400194
0.2284180443 0.8980550688 0.0796924542
0.3090352429 0.8760599811 0.08118721516
0.3996005724 0.8416754841 0.08280458187
0.4781884615 0.7986588045 0.08436353059
0.5462555476 0.7583656998 0.08587951219
0.6062056566 0.7168962586 0.08777447054
0.6605977786 0.6820749817 0.09007730106
0.7105780257 0.6472838713 0.09222227493
0.7497141999 0.6133788446 0.09423838191
0.7871760068 0.5831888933 0.09640254635
0.8130005393 0.5577938411 0.09876019957
0.8385294253 0.5334420076 0.101399454
0.8575836763 0.5086605706 0.1043168109
0.8763981524 0.4892443068 0.1075218802
0.1884171179 0.9208625733 0.07833942478
0.1925832547 0.9213725886 0.07856423647
0.2062336644 0.9210275711 0.0791091479
0.2367454861 0.9146609388 0.08019089531
0.2998532408 0.9008534233 0.08184102777
0.3798167187 0.8776958496 0.08337378093
0.4528236908 0.8482092816 0.08483998593
0.5187031699 0.8142941438 0.08636542862
0.5803836658 0.778943084 0.08816393939
0.6339794385 0.7438477347 0.09018893946
0.6837305612 0.7085209694 0.09232553959
0.7275464906 0.6790751016 0.09429835569
0.7639571638 0.6494776985 0.09626852112
0.7969034532 0.6198826744 0.0983304734
0.8217706481 0.5946220081 0.1006283192
0.8445838779 0.5698109785 0.1031755221
0.8629577571 0.5520151435 0.1060243254
0.2101012232 0.929368287 0.07881581249
0.2132351524 0.9295626395 0.07905656281
0.2233946082 0.9292674821 0.07959952373
0.2496580851 0.9264447597 0.08073078665
0.2979629614 0.918146621 0.08236436784
0.3644813334 0.9011326083 0.08384677744
0.432607498 0.8803792515 0.08529893033
0.4955465729 0.8542700101 0.08681581908
0.556370543 0.8276512987 0.08865077318
0.6091697218 0.7941101735 0.09041349574
0.6585030671 0.7646804428 0.09238883564
0.7044328891 0.7349796966 0.09449931407
0.7424944242 0.7048256338 0.09642072138
0.7781903299 0.6797511545 0.09841330236
0.8060326278 0.6545121285 0.10049996
0.8306244267 0.6287986964 0.1027887587
0.8510270526 0.6075903842 0.1053700141
0.2296574364 0.935943802 0.07937254825
0.2324938026 0.9360973956 0.07966446963
0.2427237384 0.9361060166 0.08023655888
0.2654836996 0.9341644977 0.08148571071
0.30184203 0.9291994147 0.08303111639
0.354771216 0.9185886599 0.0844233366
0.4159538805 0.9023216024 0.08584136405
0.477404296 0.883538471 0.08741519672
0.534840975 0.8606568785 0.08922460709
0.5868794154 0.8367435074 0.09090132806
0.6358186024 0.8087688458 0.09260580739
0.6824204335 0.7827090573 0.09455257386
0.7225236668 0.7565501981 0.09652737936
0.7564265082 0.7293587786 0.09849602523
0.7902880889 0.7030178125 0.1004492246
0.8146765766 0.6812898227 0.1025431177
0.8387809129 0.6605289629 0.1048824952
0.2516746171 0.9424255977 0.08007874653
0.2546334662 0.9425662532 0.08041652574
0.2637022956 0.9426653307 0.08104115326
0.2806425976 0.9413361453 0.08224323338
0.3086988056 0.9373522839 0.08359212244
0.3510487837 0.9298417086 0.08490246413
0.4040976021 0.9197809076 0.08640842066
0.4601929517 0.9036255386 0.08806114746
0.514075165 0.887030079 0.0898295604
0.5671293425 0.8662744871 0.09157412481
0.6149494936 0.8453275298 0.09320878651
0.6610324003 0.8237409106 0.09487499327
0.7034708725 0.7984749545 0.09673641293
0.7385104839 0.7754173401 0.09874799483
0.7713786913 0.7515183194 0.1007328159
0.800448273 0.7269961454 0.1026925862
0.8241485377 0.7042687289 0.1048581022
0.2728721202 0.9472360758 0.08090785159
0.275189374 0.9473257357 0.08125516302
0.2820317232 0.9473696847 0.08189437408
0.2951615242 0.9466716539 0.08295147621
0.3168986357 0.9441776736 0.08410169636
0.3520545053 0.9381575639 0.08544835442
0.3973446144 0.9305171557 0.0870419852
0.4471916097 0.9202813268 0.08876137195
0.497655531 0.9049397534 0.09049570609
0.549813566 0.8903482083 0.09223099673
0.596545106 0.8718081464 0.09380804739
0.6412137018 0.8535864398 0.09548085655
0.684942441 0.8357761928 0.09710426975
0.7220102162 0.8138846404 0.09898934039
0.7531400291 0.7915022957 0.1010971354
0.7855789048 0.7705851192 0.1030745418
0.809609208 0.7492560125 0.1051522021
0.2910812463 0.9507612733 0.08177875773
0.2929401629 0.9508073728 0.0821096501
0.2984759722 0.9507974762 0.08273174685
0.3089668561 0.9502839234 0.08359767128
0.3261012724 0.9485330125 0.08470299739
0.3560886337 0.9449372274 0.08596606284
0.3939414925 0.9391211046 0.08767006473
0.437768165 0.9307168707 0.08939140437
0.4854005472 0.9207373942 0.09115169192
0.5339090691 0.906806079 0.09289363122
0.5796389883 0.8929714659 0.09441869624
0.6234641886 0.8775668263 0.09606815651
0.6656027084 0.8611204797 0.09773521012
0.7053175907 0.8444534603 0.09931278965
0.7382306266 0.8271621389 0.1013587806
0.7683232122 0.8060429716 0.103435402
0.7968059853 0.7868503475 0.1055172168
0.3073234505 0.9537853875 0.08261597134
0.3087710684 0.953791875 0.08290905502
0.3131458735 0.9537223712 0.08349319359
0.3214043405 0.9532865634 0.08416748968
0.3358971823 0.9518330854 0.08526322146
0.3623855975 0.9494826615 0.08650400502
0.3932766261 0.9459602523 0.08821896361
0.4314335655 0.9391417488 0.09009189024
0.4746204858 0.9306482672 0.09179387852
0.5186630321 0.9214122071 0.09345133083
0.5641123519 0.9083023951 0.09499505421
0.6072128356 0.8960742484 0.09663163437
0.6482568251 0.8825399838 0.09828720633
0.6881528559 0.8676366171 0.09996713701
0.7236192765 0.852302102 0.1016307047
0.7526941524 0.8374179273 0.1036823034
0.7830134934 0.8204343334 0.1058192658
0.3212506801 0.956637355 0.08337432394
0.3225238824 0.95662623 0.08363351966
0.3263501508 0.9565287274 0.08416010259
0.3336684298 0.9562020135 0.08472707572
0.3477181178 0.9549740877 0.08582103287
0.369859821 0.9531937742 0.08701358717
0.3948751655 0.9503584114 0.08893848458
0.4275042019 0.9459842326 0.09069923065
0.4657903197 0.9391315717 0.0923441251
0.5058962831 0.9309113607 0.09405248094
0.5507521072 0.9221546322 0.09566376226
0.5925048157 0.9103245295 0.09719376671
0.6325638625 0.8987972567 0.09886940862
0.6716980505 0.8872419879 0.1005969947
0.7076872081 0.8732595236 0.1021930683
0.7393532253 0.8594092867 0.1039437987
0.767937598 0.8457454175 0.1060162749
0.07834227741 0.09088091405 0.1329196643
0.1896095954 0.09017867088 0.1432108787
0.4286164483 0.09061542353 0.1969977349
0.5490926689 0.0908394716 0.2158915395
0.6401747631 0.09116197758 0.2132761768
0.711172985 0.09202861084 0.2081461135
0.7650609155 0.09285398571 0.2061689641
0.8085227629 0.09360423235 0.2025461094
0.8419268184 0.09438445882 0.2025764551
0.865657925 0.09520873166 0.2042607457
0.8874011356 0.09619549321 0.2062711059
0.9018950047 0.09716719465 0.2099608787
0.9166742769 0.09833566053 0.2170639688
0.9287351137 0.09966106982 0.2238485952
0.9369762606 0.1007334714 0.2296364023
0.9448107702 0.101705774 0.236814817
0.9540590249 0.102601871 0.245485961
0.07880368923 0.1797565678 0.1304821472
0.1308266944 0.1566306729 0.1220788867
0.3849014487 0.10913442 0.1131842573
0.5236834075 0.09801854995 0.1164724083
0.6239319663 0.09539173377 0.1218244601
0.7029074715 0.09500021586 0.1283764059
0.7610616573 0.095266582 0.1340701661
0.8066122199 0.0959535998 0.1404304704
0.8395489221 0.09674890103 0.1469274133
0.8635437982 0.09772558351 0.1552715219
0.8852592833 0.09881918255 0.1643978569
0.9008388997 0.09955615198 0.1702683951
0.9157945365 0.1005851045 0.1795066054
0.9274386932 0.1016146506 0.1896896383
0.935563108 0.1024210695 0.1981206222
0.943332812 0.1033088476 0.208304896
0.9524939247 0.1042364337 0.218874638
0.08139059638 0.4893956589 0.09648056863
0.09810301541 0.4775600478 0.1008890662
0.2936733697 0.3305943295 0.09344994239
0.4589125303 0.2117044082 0.09062843545
0.5640244532 0.1623882801 0.0923751583
0.6465914499 0.1392555132 0.09560786277
0.7138235984 0.1275291669 0.09968936738
0.7658658224 0.1211876142 0.1050964602
0.8071989305 0.1171735701 0.1113736626
0.8394915437 0.1142536469 0.1184388861
0.8625370539 0.1122008666 0.1256921214
0.8847833197 0.1112323731 0.1331497749
0.8995960058 0.1107978397 0.1407423672
0.9150079293 0.1108539341 0.1497087015
0.9282246009 0.1109707368 0.1586074456
0.936983762 0.1112910703 0.1678473709
0.9450912611 0.1120423365 0.1779600707
0.08747444562 0.6486050153 0.08387647443
0.09751517189 0.6481211224 0.08773239306
0.2028420164 0.5650415994 0.08855292066
0.3907221631 0.4611686963 0.08680681395
0.5057530037 0.3684827906 0.08726243042
0.5937876606 0.2894145478 0.08926441833
0.6633102142 0.2319434597 0.09204652593
0.7226496225 0.1973461402 0.09530451145
0.7693438154 0.1756652904 0.09910658383
0.8066230682 0.1600327073 0.1034862357
0.8372329546 0.149002642 0.1081746175
0.8600627258 0.1423173283 0.1135333412
0.8817759022 0.1377628507 0.1201570038
0.8972793923 0.1345030592 0.1271846425
0.9118143654 0.132086158 0.1338584908
0.925367395 0.1300471136 0.140393503
0.9349558013 0.1287617053 0.1481042999
0.09799021329 0.7520415391 0.08011526436
0.105410032 0.7546304633 0.08262570708
0.1644001457 0.7097373728 0.08524067677
0.3208416131 0.6157982397 0.08549024731
0.4519479507 0.5378433479 0.0859526017
0.5465319965 0.4751557394 0.08720642363
0.6205984367 0.4167430097 0.08926558537
0.6835818718 0.3601946292 0.09184714988
0.7345919512 0.3084663956 0.09471887243
0.777156446 0.2670689708 0.09780435078
0.8095952464 0.2331129447 0.1012324396
0.8384666387 0.2110135032 0.1050908868
0.860138325 0.193916482 0.1095966051
0.8811181686 0.1821593425 0.114671735
0.8964480997 0.1738371506 0.1204492031
0.9101536491 0.166386271 0.1265113377
0.9238029656 0.1599384113 0.1322025447
0.1109522956 0.8212145003 0.07935757418
0.1175530637 0.8240872535 0.08074251608
0.1553301565 0.8029006319 0.08348251544
0.274223934 0.7366892008 0.08478012036
0.4028264317 0.6601251543 0.08549696762
0.4991574272 0.5943598718 0.08662883971
0.580262922 0.5440547512 0.08835294274
0.6454365636 0.4963692074 0.09034388492
0.7024716731 0.4553906156 0.09271460207
0.7467261907 0.4116842319 0.09520835245
0.786399089 0.3696303 0.09778605102
0.8148131392 0.331805256 0.1008288993
0.8416797414 0.2957524411 0.1043414238
0.8620273911 0.2699179604 0.1082665248
0.8821020525 0.2475993885 0.1126894847
0.8965323286 0.2300758046 0.1176290717
0.9095113515 0.2165057495 0.1226711187
0.128769116 0.8614743622 0.07925793348
0.1340828759 0.8627237497 0.08013780701
0.1608603546 0.8547628111 0.08240285455
0.2425814492 0.8192980082 0.08424271456
0.3670228497 0.7568788476 0.08536706722
0.460831453 0.6935635687 0.08646030489
0.5412340225 0.6416379443 0.08797164869
0.609455804 0.5948929252 0.08999823737
0.6697413924 0.5552681629 0.09205489711
0.7204946143 0.5172690704 0.09418590478
0.759439721 0.4840419191 0.09633302076
0.7956559379 0.4516439258 0.0988732381
0.8224921156 0.4177786361 0.1017525749
0.8465474767 0.3862406979 0.1049693882
0.8660734659 0.3576298674 0.1085407851
0.8849651748 0.3320263457 0.1126599399
0.8977851531 0.3061368201 0.1170425942
0.1468415223 0.8890743786 0.0794496451
0.1518980839 0.8897279961 0.080182676
0.1737529046 0.8855540944 0.08204004521
0.2308322948 0.8662932992 0.08396409278
0.3325373146 0.8295713238 0.08541504862
0.4291260615 0.7760196764 0.08660323371
0.5056380322 0.7248191744 0.08807385721
0.5769082342 0.681927001 0.08994013649
0.6363939329 0.6391154356 0.0918586111
0.6912689459 0.6005720909 0.09369040699
0.7353924629 0.564407558 0.09557145804
0.77293113 0.535770449 0.09768176334
0.8039589413 0.5054048655 0.1001269097
0.8298691151 0.4800961528 0.1028392578
0.851467041 0.454842242 0.1058516059
0.8707184898 0.4299275443 0.1093242127
0.8875839344 0.4048636152 0.1131888301
0.1680713008 0.9049811663 0.0797651671
0.1725977449 0.9054300986 0.0803957757
0.1896741243 0.9037788176 0.08191588512
0.2312092854 0.8939685673 0.08384379798
0.3119737774 0.8704202037 0.08536930491
0.4006312521 0.8352047688 0.08661631286
0.4785075825 0.7914621877 0.0881592179
0.546384914 0.7511524552 0.08989228602
0.6062465547 0.7094305996 0.09168582728
0.6605665805 0.6752547104 0.09359743794
0.7105583417 0.640195604 0.09544938807
0.7496477663 0.6084431381 0.09736933679
0.7867751862 0.5781518671 0.09954932419
0.8124749725 0.5540353244 0.1019640404
0.8379783992 0.5284538019 0.1046686234
0.8571402773 0.5047291483 0.1076519459
0.8759147135 0.4849868812 0.1109538903
0.1899920599 0.9194362855 0.08023783257
0.1939453824 0.9196490942 0.08082713898
0.2074158647 0.9184120945 0.0820942551
0.2389012926 0.9113673343 0.08382400772
0.3017938749 0.897245745 0.08544543418
0.3807900622 0.8721842114 0.08679226112
0.4531929413 0.8429518766 0.08845125245
0.5186698899 0.807468782 0.09016995995
0.5799227752 0.7727593842 0.09186917052
0.6335670368 0.7370355311 0.09354521993
0.6838882351 0.7029874384 0.09541893817
0.7277678753 0.6743943587 0.09724982526
0.7639348369 0.644354612 0.09917153987
0.7965665762 0.6157633914 0.1012759001
0.8213406503 0.5901212018 0.1036047295
0.8441964189 0.5657951394 0.1061532846
0.8625340404 0.5483978802 0.1091227602
0.2108038901 0.9281568535 0.0807459257
0.21382224 0.9281762129 0.08129910002
0.2242157177 0.9275979587 0.08242347308
0.2512449449 0.9241452804 0.08399271774
0.2991103204 0.914498451 0.08553216854
0.3654253122 0.8976207649 0.08693237411
0.4330525136 0.8760531655 0.08869217997
0.4955305857 0.8498500008 0.09043769597
0.555771194 0.8221843195 0.09216428344
0.6085371086 0.7888009668 0.09358808724
0.6583649788 0.7596336158 0.0953626923
0.7045989719 0.730027361 0.0973332353
0.742575515 0.7005234186 0.09919150917
0.7780815752 0.6758210587 0.1011943052
0.8058116505 0.6503211845 0.1032888285
0.8302567949 0.6249214235 0.1055786878
0.8507410398 0.6044204921 0.1082523921
0.2301948528 0.9347901155 0.08136417862
0.2330314132 0.9348821426 0.08186172505
0.243433918 0.9346180744 0.08289413998
0.2659967046 0.9323220278 0.08428019135
0.3022794812 0.9271060911 0.08577128101
0.3554599504 0.9153322322 0.08730471822
0.4165401963 0.8995165213 0.08915238808
0.4775462602 0.8799626847 0.0908539387
0.534405874 0.856809804 0.09248324659
0.5862019039 0.8327998744 0.09390023652
0.635603619 0.8042156458 0.0954554404
0.6823598275 0.7788623235 0.09728578296
0.7224841652 0.7524643302 0.09918866298
0.7564325747 0.7251380356 0.1011649827
0.7902330389 0.6994850159 0.1030765937
0.8144727145 0.6781893781 0.1051940184
0.8385299811 0.6571414348 0.1075678739
0.2522359457 0.941453351 0.08209629599
0.255051538 0.9415155019 0.08254098585
0.263850964 0.9412657936 0.08344932445
0.28047938 0.9395333228 0.08461198095
0.3087357471 0.935445426 0.08602872385
0.3515011981 0.9279965204 0.08762559154
0.4046196598 0.9170689975 0.08956389336
0.4603640373 0.9011356622 0.09130488937
0.5136620274 0.8836852353 0.09289034244
0.5666116333 0.8629522785 0.09440359831
0.6146779766 0.8424685393 0.095941637
0.660832051 0.8203388138 0.09750937411
0.7032108471 0.7950796868 0.09934108594
0.7384618256 0.7721404628 0.1013583977
0.7713340564 0.7479980321 0.1032795035
0.8004051297 0.7235421363 0.1052301225
0.8241051832 0.7015103451 0.1074134533
0.2729036071 0.946497116 0.08282284568
0.2750414386 0.9465049769 0.08321057207
0.2816653196 0.9463265834 0.08399963102
0.2947911377 0.9453946286 0.08500855944
0.3168009076 0.9426506134 0.08641057294
0.3522619857 0.9363523413 0.08810176903
0.3977002895 0.9289033756 0.09010448029
0.447254394 0.9177552299 0.09181152299
0.4973341705 0.9025416415 0.09334767394
0.5495107493 0.8879252991 0.09494043214
0.5963368101 0.8693823696 0.09642454925
0.6408977802 0.8510686241 0.0980392719
0.6846344898 0.8332615342 0.09963686143
0.7217732712 0.8105311079 0.1015548583
0.7530263973 0.7886944016 0.1035982566
0.7855440325 0.7677284683 0.1055243723
0.8096503802 0.7465452868 0.1076645302
0.2907078377 0.9500227225 0.08352227971
0.2925009591 0.9500251746 0.08386025844
0.2979424859 0.9499269751 0.08454935812
0.3085598642 0.9493730307 0.08543415548
0.325811716 0.9474917307 0.08682612026
0.3561334751 0.9436286945 0.08850133164
0.3941000482 0.9375243846 0.09047901074
0.4377082761 0.9291457937 0.09218033526
0.4851978925 0.9185058409 0.09381191913
0.5338619119 0.9048223653 0.09548526095
0.5794493726 0.8911739832 0.09691974355
0.6231123788 0.8753289049 0.09856692019
0.6652367095 0.8589472885 0.1002291027
0.7050160587 0.8422493481 0.1018145057
0.7379875939 0.8245433224 0.1038227857
0.7682123095 0.8032721164 0.1058143569
0.7968706629 0.7846466752 0.1080046675
0.3068154056 0.9530514248 0.08417264282
0.3082876702 0.953039185 0.08446780907
0.3126101384 0.9529351329 0.08510124382
0.3208547282 0.9524522147 0.08589605178
0.3354927503 0.9509556837 0.08726072101
0.362286333 0.9485906982 0.08886876529
0.393276051 0.9446905208 0.09090310536
0.4312433958 0.9375237729 0.09267755606
0.4744601867 0.9292686479 0.09427598199
0.5186941115 0.9199825181 0.09593333089
0.5639346159 0.9065863082 0.09742965741
0.6069053599 0.8944100674 0.09907201907
0.6478475179 0.8806833525 0.1007484808
0.6877525277 0.8656730516 0.1023702949
0.7233389083 0.8503789913 0.1040285947
0.7524935758 0.835613131 0.1060250403
0.7830297548 0.8184520216 0.1082908995
0.3207340627 0.9559297269 0.08476783479
0.3220014267 0.9559017778 0.08504550436
0.3257936854 0.955770723 0.08562332989
