app/src/main/assets/spektrafilm/profiles/kodak_ektar_100_film.cube
# ============================================================================
# spektrafilm LUT
# Bundle:  spektrafilm_v033_ektar100_8printpack_2lut_prophoto_prophoto  (2lut, 17^3)
# Film:    kodak_ektar_100
# Print:   fujifilm_crystal_archive_typeii, kodak_2383, kodak_2393, kodak_ektacolor_edge, kodak_endura_premier, kodak_portra_endura, kodak_supra_endura, kodak_ultra_endura
# Input:   ProPhoto RGB  (cctf on)
# Output:  ProPhoto RGB  (cctf on)
# Created: 2026-06-02T06:13:05Z
# spektrafilm: 0.3.3
# Project: https://github.com/andreavolpato/spektrafilm
#
# Copyright (c) 2026 Andrea Volpato. Generated by spektrafilm. Licensed under CC BY-SA 4.0.
#
# License: spektrafilm LUT by Andrea Volpato, licensed under CC BY-SA 4.0.
#          Full text and attribution requirements in SPEKTRAFILM_LICENSE.txt
#          (shipped in this bundle); also at
#          https://github.com/andreavolpato/spektrafilm/blob/main/SPEKTRAFILM_LICENSE.txt.
#
# Citation: If you use this LUT in your work, please cite the spektrafilm
#           project: https://github.com/andreavolpato/spektrafilm, see
#           CITATION.cff for details.
#
# Notes: Generated by the spektrafilm LUT bundle builder. Apply with trilinear
#        or tetrahedral interpolation in your host (DaVinci Resolve, Nuke,
#        OCIO-aware DCC). The input and output color spaces are declared in
#        bundle.json; do NOT apply this LUT to a signal in a different color
#        space.
#
# Role:    film  (domain=input_rgb → range=cmy_film)
# File: lut_v033_ektar100_film.cube  (see sibling bundle.json for full metadata)
# ============================================================================
TITLE "v033_ektar100_film"
DOMAIN_MIN 0 0 0
DOMAIN_MAX 1 1 1
LUT_3D_SIZE 17
0.09996001599 0.1011378003 0.08268562924
0.3041037945 0.101513333 0.08396927192
0.50917847 0.1016528284 0.09469868601
0.6204260886 0.1022840721 0.11691377
0.6879863691 0.1042390921 0.143624266
0.7369568889 0.1060833597 0.1699285336
0.7765410525 0.1088641034 0.1973772224
0.8080774379 0.1124438792 0.2264671614
0.8374397125 0.1156915193 0.250173736
0.8610624793 0.1191796645 0.2755298369
0.8815939698 0.1243096323 0.2999149586
0.8999109502 0.1298903807 0.3182127976
0.9142263686 0.1355685648 0.3353358301
0.9285785483 0.1413854204 0.3518027394
0.9400640229 0.1471214434 0.367054122
0.9486266492 0.1531840184 0.3803456225
0.9571364893 0.1597372697 0.3919726662
0.1003714095 0.2170099356 0.08268562924
0.1556987402 0.1848657038 0.08333563989
0.4360563453 0.1289416794 0.08678974132
0.5714771862 0.1152247474 0.09585107197
0.6599507607 0.1121825037 0.1108794577
0.7179046224 0.1116405487 0.1299243728
0.7636508314 0.1128056984 0.1534754355
0.7987329314 0.1145516269 0.1769280095
0.829477786 0.1169101657 0.2043873141
0.8571628401 0.1200966342 0.2314983738
0.8778800386 0.1244016098 0.2550691004
0.8980856437 0.1296482928 0.2818925419
0.9129244024 0.1349008761 0.304681914
0.9277160068 0.1405229696 0.3249040564
0.9396162514 0.1460903903 0.3420402152
0.9482455263 0.1518415417 0.3579444262
0.9567959144 0.1583442938 0.37454421
0.1005016276 0.4725804136 0.08304980562
0.1083335911 0.4760322797 0.08327216938
0.3357544861 0.3810479956 0.08629686724
0.5045087829 0.2843804682 0.09298238492
0.6099543928 0.2194614045 0.1023035622
0.6777896729 0.1810024084 0.1155289595
0.7280850592 0.1610356318 0.1294001746
0.7704157527 0.1514040539 0.1467573178
0.8042375414 0.1461222814 0.1648249042
0.8354302673 0.1437717138 0.1855821682
0.8612391558 0.1434455391 0.2088729428
0.8828439636 0.1445846643 0.2331300041
0.9024604465 0.1475025466 0.2564921869
0.9180379676 0.151122903 0.2830195736
0.9328526601 0.1551855718 0.3052654465
0.9437111774 0.1592928032 0.323542827
0.9524064303 0.1640199894 0.3405617069
0.1017440315 0.6127244464 0.08307339081
0.1066450636 0.6198297989 0.08345458257
0.2411516143 0.5623611054 0.0863478617
0.4399665314 0.4739899773 0.09208362616
0.5567797837 0.4086431274 0.09963918187
0.6382627387 0.3552615241 0.1093144657
0.6949173423 0.3073256761 0.120742341
0.7402263357 0.266300468 0.1335790515
0.7786115933 0.2393897151 0.1488719288
0.8099640177 0.2197772041 0.1645790706
0.8409993453 0.2078739583 0.1825444126
0.8644086225 0.1993426848 0.2021526097
0.8864370045 0.1938659309 0.2243588946
0.9050212586 0.191139305 0.2449937066
0.9207493442 0.1905449659 0.2670371316
0.935381436 0.1910341531 0.2899987005
0.9456037804 0.1924835205 0.308991086
0.1047435085 0.6995378706 0.08312463668
0.1108432586 0.7028242131 0.08368797415
0.1847049298 0.6790606628 0.08663917268
0.3761182669 0.6012777006 0.09209102392
0.5070508628 0.5337264639 0.0985269307
0.5991426085 0.4823396512 0.1077065003
0.6650726524 0.4397208863 0.1179331124
0.713304711 0.4028276171 0.1282453513
0.754956682 0.3721755929 0.1414268874
0.7899030597 0.3441198145 0.1556060715
0.8187430619 0.3203829418 0.1706621284
0.84797338 0.3019171219 0.186822162
0.8695763351 0.2848543756 0.2052841204
0.8911886843 0.2729387166 0.2256411986
0.9084140976 0.2643753971 0.244043565
0.9238023239 0.2584367873 0.2631794062
0.9373377055 0.2532570328 0.2843696184
0.1113459434 0.7607213392 0.08347328485
0.1195291482 0.7627688998 0.08409412058
0.1675920252 0.7465188447 0.08705332891
0.3242234664 0.6927803918 0.09257886564
0.4605695847 0.6317746669 0.09827456159
0.5582208246 0.5794689055 0.1062209296
0.6330096687 0.5362659248 0.1166251625
0.6869933056 0.4989456363 0.1257515118
0.7312017453 0.4689782978 0.1372516109
0.76964891 0.4422497785 0.1503429659
0.8009327753 0.4187411826 0.1634803215
0.8291087692 0.398749195 0.1778958731
0.8555850915 0.3810229172 0.1940183616
0.8759831092 0.3665332333 0.2125296224
0.8966403287 0.3532826951 0.2306552205
0.9121877264 0.3409976986 0.2470494448
0.9270092075 0.3307642895 0.2646715889
0.1223696486 0.808813705 0.08385236477
0.1299481075 0.8083198434 0.08478548714
0.1692275411 0.7954698773 0.08757714227
0.2834566218 0.7560517944 0.09309298813
0.4223955556 0.7030933616 0.09872915456
0.5221535973 0.6588192405 0.1058646584
0.6018745203 0.6182662319 0.1151203316
0.6608340666 0.5793272248 0.1249049504
0.7085992224 0.5494443713 0.1356840571
0.7496629697 0.5206476582 0.1477598888
0.7838195612 0.4982081429 0.1596683267
0.8119236239 0.477112787 0.1727083305
0.8405385095 0.4583280347 0.1871612439
0.863109222 0.4411745171 0.2037464341
0.8836514294 0.4261328943 0.2214096783
0.9019580986 0.4139672738 0.2378266037
0.9165293884 0.4027937368 0.2532146156
0.1366982051 0.8484245772 0.08463459395
0.1469063665 0.8476839776 0.08550411887
0.1798695952 0.8379572401 0.08835511894
0.2625711755 0.805700279 0.0937553643
0.3819805154 0.7599098192 0.09940846782
0.4871756776 0.7139584575 0.1062549527
0.5689954499 0.6801256544 0.1145078629
0.6354344716 0.6464937064 0.1232569987
0.68481355 0.6164271657 0.1340076363
0.7280203926 0.5873704967 0.1457439033
0.7656299942 0.5661140738 0.1570416702
0.7964072347 0.5434185525 0.1688447205
0.8235501956 0.5225130021 0.1824544021
0.8507149042 0.5063419561 0.1973042089
0.8708305209 0.49126884 0.2139305828
0.8910910428 0.4775497171 0.2302626839
0.9073098946 0.4650787956 0.2450633007
0.1550497579 0.8756363911 0.0853822454
0.1634613133 0.8736834689 0.08622612407
0.1943498547 0.8654653373 0.08921440327
0.2569469869 0.8451778989 0.09425704596
0.3548070881 0.8052557335 0.09977604326
0.4540099707 0.7628654039 0.1064951808
0.5410411659 0.7260091903 0.1147044606
0.6103109196 0.6962771639 0.1225022335
0.6636104947 0.6718255841 0.132229664
0.7076201252 0.646505746 0.1447323177
0.747171825 0.6241809916 0.1561179993
0.7807284229 0.6027007048 0.1673106199
0.8088389162 0.5822892341 0.1801565884
0.8363745843 0.5667346705 0.193851498
0.8595944006 0.5502509039 0.2088830889
0.8790257684 0.5326364947 0.2245136879
0.8980682635 0.5189532568 0.2388377869
0.1746561199 0.8970593265 0.0861493818
0.1840326914 0.8951989488 0.08717504773
0.2102741026 0.8884455253 0.09013552702
0.2597725381 0.8727302408 0.09483618302
0.3390340583 0.8449304356 0.1005112868
0.429796373 0.8055331827 0.1072418525
0.5118310248 0.7705176952 0.1151239598
0.5829737935 0.7383901179 0.122688151
0.6424803145 0.7117719654 0.1313569666
0.6883750096 0.6911023958 0.1425990852
0.7276689851 0.6721377081 0.1543991151
0.7636544191 0.6516514873 0.1656543466
0.7945952602 0.6329012571 0.177957949
0.8208936089 0.6171668364 0.1909246934
0.847703027 0.600448284 0.2049641465
0.8676101828 0.5840532357 0.2199715217
0.8874361359 0.5713242296 0.2342406915
0.1968364068 0.911668133 0.08712678455
0.2048218845 0.9100978788 0.08830691119
0.2274411696 0.9054051541 0.09104749076
0.2668622473 0.8941540421 0.09537446461
0.3309528676 0.8723396849 0.1008593833
0.4097624736 0.8442068255 0.1079099413
0.487480676 0.8094101696 0.115688825
0.5584208836 0.77784513 0.1231609896
0.6214729319 0.7515398208 0.1318300895
0.6700406095 0.7277433084 0.1416281011
0.7107735299 0.7079519171 0.1526291921
0.747147347 0.6917442786 0.1646337569
0.7796240655 0.6768445308 0.1769285021
0.8072547642 0.6613129999 0.1897442892
0.8339900684 0.6449102211 0.2029843675
0.8574124103 0.6304138217 0.2171026969
0.8760416723 0.617702794 0.2307653948
0.2181742909 0.9234946668 0.0883186812
0.2254126665 0.9219260096 0.08953220322
0.2444755924 0.9181260691 0.09210088892
0.2775217563 0.909378093 0.09625783221
0.3295051388 0.8943650793 0.1017270695
0.3944427885 0.8719243981 0.1089987758
0.4659538337 0.8450822814 0.1164432333
0.537509559 0.8144214724 0.1238552753
0.6003732532 0.7868049363 0.1324170948
0.6514723831 0.7630486318 0.1417957956
0.6940494493 0.7426725019 0.1513251311
0.7311688001 0.7245133936 0.1625529504
0.764550145 0.7086739585 0.1752926283
0.7940124727 0.6951704453 0.1882714848
0.8194269172 0.68246475 0.2013144756
0.8461351634 0.6699232607 0.2151122793
0.8658130285 0.6568111891 0.2283822758
0.2390820345 0.9343207214 0.08965926584
0.2449901041 0.933058805 0.09086626527
0.2607052274 0.9293721882 0.09327393407
0.2903699672 0.9214340356 0.09716380035
0.3321981612 0.9104924703 0.102470981
0.3858357278 0.8951233412 0.1097192904
0.4498042535 0.8719579177 0.1171174151
0.5161809784 0.8474864741 0.1246371863
0.5780842208 0.8218755019 0.1331473068
0.6334280612 0.7956547583 0.1427363994
0.6774405028 0.7750569472 0.1518178965
0.7161999732 0.7570724115 0.1614549471
0.7507521651 0.7412308719 0.1735930406
0.7806735925 0.725858672 0.1868245653
0.8066665068 0.7118734888 0.2000685147
0.8325862256 0.6997525824 0.2136480002
0.8561146398 0.6887790343 0.2267205845
0.257700975 0.9420619701 0.09103357666
0.2628018967 0.941035498 0.0921625745
0.2776663934 0.9383248966 0.09443858215
0.3034027274 0.9324897684 0.09812055258
0.3374890327 0.9232706797 0.1032087174
0.3824258384 0.9111856499 0.1107690126
0.4392889481 0.8942113522 0.1181485511
0.4994675687 0.8731470972 0.1256825947
0.5594577645 0.8511752299 0.1342951127
0.6165007277 0.8296143376 0.1438096239
0.661862958 0.8052842122 0.1526060397
0.701252783 0.786825009 0.1621574251
0.73702863 0.7712891022 0.1727027274
0.7681991077 0.7563492744 0.1852495137
0.7953342304 0.742451387 0.1990508551
0.8193615699 0.7288362148 0.2129064262
0.8453417658 0.716373285 0.2260393722
0.2763777974 0.9476435472 0.09235979413
0.2814086647 0.9467568462 0.09340287148
0.295186285 0.9446295073 0.09563570832
0.3158114234 0.9407427907 0.09907462746
0.3445715231 0.934276541 0.1045491921
0.3823390902 0.9238930633 0.1116357685
0.4325576165 0.9105309903 0.1188483132
0.4863308525 0.8952881196 0.1264339131
0.5444022178 0.8757303251 0.1354483628
0.5996304737 0.8559166337 0.1450036708
0.6462783546 0.8362897305 0.1535094803
0.6866524157 0.8162836442 0.1629715855
0.7228706391 0.7986569942 0.1734514531
0.7560069843 0.7839242797 0.1841257031
0.7842401329 0.7703815887 0.1973389831
0.8081845345 0.7571218131 0.2118070359
0.8329374195 0.7448788032 0.2254224007
0.2953519966 0.9525840904 0.09364400692
0.2996125599 0.9517679466 0.09462657743
0.3106960512 0.9497463357 0.09681735238
0.3276769012 0.9467563205 0.1000990611
0.3524176818 0.942279626 0.105796508
0.384526665 0.9348689045 0.1123660809
0.4286813293 0.9234673428 0.1194132199
0.4761095103 0.9111256985 0.1276590576
0.5302309198 0.8965733676 0.1365734869
0.5822243443 0.8786723104 0.1457507381
0.6310463254 0.8597457349 0.154266608
0.6727503251 0.8432975577 0.1638894793
0.70965814 0.8272057865 0.1740509607
0.7428874902 0.8101321024 0.1847854473
0.7729847272 0.7955345389 0.1959374747
0.7983154327 0.7829737024 0.2099877732
0.8211034839 0.7707837582 0.224311371
0.3119316255 0.957159883 0.09491056214
0.3153796635 0.9563962605 0.09584465242
0.3244455912 0.9545497976 0.09804623453
0.3393875629 0.9520778212 0.1012053348
0.3604493034 0.948240366 0.1069905881
0.3883861069 0.942793939 0.1129338201
0.4274859026 0.9347219379 0.1204388079
0.4688883035 0.9240813473 0.1285387688
0.5177398023 0.9119261731 0.1373063588
0.5669649652 0.898100997 0.1466128564
0.6169550799 0.8813032121 0.1553093984
0.6592256384 0.8650306212 0.1645477145
0.6964648858 0.8502386347 0.1748013768
0.7301028435 0.8366075855 0.1853771145
0.7609685914 0.8217743703 0.1963007982
0.7883403973 0.8069022707 0.2082431709
0.8110047243 0.7942309561 0.2223745337
0.09996001599 0.1024117526 0.2458949665
0.2091043866 0.1023700862 0.2546132929
0.4478461915 0.1052318987 0.3214348586
0.5674871185 0.1082448568 0.3445485953
0.6510744727 0.111695995 0.3484874145
0.7066638197 0.1143781914 0.3487849687
0.7525297482 0.1169476599 0.3513753912
0.7906765506 0.1201486913 0.3525353433
0.8211662412 0.1244316609 0.3571570322
0.8506511026 0.1292535511 0.364138712
0.8722972218 0.1335038862 0.3696711585
0.8935319674 0.1377883967 0.3769644846
0.9094757234 0.1428843944 0.3864609638
0.9239498411 0.1487116758 0.3942840904
0.9367395441 0.1544964321 0.4016936869
0.9462312338 0.1601190646 0.4089432295
0.9548737094 0.1661624281 0.4170031267
0.1005134875 0.2132049691 0.2140262631
0.1488947095 0.1816898095 0.2180618037
0.4157076155 0.1250557809 0.2003413179
0.553714673 0.113468728 0.2116941911
0.644697241 0.1120138053 0.2278115024
0.7057634867 0.1132110541 0.2445791454
0.7537573344 0.1149374311 0.2591835511
0.7921252238 0.1175085769 0.27817603
0.8224337569 0.1209562188 0.29627743
0.8521517384 0.1255576342 0.3121865988
0.8728146128 0.1306575812 0.3266004591
0.8947651303 0.134769642 0.3370841681
0.9104357917 0.139833931 0.3515233331
0.9243749794 0.1460582664 0.3684054314
0.9368750633 0.1522509206 0.3814334324
0.9462420752 0.1582780779 0.3916395702
0.9547869944 0.1644284883 0.4012403995
0.1006495764 0.4743536295 0.1276591881
0.1127952876 0.4540740585 0.1574403984
0.3360160385 0.3518343067 0.1446760941
0.4984478668 0.2555978732 0.1397289197
0.6033225959 0.1970080679 0.14670865
0.6730600228 0.1651289728 0.1573973742
0.7241487993 0.1507567971 0.1711745142
0.7679023889 0.1442618168 0.1893828488
0.8027853794 0.1416811501 0.2112929373
0.8334106918 0.1409060019 0.2333482462
0.859671593 0.1418400913 0.2537026165
0.8816666433 0.1445775555 0.2793744984
0.9014048404 0.1483506584 0.3023362216
0.9168294481 0.1525577017 0.3209470162
0.9318468502 0.15682298 0.336555555
0.9431995071 0.1614147935 0.3514123482
0.9519543697 0.167051484 0.3680041731
0.10214737 0.6198956253 0.09654690636
0.1094022786 0.6095242982 0.1150764176
0.2466813006 0.5345547533 0.1257699006
0.4387717268 0.4506016048 0.1251980181
0.55401797 0.3897787739 0.1300379539
0.6350457035 0.3351613368 0.1382656937
0.6916871127 0.288114149 0.1487285924
0.738046759 0.2522105837 0.1610925871
0.777527076 0.2271098178 0.1762133322
0.8091517271 0.210442671 0.1935490057
0.8399690679 0.199656503 0.2127843526
0.8640618022 0.1925931486 0.2326056409
0.8862146978 0.1883243434 0.2523583154
0.9047094775 0.1866435462 0.2750907331
0.9203028297 0.1870916278 0.2972290836
0.9348612256 0.1885906928 0.3151863409
0.945181896 0.1910463273 0.3314436984
0.1055429842 0.7037280255 0.08972292067
0.1133300164 0.6992538618 0.09797094637
0.194014666 0.6618901231 0.1128121182
0.3752831112 0.579872958 0.1180149218
0.5054962167 0.5166121466 0.1233398227
0.5978707224 0.4692062639 0.1309934028
0.6627947143 0.4274254104 0.140380196
0.7118482212 0.3929767801 0.1511177055
0.7540262971 0.3631896295 0.163349759
0.7891327045 0.3342700262 0.1773011708
0.817846905 0.3120549418 0.1927733708
0.8474958853 0.2931897032 0.2104917785
0.8694883907 0.2777637944 0.2295443846
0.891039066 0.2661864855 0.2464791516
0.9082813151 0.2589002975 0.2653039724
0.9235777267 0.2532571409 0.2863155457
0.9371113806 0.2484917301 0.3039636816
0.1125109415 0.7626971746 0.08827389188
0.1212594792 0.7597723725 0.09330079402
0.1735299257 0.7337507509 0.1041960996
0.3259646821 0.6789162475 0.1129381529
0.458310381 0.6179419573 0.1189903143
0.557266607 0.5688783902 0.1263368651
0.632264937 0.5249995991 0.1357552036
0.686279328 0.4915362181 0.1456369051
0.7307104861 0.4627300179 0.1564968441
0.7691028986 0.4360378951 0.1686483323
0.8002283304 0.4129370244 0.1819588964
0.8286050213 0.3932466926 0.1969561672
0.8554667322 0.3762532734 0.2145473188
0.8757935593 0.361330418 0.2318647718
0.8964266638 0.3476618648 0.247432841
0.9120304666 0.3356267675 0.2648931242
0.9267980572 0.3261698902 0.2835590073
0.1231721073 0.8084317789 0.08802855774
0.1313155149 0.8047715557 0.09151447436
0.1723986788 0.78619802 0.0996189685
0.2864392019 0.742697812 0.1089367512
0.421166822 0.6919101304 0.1163112944
0.5204971838 0.6478939339 0.1234207057
0.6004739687 0.6086773959 0.1317321571
0.6607951631 0.572777398 0.1426562487
0.7086833421 0.5433926764 0.1531236229
0.7493768105 0.5161282691 0.1640632502
0.7833002357 0.4935166499 0.175860289
0.8116699862 0.4730753022 0.1896166243
0.840425806 0.4544904918 0.2050106613
0.862960959 0.4373248038 0.2216274425
0.8834277575 0.4225581165 0.2370756615
0.9017897996 0.41037772 0.2520908504
0.916293672 0.3992166849 0.2688661333
0.1374520082 0.8471877586 0.08840624145
0.1475163087 0.8444724498 0.0912448396
0.1812204811 0.8300531572 0.09769647004
0.2642822345 0.7945136892 0.106269907
0.3822807881 0.7491256131 0.1144574805
0.4865076231 0.7061454749 0.1217825203
0.567466535 0.673010277 0.1292217768
0.6351025703 0.6401935987 0.1391934724
0.6852137117 0.6115395568 0.150118522
0.7281509301 0.5831690688 0.1604544446
0.7653316685 0.5627212559 0.1715944331
0.7963536813 0.5395415252 0.1840384111
0.823534255 0.5197109689 0.1980835467
0.8505970498 0.5034997434 0.2136621436
0.8706637053 0.4882955729 0.2291047698
0.8909114882 0.4746628153 0.2433667897
0.9071198971 0.4621147658 0.2582333379
0.1550820831 0.8735198658 0.08903808884
0.163326364 0.8703455774 0.09136063685
0.1942056159 0.8596628147 0.09654451912
0.2574315262 0.8368614577 0.1044562022
0.3553322466 0.7952734085 0.1125927048
0.4541004968 0.7552390318 0.1201950581
0.540065565 0.7190973475 0.1277668977
0.6098245822 0.6919096332 0.1368445714
0.663627626 0.6676239883 0.1472732124
0.7077827672 0.642307107 0.158359113
0.7472872408 0.6208795025 0.1695621631
0.7809412858 0.5995083588 0.181488873
0.8089279769 0.5799461793 0.1945392927
0.8363046595 0.5646277855 0.2086236097
0.8594854193 0.5474717759 0.223500305
0.8788616265 0.5296479427 0.2371563153
0.8979012222 0.5165601485 0.2502596406
0.1741331629 0.8949229704 0.08985380935
0.1831884197 0.8920834528 0.09192811938
0.2095058761 0.883701424 0.09628466664
0.2590860236 0.8658420508 0.1032275067
0.3392254856 0.8375006523 0.111538285
0.4300138429 0.7980313813 0.1193089142
0.5112085551 0.7641375384 0.1269129148
0.5826716829 0.7337848646 0.135748264
0.6422358326 0.7082328528 0.1451989104
0.688278619 0.6880805348 0.1554771929
0.727856196 0.6690711044 0.1667877091
0.7640982874 0.6490812466 0.1787643911
0.7949048819 0.6309034816 0.1912668131
0.8209048162 0.6149262013 0.2044871214
0.8476330014 0.5979413214 0.2185989425
0.8674873703 0.5819672554 0.2322013465
0.8872759834 0.5695229717 0.2449235631
0.1956805738 0.9097234209 0.09078654428
0.2035084867 0.9076503688 0.09260885041
0.226353894 0.901906174 0.09649889744
0.2655339952 0.8883178758 0.1026886841
0.330919097 0.8660040138 0.1106387501
0.4099031657 0.8380548923 0.1185539718
0.4872809874 0.8031916466 0.1262620783
0.5583870299 0.7735696623 0.1350953858
0.6212446003 0.7481128044 0.1447863074
0.6698032388 0.7244473312 0.1536348888
0.7107184917 0.7054232427 0.1643136484
0.7475831307 0.6899085879 0.1768908044
0.7800292031 0.6751436864 0.1895071461
0.8074426241 0.6591893853 0.2024070722
0.8340310641 0.6430005244 0.2158498906
0.8573407927 0.6287295156 0.2289178061
0.8759229624 0.6158576132 0.2411276585
0.216743962 0.9214997172 0.09185033441
0.2240465064 0.9197423031 0.09346616852
0.2430184743 0.9150054363 0.09695042347
0.2756837218 0.905353595 0.1025883568
0.3291906928 0.8897302125 0.110333551
0.3943192627 0.866578765 0.1184248711
0.4661861373 0.8404129664 0.1260947843
0.5378651078 0.80984723 0.1348739252
0.6004896889 0.7837077057 0.1443986422
0.6511952169 0.7600025473 0.1529954737
0.6939249148 0.7400267346 0.1621810782
0.7314158772 0.722511493 0.1740852671
0.7648628034 0.707030219 0.1870541494
0.7942550919 0.6936237086 0.2001684895
0.8196169088 0.6809760956 0.2134443081
0.8461537628 0.6683272966 0.2264856471
0.8657414132 0.6550976381 0.2384156943
0.2377152505 0.9326870322 0.09302721091
0.2434952313 0.9310726912 0.09445715779
0.2588675642 0.9263476357 0.09766598806
0.2882191523 0.9181068023 0.1027477319
0.3316526832 0.9075089921 0.1101067807
0.3854437098 0.8907813881 0.1182175356
0.4501776041 0.8679408747 0.1259259679
0.5167427394 0.8442369247 0.1349018446
0.5783889619 0.8183395569 0.1443786209
0.633244751 0.7927457869 0.1531502497
0.6773216574 0.7726998646 0.1621270953
0.7163969612 0.755305816 0.1723075757
0.7508987465 0.7394647515 0.1847098742
0.7808792022 0.7241580951 0.1980710978
0.8068540914 0.7103832736 0.2116511464
0.8327282397 0.6984159859 0.2246441498
0.8561715534 0.6875767364 0.2364016499
0.2560328262 0.9407228652 0.09415285126
0.2610156372 0.9395386729 0.09542847335
0.2754743985 0.9358974454 0.09841880255
0.3014479815 0.9297389965 0.1031371402
0.3370067669 0.9204805919 0.1104268042
0.3817648667 0.908088255 0.1184891156
0.4396337707 0.8909953746 0.1262683103
0.500008427 0.8701877696 0.135313407
0.5597730741 0.8485832108 0.1446417221
0.6164258535 0.8265515328 0.1535672867
0.6618571666 0.8029679633 0.1624055149
0.7014363271 0.785211583 0.1724566446
0.7371459433 0.76965554 0.1832017745
0.7682720737 0.7547941387 0.1959729797
0.7954651456 0.7409305381 0.2101643554
0.8195088245 0.7273707936 0.2235909733
0.8454596036 0.7151246384 0.2354283175
0.2743602616 0.9464171187 0.09522661508
0.2792152036 0.9454358124 0.09643507735
0.2928822407 0.9429205259 0.09929446286
0.3142268907 0.9390921462 0.1038245439
0.3438555984 0.9321356516 0.1110714176
0.3814423686 0.9210258035 0.1185877685
0.4328156779 0.9083497212 0.1262486677
0.4868603819 0.8927784126 0.1354168623
0.5448036748 0.8732240493 0.1450544579
0.5997445603 0.8535386714 0.1541206079
0.6464033542 0.8342688466 0.1628113351
0.686844931 0.8143993489 0.1728095102
0.7229453851 0.797041586 0.1834735453
0.756050918 0.7824581901 0.1942634783
0.7842625435 0.7689422102 0.2081310978
0.8082536834 0.7557682877 0.2222046493
0.833085971 0.7436048589 0.2345269419
0.2932238815 0.9513650729 0.09635067801
0.2975389533 0.9504613965 0.097510181
0.3087498767 0.9483661369 0.1002923556
0.326373923 0.9454467454 0.104767823
0.351513566 0.9407170847 0.1116954077
0.3835521943 0.9327089392 0.1185612316
0.4288861129 0.9213791308 0.1264011516
0.4766160549 0.9093440477 0.1361183095
0.530685825 0.8944473517 0.1455299195
0.5824186857 0.876481657 0.154396515
0.6312328909 0.8579307318 0.1631190835
0.6729901553 0.8418510011 0.1732390228
0.7096858931 0.8256020024 0.1837134284
0.7428729233 0.8084461105 0.1945064462
0.773000211 0.7941633341 0.2061454744
0.7982872074 0.7816538727 0.2201396503
0.8211817028 0.7695798752 0.2331812207
0.3100434227 0.9559826137 0.09751734436
0.313525079 0.9551838786 0.09861323066
0.3228977839 0.9533758808 0.1014508898
0.338299752 0.9508423027 0.1059122699
0.3593161867 0.9469206805 0.1123176165
0.3875199761 0.9412248789 0.1187859455
0.4275715119 0.9331206476 0.126939583
0.4692790019 0.9224286823 0.1363516434
0.5182083668 0.9103967916 0.1456347621
0.5672468529 0.8961879968 0.1546895674
0.6172340354 0.879652714 0.163658486
